(.../Documents/src/pcbgcode/pcb-gcode.ulp)
(Copyright 2005 - 2009 by John Johnson)
(See readme.txt for licensing terms.)
(This file generated from the board:)
(.../docs/examples/04151_lcdi2c.brd)
(Current profile is .../pcbgcode/profiles/generic.pp  )
(This file generated 1/27/09 5:30 PM)
(Settings from pcb-machine.h)
(  Tool Size)
(0.0070 )
(Z Axis Settings)
(  High     Up        Down     Drill)
(0.5000 	0.1000 	-0.0070 	-0.0320 )
(spindle on time = 3.0000)
(milling depth = -0.0100)
(text depth = -0.0050)
(tool change at 0.0000 0.0000 0.0000 )
(feed rate xy = F20.00 )
(feed rate z  = F10.00 )
(Settings from pcb-defaults.h)
(Default isolate = 0.0010)
(isolate max = 0.0200)
(isolate step = 0.0050)
(Generated bottom outlines, bottom drill, )
(Unit of measure: inch)
(Inch Mode)
G20
(Inch Mode)
G20
(Absolute Coordinates)
G90
(Absolute Coordinates)
G90
G00 X0.0000 Y0.0000 
M03
G04 P3.000000
M03
G04 P3.000000
G00 Z0.1000 
G00 X-1.3311 Y0.8601 
G01 Z-0.0070 F10.00 
G01 X-1.3211 Y0.8701 F20.00 
G01 X-1.3081 Y0.8755 
G01 X-1.2319 Y0.8755 
G01 X-1.2189 Y0.8701 
G01 X-1.2089 Y0.8601 
G01 X-1.2085 Y0.8592 
G01 X-1.1552 Y0.9125 
G01 X-1.1448 Y0.9125 
G01 X-0.4948 Y0.9125 
G01 X-0.4875 Y0.9052 
G01 X-0.3448 Y0.7625 
G01 X-0.3084 Y0.7625 
G01 X-0.3295 Y0.7836 
G01 X-0.3295 Y0.7875 
G01 X-0.3301 Y0.7875 
G01 X-0.3303 Y0.7873 
G01 X-0.3352 Y0.7875 
G01 X-0.3402 Y0.7875 
G01 X-0.3404 Y0.7877 
G01 X-0.3406 Y0.7877 
G01 X-0.3440 Y0.7913 
G01 X-0.3475 Y0.7948 
G01 X-0.3475 Y0.7951 
G01 X-0.4704 Y0.9275 
G01 X-1.2058 Y0.9275 
G01 X-1.2089 Y0.9199 
G01 X-1.2189 Y0.9099 
G01 X-1.2319 Y0.9045 
G01 X-1.3081 Y0.9045 
G01 X-1.3211 Y0.9099 
G01 X-1.3311 Y0.9199 
G01 X-1.3325 Y0.9233 
G01 X-1.3325 Y0.8567 
G01 X-1.3311 Y0.8601 
G00 Z0.1000 
G00 X-0.1702 Y0.5365 
G01 Z-0.0070 F10.00 
G01 X-0.1710 Y0.5368 F20.00 
G01 X-0.1525 Y0.5184 
G01 X-0.1525 Y0.5435 
G01 X-0.1630 Y0.5394 
G01 X-0.1648 Y0.5375 
G01 X-0.1676 Y0.5375 
G01 X-0.1702 Y0.5365 
G00 Z0.1000 
G00 X-0.2084 Y0.8625 
G01 Z-0.0070 F10.00 
G01 X-0.2295 Y0.8836 F20.00 
G01 X-0.2295 Y0.9164 
G01 X-0.2268 Y0.9191 
G01 X-0.2452 Y0.9375 
G01 X-0.2716 Y0.9375 
G01 X-0.2505 Y0.9164 
G01 X-0.2505 Y0.8836 
G01 X-0.2532 Y0.8809 
G01 X-0.2348 Y0.8625 
G01 X-0.2084 Y0.8625 
G00 Z0.1000 
G00 X-0.2295 Y0.6836 
G01 Z-0.0070 F10.00 
G01 X-0.2295 Y0.7164 F20.00 
G01 X-0.2064 Y0.7395 
G01 X-0.1736 Y0.7395 
G01 X-0.1505 Y0.7164 
G01 X-0.1505 Y0.6836 
G01 X-0.1641 Y0.6700 
G01 X-0.1425 Y0.6862 
G01 X-0.1425 Y0.8137 
G01 X-0.1641 Y0.8299 
G01 X-0.1505 Y0.8164 
G01 X-0.1505 Y0.7836 
G01 X-0.1736 Y0.7605 
G01 X-0.2064 Y0.7605 
G01 X-0.2091 Y0.7632 
G01 X-0.2275 Y0.7448 
G01 X-0.2348 Y0.7375 
G01 X-0.2716 Y0.7375 
G01 X-0.2505 Y0.7164 
G01 X-0.2505 Y0.6836 
G01 X-0.2716 Y0.6625 
G01 X-0.2084 Y0.6625 
G01 X-0.2295 Y0.6836 
G00 Z0.1000 
G00 X-0.2505 Y0.6164 
G01 Z-0.0070 F10.00 
G01 X-0.2505 Y0.5836 F20.00 
G01 X-0.2716 Y0.5625 
G01 X-0.2084 Y0.5625 
G01 X-0.2295 Y0.5836 
G01 X-0.2295 Y0.6164 
G01 X-0.2084 Y0.6375 
G01 X-0.2716 Y0.6375 
G01 X-0.2505 Y0.6164 
G00 Z0.1000 
G00 X-0.2064 Y0.4395 
G01 Z-0.0070 F10.00 
G01 X-0.1736 Y0.4395 F20.00 
G01 X-0.1525 Y0.4184 
G01 X-0.1525 Y0.4816 
G01 X-0.1736 Y0.4605 
G01 X-0.2064 Y0.4605 
G01 X-0.2091 Y0.4632 
G01 X-0.2275 Y0.4448 
G01 X-0.2275 Y0.4184 
G01 X-0.2064 Y0.4395 
G00 Z0.1000 
G00 X-1.5319 Y0.7045 
G01 Z-0.0070 F10.00 
G01 X-1.6081 Y0.7045 F20.00 
G01 X-1.6211 Y0.7099 
G01 X-1.6311 Y0.7199 
G01 X-1.6322 Y0.7225 
G01 X-1.6398 Y0.7225 
G01 X-1.6475 Y0.7148 
G01 X-1.6475 Y0.5748 
G01 X-1.6548 Y0.5675 
G01 X-1.6548 Y0.5675 
G01 X-1.6848 Y0.5375 
G01 X-1.6952 Y0.5375 
G01 X-2.0648 Y0.5375 
G01 X-2.0975 Y0.5048 
G01 X-2.0975 Y0.4702 
G01 X-2.0548 Y0.4275 
G01 X-2.0248 Y0.4275 
G01 X-2.0175 Y0.4202 
G01 X-1.9975 Y0.4002 
G01 X-1.9975 Y0.3898 
G01 X-1.9975 Y0.1852 
G01 X-1.9048 Y0.0925 
G01 X-0.5402 Y0.0925 
G01 X-0.2525 Y0.3802 
G01 X-0.2525 Y0.3816 
G01 X-0.2736 Y0.3605 
G01 X-0.3064 Y0.3605 
G01 X-0.3091 Y0.3632 
G01 X-0.5675 Y0.1048 
G01 X-0.5748 Y0.0975 
G01 X-1.4548 Y0.0975 
G01 X-1.4652 Y0.0975 
G01 X-1.5025 Y0.1348 
G01 X-1.5025 Y0.1452 
G01 X-1.5025 Y0.6194 
G01 X-1.5029 Y0.6240 
G01 X-1.5025 Y0.6245 
G01 X-1.5025 Y0.6252 
G01 X-1.4992 Y0.6284 
G01 X-1.4775 Y0.6545 
G01 X-1.4775 Y0.7953 
G01 X-1.5057 Y0.8275 
G01 X-1.5058 Y0.8275 
G01 X-1.5089 Y0.8199 
G01 X-1.5189 Y0.8099 
G01 X-1.5319 Y0.8045 
G01 X-1.6081 Y0.8045 
G01 X-1.6211 Y0.8099 
G01 X-1.6311 Y0.8199 
G01 X-1.6365 Y0.8329 
G01 X-1.6365 Y0.8471 
G01 X-1.6311 Y0.8601 
G01 X-1.6211 Y0.8701 
G01 X-1.6081 Y0.8755 
G01 X-1.5319 Y0.8755 
G01 X-1.5189 Y0.8701 
G01 X-1.5089 Y0.8601 
G01 X-1.5058 Y0.8525 
G01 X-1.5047 Y0.8525 
G01 X-1.5043 Y0.8528 
G01 X-1.4996 Y0.8525 
G01 X-1.4948 Y0.8525 
G01 X-1.4945 Y0.8522 
G01 X-1.4940 Y0.8521 
G01 X-1.4909 Y0.8485 
G01 X-1.4875 Y0.8452 
G01 X-1.4875 Y0.8447 
G01 X-1.4559 Y0.8086 
G01 X-1.4525 Y0.8052 
G01 X-1.4525 Y0.8047 
G01 X-1.4522 Y0.8043 
G01 X-1.4525 Y0.7996 
G01 X-1.4525 Y0.6506 
G01 X-1.4521 Y0.6460 
G01 X-1.4525 Y0.6455 
G01 X-1.4525 Y0.6448 
G01 X-1.4558 Y0.6416 
G01 X-1.4775 Y0.6155 
G01 X-1.4775 Y0.1452 
G01 X-1.4548 Y0.1225 
G01 X-0.5852 Y0.1225 
G01 X-0.3268 Y0.3809 
G01 X-0.3295 Y0.3836 
G01 X-0.3295 Y0.4164 
G01 X-0.3064 Y0.4395 
G01 X-0.2736 Y0.4395 
G01 X-0.2525 Y0.4184 
G01 X-0.2525 Y0.4448 
G01 X-0.2525 Y0.4552 
G01 X-0.2268 Y0.4809 
G01 X-0.2295 Y0.4836 
G01 X-0.2295 Y0.5164 
G01 X-0.2084 Y0.5375 
G01 X-0.2716 Y0.5375 
G01 X-0.2505 Y0.5164 
G01 X-0.2505 Y0.4836 
G01 X-0.2736 Y0.4605 
G01 X-0.3064 Y0.4605 
G01 X-0.3091 Y0.4632 
G01 X-0.3675 Y0.4048 
G01 X-0.3675 Y0.3648 
G01 X-0.3748 Y0.3575 
G01 X-0.5975 Y0.1348 
G01 X-0.6048 Y0.1275 
G01 X-1.4252 Y0.1275 
G01 X-1.4325 Y0.1348 
G01 X-1.4625 Y0.1648 
G01 X-1.4625 Y0.1752 
G01 X-1.4625 Y0.5991 
G01 X-1.4631 Y0.6034 
G01 X-1.4625 Y0.6042 
G01 X-1.4625 Y0.6052 
G01 X-1.4595 Y0.6082 
G01 X-1.4475 Y0.6242 
G01 X-1.4475 Y0.8251 
G01 X-1.4955 Y0.8775 
G01 X-1.6148 Y0.8775 
G01 X-1.6375 Y0.8548 
G01 X-1.6375 Y0.8152 
G01 X-1.6248 Y0.8025 
G01 X-1.5029 Y0.8025 
G01 X-1.5010 Y0.8035 
G01 X-1.4980 Y0.8025 
G01 X-1.4948 Y0.8025 
G01 X-1.4932 Y0.8009 
G01 X-1.4911 Y0.8002 
G01 X-1.4897 Y0.7974 
G01 X-1.4875 Y0.7952 
G01 X-1.4875 Y0.7929 
G01 X-1.4847 Y0.7874 
G01 X-1.4825 Y0.7852 
G01 X-1.4825 Y0.7829 
G01 X-1.4815 Y0.7810 
G01 X-1.4825 Y0.7780 
G01 X-1.4825 Y0.6706 
G01 X-1.4821 Y0.6660 
G01 X-1.4825 Y0.6655 
G01 X-1.4825 Y0.6648 
G01 X-1.4858 Y0.6616 
G01 X-1.5035 Y0.6403 
G01 X-1.5035 Y0.6329 
G01 X-1.5089 Y0.6199 
G01 X-1.5189 Y0.6099 
G01 X-1.5319 Y0.6045 
G01 X-1.6081 Y0.6045 
G01 X-1.6211 Y0.6099 
G01 X-1.6311 Y0.6199 
G01 X-1.6365 Y0.6329 
G01 X-1.6365 Y0.6471 
G01 X-1.6311 Y0.6601 
G01 X-1.6211 Y0.6701 
G01 X-1.6081 Y0.6755 
G01 X-1.5319 Y0.6755 
G01 X-1.5189 Y0.6701 
G01 X-1.5147 Y0.6659 
G01 X-1.5075 Y0.6745 
G01 X-1.5075 Y0.7233 
G01 X-1.5089 Y0.7199 
G01 X-1.5189 Y0.7099 
G01 X-1.5319 Y0.7045 
G00 Z0.1000 
G00 X-1.5319 Y0.3045 
G01 Z-0.0070 F10.00 
G01 X-1.5878 Y0.3045 F20.00 
G01 X-1.7407 Y0.1516 
G01 X-1.7436 Y0.1481 
G01 X-1.7443 Y0.1480 
G01 X-1.7448 Y0.1475 
G01 X-1.7494 Y0.1475 
G01 X-1.7835 Y0.1441 
G01 X-1.7835 Y0.1429 
G01 X-1.7889 Y0.1299 
G01 X-1.7989 Y0.1199 
G01 X-1.8119 Y0.1145 
G01 X-1.8881 Y0.1145 
G01 X-1.9011 Y0.1199 
G01 X-1.9111 Y0.1299 
G01 X-1.9165 Y0.1429 
G01 X-1.9165 Y0.1571 
G01 X-1.9163 Y0.1575 
G01 X-1.9746 Y0.2075 
G01 X-1.9752 Y0.2075 
G01 X-1.9785 Y0.2108 
G01 X-1.9821 Y0.2139 
G01 X-1.9821 Y0.2144 
G01 X-1.9825 Y0.2148 
G01 X-1.9825 Y0.2195 
G01 X-1.9829 Y0.2242 
G01 X-1.9825 Y0.2246 
G01 X-1.9825 Y0.3953 
G01 X-2.0255 Y0.4445 
G01 X-2.0547 Y0.4445 
G01 X-2.0755 Y0.4653 
G01 X-2.0755 Y0.4947 
G01 X-2.0547 Y0.5155 
G01 X-2.0253 Y0.5155 
G01 X-2.0045 Y0.4947 
G01 X-2.0045 Y0.4653 
G01 X-2.0077 Y0.4621 
G01 X-1.9609 Y0.4086 
G01 X-1.9575 Y0.4052 
G01 X-1.9575 Y0.4047 
G01 X-1.9572 Y0.4043 
G01 X-1.9575 Y0.3996 
G01 X-1.9575 Y0.2257 
G01 X-1.9026 Y0.1786 
G01 X-1.9011 Y0.1801 
G01 X-1.8881 Y0.1855 
G01 X-1.8119 Y0.1855 
G01 X-1.7989 Y0.1801 
G01 X-1.7889 Y0.1701 
G01 X-1.7883 Y0.1687 
G01 X-1.7557 Y0.1720 
G01 X-1.6187 Y0.3089 
G01 X-1.6211 Y0.3099 
G01 X-1.6311 Y0.3199 
G01 X-1.6365 Y0.3329 
G01 X-1.6365 Y0.3471 
G01 X-1.6311 Y0.3601 
G01 X-1.6211 Y0.3701 
G01 X-1.6081 Y0.3755 
G01 X-1.5319 Y0.3755 
G01 X-1.5189 Y0.3701 
G01 X-1.5089 Y0.3601 
G01 X-1.5035 Y0.3471 
G01 X-1.5035 Y0.3329 
G01 X-1.5089 Y0.3199 
G01 X-1.5189 Y0.3099 
G01 X-1.5319 Y0.3045 
G00 Z0.1000 
G00 X-1.5319 Y0.4045 
G01 Z-0.0070 F10.00 
G01 X-1.6081 Y0.4045 F20.00 
G01 X-1.6211 Y0.4099 
G01 X-1.6311 Y0.4199 
G01 X-1.6342 Y0.4275 
G01 X-1.6348 Y0.4275 
G01 X-1.7906 Y0.2718 
G01 X-1.7889 Y0.2701 
G01 X-1.7835 Y0.2571 
G01 X-1.7835 Y0.2429 
G01 X-1.7889 Y0.2299 
G01 X-1.7989 Y0.2199 
G01 X-1.8119 Y0.2145 
G01 X-1.8881 Y0.2145 
G01 X-1.9011 Y0.2199 
G01 X-1.9111 Y0.2299 
G01 X-1.9165 Y0.2429 
G01 X-1.9165 Y0.2566 
G01 X-1.9347 Y0.2725 
G01 X-1.9352 Y0.2725 
G01 X-1.9385 Y0.2759 
G01 X-1.9421 Y0.2790 
G01 X-1.9422 Y0.2795 
G01 X-1.9425 Y0.2798 
G01 X-1.9425 Y0.2846 
G01 X-1.9428 Y0.2893 
G01 X-1.9425 Y0.2897 
G01 X-1.9425 Y0.4523 
G01 X-1.9555 Y0.4653 
G01 X-1.9555 Y0.4947 
G01 X-1.9347 Y0.5155 
G01 X-1.9053 Y0.5155 
G01 X-1.8845 Y0.4947 
G01 X-1.8845 Y0.4653 
G01 X-1.9053 Y0.4445 
G01 X-1.9175 Y0.4445 
G01 X-1.9175 Y0.2907 
G01 X-1.9031 Y0.2781 
G01 X-1.9011 Y0.2801 
G01 X-1.8881 Y0.2855 
G01 X-1.8122 Y0.2855 
G01 X-1.6452 Y0.4525 
G01 X-1.6348 Y0.4525 
G01 X-1.6342 Y0.4525 
G01 X-1.6311 Y0.4601 
G01 X-1.6211 Y0.4701 
G01 X-1.6081 Y0.4755 
G01 X-1.5319 Y0.4755 
G01 X-1.5189 Y0.4701 
G01 X-1.5089 Y0.4601 
G01 X-1.5035 Y0.4471 
G01 X-1.5035 Y0.4329 
G01 X-1.5089 Y0.4199 
G01 X-1.5189 Y0.4099 
G01 X-1.5319 Y0.4045 
G00 Z0.1000 
G00 X-1.5319 Y0.5045 
G01 Z-0.0070 F10.00 
G01 X-1.6081 Y0.5045 F20.00 
G01 X-1.6211 Y0.5099 
G01 X-1.6268 Y0.5156 
G01 X-1.6675 Y0.4748 
G01 X-1.6675 Y0.4748 
G01 X-1.6748 Y0.4675 
G01 X-1.7645 Y0.4675 
G01 X-1.7645 Y0.4653 
G01 X-1.7853 Y0.4445 
G01 X-1.8078 Y0.4445 
G01 X-1.8375 Y0.4148 
G01 X-1.8375 Y0.3855 
G01 X-1.8119 Y0.3855 
G01 X-1.7989 Y0.3801 
G01 X-1.7889 Y0.3701 
G01 X-1.7835 Y0.3571 
G01 X-1.7835 Y0.3429 
G01 X-1.7889 Y0.3299 
G01 X-1.7989 Y0.3199 
G01 X-1.8119 Y0.3145 
G01 X-1.8881 Y0.3145 
G01 X-1.9011 Y0.3199 
G01 X-1.9111 Y0.3299 
G01 X-1.9165 Y0.3429 
G01 X-1.9165 Y0.3571 
G01 X-1.9111 Y0.3701 
G01 X-1.9011 Y0.3801 
G01 X-1.8881 Y0.3855 
G01 X-1.8625 Y0.3855 
G01 X-1.8625 Y0.4252 
G01 X-1.8552 Y0.4325 
G01 X-1.8289 Y0.4587 
G01 X-1.8355 Y0.4653 
G01 X-1.8355 Y0.4947 
G01 X-1.8147 Y0.5155 
G01 X-1.7853 Y0.5155 
G01 X-1.7645 Y0.4947 
G01 X-1.7645 Y0.4925 
G01 X-1.6852 Y0.4925 
G01 X-1.6365 Y0.5412 
G01 X-1.6365 Y0.5471 
G01 X-1.6311 Y0.5601 
G01 X-1.6211 Y0.5701 
G01 X-1.6081 Y0.5755 
G01 X-1.5319 Y0.5755 
G01 X-1.5189 Y0.5701 
G01 X-1.5089 Y0.5601 
G01 X-1.5035 Y0.5471 
G01 X-1.5035 Y0.5329 
G01 X-1.5089 Y0.5199 
G01 X-1.5189 Y0.5099 
G01 X-1.5319 Y0.5045 
G00 Z0.1000 
G00 X-0.8060 Y0.8581 
G01 Z-0.0070 F10.00 
G01 X-0.8060 Y0.7820 F20.00 
G01 X-0.8114 Y0.7689 
G01 X-0.8214 Y0.7590 
G01 X-0.8325 Y0.7544 
G01 X-0.8325 Y0.7498 
G01 X-0.8398 Y0.7425 
G01 X-0.8698 Y0.7125 
G01 X-0.8802 Y0.7125 
G01 X-0.9098 Y0.7125 
G01 X-0.9448 Y0.6775 
G01 X-0.9552 Y0.6775 
G01 X-1.3248 Y0.6775 
G01 X-1.3475 Y0.6548 
G01 X-1.3475 Y0.6152 
G01 X-1.3078 Y0.5755 
G01 X-1.2319 Y0.5755 
G01 X-1.2189 Y0.5701 
G01 X-1.2089 Y0.5601 
G01 X-1.2035 Y0.5471 
G01 X-1.2035 Y0.5329 
G01 X-1.2089 Y0.5199 
G01 X-1.2189 Y0.5099 
G01 X-1.2319 Y0.5045 
G01 X-1.3081 Y0.5045 
G01 X-1.3211 Y0.5099 
G01 X-1.3311 Y0.5199 
G01 X-1.3365 Y0.5329 
G01 X-1.3365 Y0.5471 
G01 X-1.3311 Y0.5601 
G01 X-1.3294 Y0.5618 
G01 X-1.3725 Y0.6048 
G01 X-1.3725 Y0.6152 
G01 X-1.3725 Y0.6652 
G01 X-1.3652 Y0.6725 
G01 X-1.3352 Y0.7025 
G01 X-1.3248 Y0.7025 
G01 X-0.9552 Y0.7025 
G01 X-0.9275 Y0.7302 
G01 X-0.9202 Y0.7375 
G01 X-0.8802 Y0.7375 
G01 X-0.8596 Y0.7581 
G01 X-0.8616 Y0.7590 
G01 X-0.8716 Y0.7689 
G01 X-0.8770 Y0.7820 
G01 X-0.8770 Y0.8581 
G01 X-0.8716 Y0.8712 
G01 X-0.8616 Y0.8811 
G01 X-0.8486 Y0.8866 
G01 X-0.8344 Y0.8866 
G01 X-0.8214 Y0.8811 
G01 X-0.8114 Y0.8712 
G01 X-0.8060 Y0.8581 
G00 Z0.1000 
G00 X-0.7589 Y0.6019 
G01 Z-0.0070 F10.00 
G01 X-0.7589 Y0.6780 F20.00 
G01 X-0.7535 Y0.6911 
G01 X-0.7435 Y0.7010 
G01 X-0.7304 Y0.7064 
G01 X-0.7163 Y0.7064 
G01 X-0.7033 Y0.7010 
G01 X-0.6933 Y0.6911 
G01 X-0.6879 Y0.6780 
G01 X-0.6879 Y0.6019 
G01 X-0.6933 Y0.5888 
G01 X-0.7033 Y0.5789 
G01 X-0.7075 Y0.5771 
G01 X-0.7075 Y0.5698 
G01 X-0.7148 Y0.5625 
G01 X-0.7148 Y0.5625 
G01 X-0.8398 Y0.4375 
G01 X-0.8502 Y0.4375 
G01 X-1.2035 Y0.4375 
G01 X-1.2035 Y0.4329 
G01 X-1.2089 Y0.4199 
G01 X-1.2189 Y0.4099 
G01 X-1.2319 Y0.4045 
G01 X-1.3081 Y0.4045 
G01 X-1.3211 Y0.4099 
G01 X-1.3311 Y0.4199 
G01 X-1.3365 Y0.4329 
G01 X-1.3365 Y0.4471 
G01 X-1.3311 Y0.4601 
G01 X-1.3211 Y0.4701 
G01 X-1.3081 Y0.4755 
G01 X-1.2319 Y0.4755 
G01 X-1.2189 Y0.4701 
G01 X-1.2113 Y0.4625 
G01 X-0.8502 Y0.4625 
G01 X-0.7366 Y0.5760 
G01 X-0.7435 Y0.5789 
G01 X-0.7535 Y0.5888 
G01 X-0.7589 Y0.6019 
G00 Z0.1000 
G00 X-0.8847 Y0.8581 
G01 Z-0.0070 F10.00 
G01 X-0.8847 Y0.7820 F20.00 
G01 X-0.8901 Y0.7689 
G01 X-0.9001 Y0.7590 
G01 X-0.9132 Y0.7536 
G01 X-0.9273 Y0.7536 
G01 X-0.9403 Y0.7590 
G01 X-0.9503 Y0.7689 
G01 X-0.9557 Y0.7820 
G01 X-0.9557 Y0.8075 
G01 X-1.1598 Y0.8075 
G01 X-1.1898 Y0.7775 
G01 X-1.2002 Y0.7775 
G01 X-1.3352 Y0.7775 
G01 X-1.3425 Y0.7848 
G01 X-1.3575 Y0.7998 
G01 X-1.3575 Y0.8102 
G01 X-1.3575 Y0.9798 
G01 X-1.5025 Y1.1248 
G01 X-1.5025 Y1.1345 
G01 X-1.5047 Y1.1345 
G01 X-1.5255 Y1.1553 
G01 X-1.5255 Y1.1847 
G01 X-1.5239 Y1.1863 
G01 X-1.5252 Y1.1875 
G01 X-1.7080 Y1.1875 
G01 X-1.7110 Y1.1865 
G01 X-1.7129 Y1.1875 
G01 X-1.7152 Y1.1875 
G01 X-1.7152 Y1.1876 
G01 X-1.7231 Y1.1797 
G01 X-1.7405 Y1.1725 
G01 X-1.7594 Y1.1725 
G01 X-1.7769 Y1.1797 
G01 X-1.7903 Y1.1931 
G01 X-1.7975 Y1.2105 
G01 X-1.7975 Y1.2294 
G01 X-1.7903 Y1.2469 
G01 X-1.7769 Y1.2603 
G01 X-1.7594 Y1.2675 
G01 X-1.7405 Y1.2675 
G01 X-1.7231 Y1.2603 
G01 X-1.7097 Y1.2469 
G01 X-1.7025 Y1.2294 
G01 X-1.7025 Y1.2125 
G01 X-1.5148 Y1.2125 
G01 X-1.5075 Y1.2052 
G01 X-1.5063 Y1.2039 
G01 X-1.5047 Y1.2055 
G01 X-1.4753 Y1.2055 
G01 X-1.4545 Y1.1847 
G01 X-1.4545 Y1.1553 
G01 X-1.4753 Y1.1345 
G01 X-1.4768 Y1.1345 
G01 X-1.3448 Y1.0025 
G01 X-1.3348 Y1.0025 
G01 X-0.5455 Y1.0025 
G01 X-0.5455 Y1.0147 
G01 X-0.5247 Y1.0355 
G01 X-0.4953 Y1.0355 
G01 X-0.4745 Y1.0147 
G01 X-0.4745 Y0.9853 
G01 X-0.4953 Y0.9645 
G01 X-0.5247 Y0.9645 
G01 X-0.5377 Y0.9775 
G01 X-1.3325 Y0.9775 
G01 X-1.3325 Y0.9567 
G01 X-1.3311 Y0.9601 
G01 X-1.3211 Y0.9701 
G01 X-1.3081 Y0.9755 
G01 X-1.2319 Y0.9755 
G01 X-1.2189 Y0.9701 
G01 X-1.2089 Y0.9601 
G01 X-1.2058 Y0.9525 
G01 X-0.4699 Y0.9525 
G01 X-0.4697 Y0.9527 
G01 X-0.4648 Y0.9525 
G01 X-0.4598 Y0.9525 
G01 X-0.4596 Y0.9523 
G01 X-0.4594 Y0.9523 
G01 X-0.4560 Y0.9487 
G01 X-0.4525 Y0.9452 
G01 X-0.4525 Y0.9449 
G01 X-0.3296 Y0.8125 
G01 X-0.3295 Y0.8125 
G01 X-0.3295 Y0.8164 
G01 X-0.3064 Y0.8395 
G01 X-0.2736 Y0.8395 
G01 X-0.2505 Y0.8164 
G01 X-0.2505 Y0.7836 
G01 X-0.2716 Y0.7625 
G01 X-0.2452 Y0.7625 
G01 X-0.2268 Y0.7809 
G01 X-0.2295 Y0.7836 
G01 X-0.2295 Y0.8164 
G01 X-0.2084 Y0.8375 
G01 X-0.2348 Y0.8375 
G01 X-0.2452 Y0.8375 
G01 X-0.2709 Y0.8632 
G01 X-0.2736 Y0.8605 
G01 X-0.3064 Y0.8605 
G01 X-0.3295 Y0.8836 
G01 X-0.3295 Y0.9164 
G01 X-0.3084 Y0.9375 
G01 X-0.4352 Y0.9375 
G01 X-0.4425 Y0.9448 
G01 X-0.4725 Y0.9748 
G01 X-0.4725 Y0.9852 
G01 X-0.4725 Y1.0148 
G01 X-0.4952 Y1.0375 
G01 X-1.2035 Y1.0375 
G01 X-1.2035 Y1.0329 
G01 X-1.2089 Y1.0199 
G01 X-1.2189 Y1.0099 
G01 X-1.2319 Y1.0045 
G01 X-1.3081 Y1.0045 
G01 X-1.3211 Y1.0099 
G01 X-1.3311 Y1.0199 
G01 X-1.3365 Y1.0329 
G01 X-1.3365 Y1.0471 
G01 X-1.3311 Y1.0601 
G01 X-1.3211 Y1.0701 
G01 X-1.3081 Y1.0755 
G01 X-1.2319 Y1.0755 
G01 X-1.2189 Y1.0701 
G01 X-1.2113 Y1.0625 
G01 X-0.4952 Y1.0625 
G01 X-0.4848 Y1.0625 
G01 X-0.4548 Y1.0325 
G01 X-0.4475 Y1.0252 
G01 X-0.4475 Y0.9852 
G01 X-0.4248 Y0.9625 
G01 X-0.3084 Y0.9625 
G01 X-0.3234 Y0.9775 
G01 X-0.3823 Y0.9775 
G01 X-0.3953 Y0.9645 
G01 X-0.4247 Y0.9645 
G01 X-0.4455 Y0.9853 
G01 X-0.4455 Y1.0147 
G01 X-0.4339 Y1.0263 
G01 X-0.5052 Y1.0975 
G01 X-1.1548 Y1.0975 
G01 X-1.1652 Y1.0975 
G01 X-1.2052 Y1.1376 
G01 X-1.2103 Y1.1325 
G01 X-1.2497 Y1.1325 
G01 X-1.2647 Y1.1476 
G01 X-1.2975 Y1.1148 
G01 X-1.2975 Y1.1148 
G01 X-1.3048 Y1.1075 
G01 X-1.4148 Y1.1075 
G01 X-1.4252 Y1.1075 
G01 X-1.4452 Y1.1275 
G01 X-1.4525 Y1.1348 
G01 X-1.4525 Y1.2095 
G01 X-1.4547 Y1.2095 
G01 X-1.4755 Y1.2303 
G01 X-1.4755 Y1.2597 
G01 X-1.4739 Y1.2613 
G01 X-1.4902 Y1.2775 
G01 X-1.7648 Y1.2775 
G01 X-1.8075 Y1.2348 
G01 X-1.8075 Y1.1952 
G01 X-1.8075 Y1.1952 
G01 X-1.7747 Y1.1624 
G01 X-1.7697 Y1.1675 
G01 X-1.7303 Y1.1675 
G01 X-1.7025 Y1.1397 
G01 X-1.7025 Y1.1003 
G01 X-1.7303 Y1.0725 
G01 X-1.7697 Y1.0725 
G01 X-1.7975 Y1.1003 
G01 X-1.7975 Y1.1397 
G01 X-1.7924 Y1.1447 
G01 X-1.8252 Y1.1775 
G01 X-2.2948 Y1.1775 
G01 X-2.3975 Y1.0748 
G01 X-2.3975 Y0.9952 
G01 X-2.3548 Y0.9525 
G01 X-2.1952 Y0.9525 
G01 X-2.1125 Y1.0352 
G01 X-2.1125 Y1.0652 
G01 X-2.1052 Y1.0725 
G01 X-2.0452 Y1.1325 
G01 X-2.0348 Y1.1325 
G01 X-1.9648 Y1.1325 
G01 X-1.9575 Y1.1252 
G01 X-1.9075 Y1.0752 
G01 X-1.9075 Y1.0648 
G01 X-1.9075 Y0.9902 
G01 X-1.8848 Y0.9675 
G01 X-1.7948 Y0.9675 
G01 X-1.7352 Y0.9675 
G01 X-1.6702 Y1.0325 
G01 X-1.6598 Y1.0325 
G01 X-1.6363 Y1.0325 
G01 X-1.6365 Y1.0329 
G01 X-1.6365 Y1.0471 
G01 X-1.6311 Y1.0601 
G01 X-1.6211 Y1.0701 
G01 X-1.6081 Y1.0755 
G01 X-1.5319 Y1.0755 
G01 X-1.5189 Y1.0701 
G01 X-1.5089 Y1.0601 
G01 X-1.5035 Y1.0471 
G01 X-1.5035 Y1.0329 
G01 X-1.5040 Y1.0318 
G01 X-1.5011 Y1.0287 
G01 X-1.4975 Y1.0252 
G01 X-1.4975 Y1.0250 
G01 X-1.3960 Y0.9187 
G01 X-1.3925 Y0.9152 
G01 X-1.3925 Y0.9150 
G01 X-1.3924 Y0.9149 
G01 X-1.3925 Y0.9098 
G01 X-1.3925 Y0.5502 
G01 X-1.3875 Y0.5452 
G01 X-1.3875 Y0.5348 
G01 X-1.3925 Y0.5298 
G01 X-1.3925 Y0.5025 
G01 X-0.8902 Y0.5025 
G01 X-0.8163 Y0.5764 
G01 X-0.8222 Y0.5789 
G01 X-0.8322 Y0.5888 
G01 X-0.8376 Y0.6019 
G01 X-0.8376 Y0.6780 
G01 X-0.8322 Y0.6911 
G01 X-0.8222 Y0.7010 
G01 X-0.8092 Y0.7064 
G01 X-0.7951 Y0.7064 
G01 X-0.7820 Y0.7010 
G01 X-0.7720 Y0.6911 
G01 X-0.7666 Y0.6780 
G01 X-0.7666 Y0.6019 
G01 X-0.7720 Y0.5888 
G01 X-0.7820 Y0.5789 
G01 X-0.7875 Y0.5766 
G01 X-0.7875 Y0.5698 
G01 X-0.8798 Y0.4775 
G01 X-0.8902 Y0.4775 
G01 X-1.3925 Y0.4775 
G01 X-1.3925 Y0.3552 
G01 X-1.3648 Y0.3275 
G01 X-1.3575 Y0.3202 
G01 X-1.3575 Y0.2655 
G01 X-1.3553 Y0.2655 
G01 X-1.3345 Y0.2447 
G01 X-1.3345 Y0.2222 
G01 X-1.3048 Y0.1925 
G01 X-1.0352 Y0.1925 
G01 X-0.9552 Y0.2725 
G01 X-0.9448 Y0.2725 
G01 X-0.6665 Y0.2725 
G01 X-0.6665 Y0.2771 
G01 X-0.6611 Y0.2901 
G01 X-0.6511 Y0.3001 
G01 X-0.6381 Y0.3055 
G01 X-0.5619 Y0.3055 
G01 X-0.5489 Y0.3001 
G01 X-0.5389 Y0.2901 
G01 X-0.5335 Y0.2771 
G01 X-0.5335 Y0.2629 
G01 X-0.5389 Y0.2499 
G01 X-0.5489 Y0.2399 
G01 X-0.5619 Y0.2345 
G01 X-0.6381 Y0.2345 
G01 X-0.6511 Y0.2399 
G01 X-0.6587 Y0.2475 
G01 X-0.9448 Y0.2475 
G01 X-1.0175 Y0.1748 
G01 X-1.0248 Y0.1675 
G01 X-1.3048 Y0.1675 
G01 X-1.3152 Y0.1675 
G01 X-1.3487 Y0.2011 
G01 X-1.3553 Y0.1945 
G01 X-1.3847 Y0.1945 
G01 X-1.4055 Y0.2153 
G01 X-1.4055 Y0.2447 
G01 X-1.3847 Y0.2655 
G01 X-1.3825 Y0.2655 
G01 X-1.3825 Y0.3098 
G01 X-1.4175 Y0.3448 
G01 X-1.4175 Y0.3552 
G01 X-1.4175 Y0.4952 
G01 X-1.4175 Y0.5298 
G01 X-1.4175 Y0.5348 
G01 X-1.4175 Y0.9050 
G01 X-1.5153 Y1.0075 
G01 X-1.5247 Y1.0075 
G01 X-1.5319 Y1.0045 
G01 X-1.6081 Y1.0045 
G01 X-1.6153 Y1.0075 
G01 X-1.6598 Y1.0075 
G01 X-1.7175 Y0.9498 
G01 X-1.7248 Y0.9425 
G01 X-1.7875 Y0.9425 
G01 X-1.7875 Y0.7155 
G01 X-1.7853 Y0.7155 
G01 X-1.7645 Y0.6947 
G01 X-1.7645 Y0.6653 
G01 X-1.7853 Y0.6445 
G01 X-1.8147 Y0.6445 
G01 X-1.8277 Y0.6575 
G01 X-1.8923 Y0.6575 
G01 X-1.9053 Y0.6445 
G01 X-1.9347 Y0.6445 
G01 X-1.9477 Y0.6575 
G01 X-2.0123 Y0.6575 
G01 X-2.0253 Y0.6445 
G01 X-2.0547 Y0.6445 
G01 X-2.0755 Y0.6653 
G01 X-2.0755 Y0.6947 
G01 X-2.0547 Y0.7155 
G01 X-2.0253 Y0.7155 
G01 X-2.0045 Y0.6947 
G01 X-2.0045 Y0.6825 
G01 X-1.9555 Y0.6825 
G01 X-1.9555 Y0.6947 
G01 X-1.9347 Y0.7155 
G01 X-1.9053 Y0.7155 
G01 X-1.8845 Y0.6947 
G01 X-1.8845 Y0.6825 
G01 X-1.8355 Y0.6825 
G01 X-1.8355 Y0.6947 
G01 X-1.8147 Y0.7155 
G01 X-1.8125 Y0.7155 
G01 X-1.8125 Y0.9425 
G01 X-1.8848 Y0.9425 
G01 X-1.8952 Y0.9425 
G01 X-1.9325 Y0.9798 
G01 X-1.9325 Y0.9902 
G01 X-1.9325 Y1.0648 
G01 X-1.9752 Y1.1075 
G01 X-2.0348 Y1.1075 
G01 X-2.0875 Y1.0548 
G01 X-2.0875 Y1.0352 
G01 X-2.0875 Y1.0248 
G01 X-2.1775 Y0.9348 
G01 X-2.1848 Y0.9275 
G01 X-2.3548 Y0.9275 
G01 X-2.3652 Y0.9275 
G01 X-2.4152 Y0.9775 
G01 X-2.4225 Y0.9848 
G01 X-2.4225 Y1.0748 
G01 X-2.4225 Y1.0852 
G01 X-2.3125 Y1.1952 
G01 X-2.3052 Y1.2025 
G01 X-1.8325 Y1.2025 
G01 X-1.8325 Y1.2348 
G01 X-1.8325 Y1.2452 
G01 X-1.7825 Y1.2952 
G01 X-1.7752 Y1.3025 
G01 X-1.4798 Y1.3025 
G01 X-1.4725 Y1.2952 
G01 X-1.4563 Y1.2789 
G01 X-1.4547 Y1.2805 
G01 X-1.4253 Y1.2805 
G01 X-1.4045 Y1.2597 
G01 X-1.4045 Y1.2303 
G01 X-1.4253 Y1.2095 
G01 X-1.4275 Y1.2095 
G01 X-1.4275 Y1.1452 
G01 X-1.4148 Y1.1325 
G01 X-1.3152 Y1.1325 
G01 X-1.2809 Y1.1668 
G01 X-1.2802 Y1.1689 
G01 X-1.2775 Y1.1702 
G01 X-1.2775 Y1.1997 
G01 X-1.2497 Y1.2275 
G01 X-1.2103 Y1.2275 
G01 X-1.1825 Y1.1997 
G01 X-1.1825 Y1.1603 
G01 X-1.1876 Y1.1552 
G01 X-1.1548 Y1.1225 
G01 X-0.4948 Y1.1225 
G01 X-0.4875 Y1.1152 
G01 X-0.4078 Y1.0355 
G01 X-0.3953 Y1.0355 
G01 X-0.3745 Y1.0147 
G01 X-0.3745 Y1.0025 
G01 X-0.3295 Y1.0025 
G01 X-0.3295 Y1.0164 
G01 X-0.3064 Y1.0395 
G01 X-0.2736 Y1.0395 
G01 X-0.2505 Y1.0164 
G01 X-0.2505 Y0.9836 
G01 X-0.2716 Y0.9625 
G01 X-0.2452 Y0.9625 
G01 X-0.2348 Y0.9625 
G01 X-0.2091 Y0.9368 
G01 X-0.2064 Y0.9395 
G01 X-0.1736 Y0.9395 
G01 X-0.1505 Y0.9164 
G01 X-0.1505 Y0.8836 
G01 X-0.1716 Y0.8625 
G01 X-0.1709 Y0.8625 
G01 X-0.1666 Y0.8631 
G01 X-0.1658 Y0.8625 
G01 X-0.1648 Y0.8625 
G01 X-0.1618 Y0.8595 
G01 X-0.1258 Y0.8325 
G01 X-0.1248 Y0.8325 
G01 X-0.1218 Y0.8295 
G01 X-0.1184 Y0.8269 
G01 X-0.1182 Y0.8259 
G01 X-0.1175 Y0.8252 
G01 X-0.1175 Y0.8209 
G01 X-0.1169 Y0.8166 
G01 X-0.1175 Y0.8158 
G01 X-0.1175 Y0.6842 
G01 X-0.1169 Y0.6834 
G01 X-0.1175 Y0.6791 
G01 X-0.1175 Y0.6748 
G01 X-0.1182 Y0.6741 
G01 X-0.1184 Y0.6731 
G01 X-0.1218 Y0.6705 
G01 X-0.1248 Y0.6675 
G01 X-0.1258 Y0.6675 
G01 X-0.1618 Y0.6405 
G01 X-0.1648 Y0.6375 
G01 X-0.1658 Y0.6375 
G01 X-0.1666 Y0.6369 
G01 X-0.1709 Y0.6375 
G01 X-0.1716 Y0.6375 
G01 X-0.1505 Y0.6164 
G01 X-0.1505 Y0.5836 
G01 X-0.1711 Y0.5630 
G01 X-0.1520 Y0.5706 
G01 X-0.1502 Y0.5725 
G01 X-0.1502 Y0.5725 
G01 X-0.1125 Y0.6102 
G01 X-0.1125 Y0.9096 
G01 X-0.1701 Y0.9640 
G01 X-0.1736 Y0.9605 
G01 X-0.2064 Y0.9605 
G01 X-0.2295 Y0.9836 
G01 X-0.2295 Y1.0164 
G01 X-0.2243 Y1.0216 
G01 X-0.3502 Y1.1475 
G01 X-1.0880 Y1.1475 
G01 X-1.0910 Y1.1465 
G01 X-1.0929 Y1.1475 
G01 X-1.0952 Y1.1475 
G01 X-1.0952 Y1.1476 
G01 X-1.1031 Y1.1397 
G01 X-1.1205 Y1.1325 
G01 X-1.1394 Y1.1325 
G01 X-1.1569 Y1.1397 
G01 X-1.1703 Y1.1531 
G01 X-1.1775 Y1.1705 
G01 X-1.1775 Y1.1894 
G01 X-1.1715 Y1.2039 
G01 X-1.2052 Y1.2375 
G01 X-1.2448 Y1.2375 
G01 X-1.3148 Y1.1675 
G01 X-1.3252 Y1.1675 
G01 X-1.3545 Y1.1675 
G01 X-1.3545 Y1.1553 
G01 X-1.3753 Y1.1345 
G01 X-1.4047 Y1.1345 
G01 X-1.4255 Y1.1553 
G01 X-1.4255 Y1.1847 
G01 X-1.4047 Y1.2055 
G01 X-1.3753 Y1.2055 
G01 X-1.3623 Y1.1925 
G01 X-1.3252 Y1.1925 
G01 X-1.2625 Y1.2552 
G01 X-1.2552 Y1.2625 
G01 X-1.2052 Y1.2625 
G01 X-1.1948 Y1.2625 
G01 X-1.1539 Y1.2215 
G01 X-1.1394 Y1.2275 
G01 X-1.1205 Y1.2275 
G01 X-1.1031 Y1.2203 
G01 X-1.0897 Y1.2069 
G01 X-1.0825 Y1.1894 
G01 X-1.0825 Y1.1725 
G01 X-0.3502 Y1.1725 
G01 X-0.3398 Y1.1725 
G01 X-0.2066 Y1.0393 
G01 X-0.2064 Y1.0395 
G01 X-0.1736 Y1.0395 
G01 X-0.1505 Y1.0164 
G01 X-0.1505 Y0.9836 
G01 X-0.1524 Y0.9817 
G01 X-0.0950 Y0.9275 
G01 X-0.0948 Y0.9275 
G01 X-0.0913 Y0.9239 
G01 X-0.0877 Y0.9205 
G01 X-0.0876 Y0.9203 
G01 X-0.0875 Y0.9202 
G01 X-0.0875 Y0.9151 
G01 X-0.0874 Y0.9102 
G01 X-0.0875 Y0.9100 
G01 X-0.0875 Y0.5998 
G01 X-0.0948 Y0.5925 
G01 X-0.0948 Y0.5925 
G01 X-0.1275 Y0.5598 
G01 X-0.1275 Y0.3652 
G01 X-0.1275 Y0.3548 
G01 X-0.4748 Y0.0075 
G01 X-0.4852 Y0.0075 
G01 X-2.2352 Y0.0075 
G01 X-2.2425 Y0.0148 
G01 X-2.2425 Y0.0148 
G01 X-2.3352 Y0.1075 
G01 X-2.3425 Y0.1148 
G01 X-2.3425 Y0.3448 
G01 X-2.3425 Y0.3552 
G01 X-2.3425 Y0.7748 
G01 X-2.3425 Y0.7852 
G01 X-2.2802 Y0.8475 
G01 X-2.2698 Y0.8475 
G01 X-2.1902 Y0.8475 
G01 X-2.0424 Y0.9953 
G01 X-2.0545 Y1.0074 
G01 X-2.0545 Y1.0526 
G01 X-2.0226 Y1.0845 
G01 X-1.9774 Y1.0845 
G01 X-1.9455 Y1.0526 
G01 X-1.9455 Y1.0074 
G01 X-1.9774 Y0.9755 
G01 X-2.0226 Y0.9755 
G01 X-2.0247 Y0.9776 
G01 X-2.1725 Y0.8298 
G01 X-2.1798 Y0.8225 
G01 X-2.2698 Y0.8225 
G01 X-2.3175 Y0.7748 
G01 X-2.3175 Y0.3625 
G01 X-2.2142 Y0.3625 
G01 X-2.2111 Y0.3701 
G01 X-2.2011 Y0.3801 
G01 X-2.1881 Y0.3855 
G01 X-2.1119 Y0.3855 
G01 X-2.0989 Y0.3801 
G01 X-2.0889 Y0.3701 
G01 X-2.0835 Y0.3571 
G01 X-2.0835 Y0.3429 
G01 X-2.0889 Y0.3299 
G01 X-2.0989 Y0.3199 
G01 X-2.1013 Y0.3189 
G01 X-2.0975 Y0.3152 
G01 X-2.0975 Y0.3048 
G01 X-2.0975 Y0.2787 
G01 X-2.0889 Y0.2701 
G01 X-2.0835 Y0.2571 
G01 X-2.0835 Y0.2429 
G01 X-2.0889 Y0.2299 
G01 X-2.0989 Y0.2199 
G01 X-2.1013 Y0.2189 
G01 X-2.0975 Y0.2152 
G01 X-2.0975 Y0.2048 
G01 X-2.0975 Y0.1787 
G01 X-2.0889 Y0.1701 
G01 X-2.0835 Y0.1571 
G01 X-2.0835 Y0.1429 
G01 X-2.0889 Y0.1299 
G01 X-2.0989 Y0.1199 
G01 X-2.1119 Y0.1145 
G01 X-2.1881 Y0.1145 
G01 X-2.2011 Y0.1199 
G01 X-2.2111 Y0.1299 
G01 X-2.2165 Y0.1429 
G01 X-2.2165 Y0.1571 
G01 X-2.2111 Y0.1701 
G01 X-2.2011 Y0.1801 
G01 X-2.1881 Y0.1855 
G01 X-2.1225 Y0.1855 
G01 X-2.1225 Y0.2048 
G01 X-2.1322 Y0.2145 
G01 X-2.1881 Y0.2145 
G01 X-2.2011 Y0.2199 
G01 X-2.2111 Y0.2299 
G01 X-2.2165 Y0.2429 
G01 X-2.2165 Y0.2571 
G01 X-2.2111 Y0.2701 
G01 X-2.2011 Y0.2801 
G01 X-2.1881 Y0.2855 
G01 X-2.1225 Y0.2855 
G01 X-2.1225 Y0.3048 
G01 X-2.1322 Y0.3145 
G01 X-2.1881 Y0.3145 
G01 X-2.2011 Y0.3199 
G01 X-2.2111 Y0.3299 
G01 X-2.2142 Y0.3375 
G01 X-2.3175 Y0.3375 
G01 X-2.3175 Y0.1252 
G01 X-2.2248 Y0.0325 
G01 X-0.4852 Y0.0325 
G01 X-0.1525 Y0.3652 
G01 X-0.1525 Y0.3816 
G01 X-0.1736 Y0.3605 
G01 X-0.1818 Y0.3605 
G01 X-0.4975 Y0.0448 
G01 X-0.5048 Y0.0375 
G01 X-2.0502 Y0.0375 
G01 X-2.0575 Y0.0448 
G01 X-2.0575 Y0.0448 
G01 X-2.0702 Y0.0575 
G01 X-2.0702 Y0.0575 
G01 X-2.0775 Y0.0648 
G01 X-2.0775 Y0.3735 
G01 X-2.1540 Y0.4275 
G01 X-2.1552 Y0.4275 
G01 X-2.1581 Y0.4304 
G01 X-2.1614 Y0.4328 
G01 X-2.1616 Y0.4340 
G01 X-2.1625 Y0.4348 
G01 X-2.1625 Y0.4389 
G01 X-2.1632 Y0.4430 
G01 X-2.1625 Y0.4440 
G01 X-2.1625 Y0.5248 
G01 X-2.1625 Y0.5352 
G01 X-2.0952 Y0.6025 
G01 X-2.0848 Y0.6025 
G01 X-1.7552 Y0.6025 
G01 X-1.7225 Y0.6352 
G01 X-1.7225 Y0.9152 
G01 X-1.7152 Y0.9225 
G01 X-1.6925 Y0.9452 
G01 X-1.6852 Y0.9525 
G01 X-1.6342 Y0.9525 
G01 X-1.6311 Y0.9601 
G01 X-1.6211 Y0.9701 
G01 X-1.6081 Y0.9755 
G01 X-1.5319 Y0.9755 
G01 X-1.5189 Y0.9701 
G01 X-1.5089 Y0.9601 
G01 X-1.5035 Y0.9471 
G01 X-1.5035 Y0.9329 
G01 X-1.5089 Y0.9199 
G01 X-1.5189 Y0.9099 
G01 X-1.5319 Y0.9045 
G01 X-1.6081 Y0.9045 
G01 X-1.6211 Y0.9099 
G01 X-1.6311 Y0.9199 
G01 X-1.6342 Y0.9275 
G01 X-1.6748 Y0.9275 
G01 X-1.6975 Y0.9048 
G01 X-1.6975 Y0.6352 
G01 X-1.6975 Y0.6248 
G01 X-1.7375 Y0.5848 
G01 X-1.7448 Y0.5775 
G01 X-2.0848 Y0.5775 
G01 X-2.1375 Y0.5248 
G01 X-2.1375 Y0.4465 
G01 X-2.0610 Y0.3925 
G01 X-2.0598 Y0.3925 
G01 X-2.0569 Y0.3896 
G01 X-2.0536 Y0.3872 
G01 X-2.0534 Y0.3860 
G01 X-2.0525 Y0.3852 
G01 X-2.0525 Y0.3811 
G01 X-2.0518 Y0.3770 
G01 X-2.0525 Y0.3760 
G01 X-2.0525 Y0.0752 
G01 X-2.0398 Y0.0625 
G01 X-0.5152 Y0.0625 
G01 X-0.2118 Y0.3659 
G01 X-0.2275 Y0.3816 
G01 X-0.2275 Y0.3802 
G01 X-0.2275 Y0.3698 
G01 X-0.5298 Y0.0675 
G01 X-0.5402 Y0.0675 
G01 X-1.9152 Y0.0675 
G01 X-1.9225 Y0.0748 
G01 X-1.9225 Y0.0748 
G01 X-2.0152 Y0.1675 
G01 X-2.0152 Y0.1675 
G01 X-2.0225 Y0.1748 
G01 X-2.0225 Y0.3898 
G01 X-2.0352 Y0.4025 
G01 X-2.0548 Y0.4025 
G01 X-2.0652 Y0.4025 
G01 X-2.1225 Y0.4598 
G01 X-2.1225 Y0.4702 
G01 X-2.1225 Y0.5152 
G01 X-2.1152 Y0.5225 
G01 X-2.1152 Y0.5225 
G01 X-2.0825 Y0.5552 
G01 X-2.0752 Y0.5625 
G01 X-1.6952 Y0.5625 
G01 X-1.6725 Y0.5852 
G01 X-1.6725 Y0.7148 
G01 X-1.6725 Y0.7252 
G01 X-1.6575 Y0.7402 
G01 X-1.6502 Y0.7475 
G01 X-1.6363 Y0.7475 
G01 X-1.6311 Y0.7601 
G01 X-1.6211 Y0.7701 
G01 X-1.6081 Y0.7755 
G01 X-1.5319 Y0.7755 
G01 X-1.5189 Y0.7701 
G01 X-1.5089 Y0.7601 
G01 X-1.5075 Y0.7567 
G01 X-1.5075 Y0.7770 
G01 X-1.5077 Y0.7775 
G01 X-1.6248 Y0.7775 
G01 X-1.6352 Y0.7775 
G01 X-1.6552 Y0.7975 
G01 X-1.6625 Y0.8048 
G01 X-1.6625 Y0.8548 
G01 X-1.6625 Y0.8652 
G01 X-1.6325 Y0.8952 
G01 X-1.6252 Y0.9025 
G01 X-1.4949 Y0.9025 
G01 X-1.4946 Y0.9027 
G01 X-1.4897 Y0.9025 
G01 X-1.4848 Y0.9025 
G01 X-1.4846 Y0.9023 
G01 X-1.4843 Y0.9023 
G01 X-1.4810 Y0.8987 
G01 X-1.4775 Y0.8952 
G01 X-1.4775 Y0.8949 
G01 X-1.4260 Y0.8386 
G01 X-1.4225 Y0.8352 
G01 X-1.4225 Y0.8349 
G01 X-1.4223 Y0.8346 
G01 X-1.4225 Y0.8297 
G01 X-1.4225 Y0.6209 
G01 X-1.4219 Y0.6166 
G01 X-1.4225 Y0.6158 
G01 X-1.4225 Y0.6148 
G01 X-1.4255 Y0.6118 
G01 X-1.4375 Y0.5958 
G01 X-1.4375 Y0.1752 
G01 X-1.4148 Y0.1525 
G01 X-0.6152 Y0.1525 
G01 X-0.3925 Y0.3752 
G01 X-0.3925 Y0.4048 
G01 X-0.3925 Y0.4152 
G01 X-0.3268 Y0.4809 
G01 X-0.3295 Y0.4836 
G01 X-0.3295 Y0.5164 
G01 X-0.3084 Y0.5375 
G01 X-0.3298 Y0.5375 
G01 X-0.5125 Y0.3548 
G01 X-0.5198 Y0.3475 
G01 X-0.6498 Y0.3475 
G01 X-0.6925 Y0.3048 
G01 X-0.6998 Y0.2975 
G01 X-0.9248 Y0.2975 
G01 X-0.9352 Y0.2975 
G01 X-0.9748 Y0.2975 
G01 X-1.0048 Y0.2675 
G01 X-1.0152 Y0.2675 
G01 X-1.0335 Y0.2675 
G01 X-1.0335 Y0.2629 
G01 X-1.0389 Y0.2499 
G01 X-1.0489 Y0.2399 
G01 X-1.0619 Y0.2345 
G01 X-1.1381 Y0.2345 
G01 X-1.1511 Y0.2399 
G01 X-1.1611 Y0.2499 
G01 X-1.1665 Y0.2629 
G01 X-1.1665 Y0.2771 
G01 X-1.1660 Y0.2783 
G01 X-1.2085 Y0.3208 
G01 X-1.2089 Y0.3199 
G01 X-1.2189 Y0.3099 
G01 X-1.2319 Y0.3045 
G01 X-1.2475 Y0.3045 
G01 X-1.2475 Y0.2577 
G01 X-1.2345 Y0.2447 
G01 X-1.2345 Y0.2153 
G01 X-1.2553 Y0.1945 
G01 X-1.2847 Y0.1945 
G01 X-1.3055 Y0.2153 
G01 X-1.3055 Y0.2447 
G01 X-1.2847 Y0.2655 
G01 X-1.2725 Y0.2655 
G01 X-1.2725 Y0.3045 
G01 X-1.3081 Y0.3045 
G01 X-1.3211 Y0.3099 
G01 X-1.3311 Y0.3199 
G01 X-1.3365 Y0.3329 
G01 X-1.3365 Y0.3471 
G01 X-1.3311 Y0.3601 
G01 X-1.3211 Y0.3701 
G01 X-1.3081 Y0.3755 
G01 X-1.2319 Y0.3755 
G01 X-1.2189 Y0.3701 
G01 X-1.2089 Y0.3601 
G01 X-1.2064 Y0.3541 
G01 X-1.1518 Y0.2994 
G01 X-1.1511 Y0.3001 
G01 X-1.1381 Y0.3055 
G01 X-1.0619 Y0.3055 
G01 X-1.0489 Y0.3001 
G01 X-1.0413 Y0.2925 
G01 X-1.0152 Y0.2925 
G01 X-0.9852 Y0.3225 
G01 X-0.9748 Y0.3225 
G01 X-0.9375 Y0.3225 
G01 X-0.9375 Y0.4252 
G01 X-0.9302 Y0.4325 
G01 X-0.9198 Y0.4325 
G01 X-0.8202 Y0.4325 
G01 X-0.6825 Y0.5702 
G01 X-0.6825 Y0.6848 
G01 X-0.7525 Y0.7549 
G01 X-0.7557 Y0.7536 
G01 X-0.7698 Y0.7536 
G01 X-0.7829 Y0.7590 
G01 X-0.7928 Y0.7689 
G01 X-0.7983 Y0.7820 
G01 X-0.7983 Y0.8581 
G01 X-0.7928 Y0.8712 
G01 X-0.7829 Y0.8811 
G01 X-0.7698 Y0.8866 
G01 X-0.7557 Y0.8866 
G01 X-0.7426 Y0.8811 
G01 X-0.7327 Y0.8712 
G01 X-0.7273 Y0.8581 
G01 X-0.7273 Y0.7820 
G01 X-0.7323 Y0.7699 
G01 X-0.6575 Y0.6952 
G01 X-0.6575 Y0.6848 
G01 X-0.6575 Y0.5702 
G01 X-0.6575 Y0.5598 
G01 X-0.8025 Y0.4148 
G01 X-0.8098 Y0.4075 
G01 X-0.9125 Y0.4075 
G01 X-0.9125 Y0.3225 
G01 X-0.7102 Y0.3225 
G01 X-0.6602 Y0.3725 
G01 X-0.6498 Y0.3725 
G01 X-0.5302 Y0.3725 
G01 X-0.3402 Y0.5625 
G01 X-0.3298 Y0.5625 
G01 X-0.3084 Y0.5625 
G01 X-0.3295 Y0.5836 
G01 X-0.3295 Y0.6164 
G01 X-0.3084 Y0.6375 
G01 X-0.3348 Y0.6375 
G01 X-0.4675 Y0.5048 
G01 X-0.4675 Y0.4998 
G01 X-0.5425 Y0.4248 
G01 X-0.5498 Y0.4175 
G01 X-0.6898 Y0.4175 
G01 X-0.7335 Y0.3738 
G01 X-0.7335 Y0.3629 
G01 X-0.7389 Y0.3499 
G01 X-0.7489 Y0.3399 
G01 X-0.7619 Y0.3345 
G01 X-0.8381 Y0.3345 
G01 X-0.8511 Y0.3399 
G01 X-0.8611 Y0.3499 
G01 X-0.8665 Y0.3629 
G01 X-0.8665 Y0.3771 
G01 X-0.8611 Y0.3901 
G01 X-0.8511 Y0.4001 
G01 X-0.8381 Y0.4055 
G01 X-0.7619 Y0.4055 
G01 X-0.7489 Y0.4001 
G01 X-0.7457 Y0.3969 
G01 X-0.7002 Y0.4425 
G01 X-0.6898 Y0.4425 
G01 X-0.5602 Y0.4425 
G01 X-0.4925 Y0.5102 
G01 X-0.4925 Y0.5152 
G01 X-0.4852 Y0.5225 
G01 X-0.3452 Y0.6625 
G01 X-0.3348 Y0.6625 
G01 X-0.3084 Y0.6625 
G01 X-0.3295 Y0.6836 
G01 X-0.3295 Y0.7164 
G01 X-0.3084 Y0.7375 
G01 X-0.3448 Y0.7375 
G01 X-0.3552 Y0.7375 
G01 X-0.5052 Y0.8875 
G01 X-1.1448 Y0.8875 
G01 X-1.1975 Y0.8348 
G01 X-1.2048 Y0.8275 
G01 X-1.2058 Y0.8275 
G01 X-1.2089 Y0.8199 
G01 X-1.2189 Y0.8099 
G01 X-1.2319 Y0.8045 
G01 X-1.3081 Y0.8045 
G01 X-1.3211 Y0.8099 
G01 X-1.3311 Y0.8199 
G01 X-1.3325 Y0.8233 
G01 X-1.3325 Y0.8102 
G01 X-1.3248 Y0.8025 
G01 X-1.2002 Y0.8025 
G01 X-1.1775 Y0.8252 
G01 X-1.1702 Y0.8325 
G01 X-0.9557 Y0.8325 
G01 X-0.9557 Y0.8581 
G01 X-0.9503 Y0.8712 
G01 X-0.9403 Y0.8811 
G01 X-0.9273 Y0.8866 
G01 X-0.9132 Y0.8866 
G01 X-0.9001 Y0.8811 
G01 X-0.8901 Y0.8712 
G01 X-0.8847 Y0.8581 
G00 Z0.1000 
G00 X-1.2319 Y0.6045 
G01 Z-0.0070 F10.00 
G01 X-1.3081 Y0.6045 F20.00 
G01 X-1.3211 Y0.6099 
G01 X-1.3311 Y0.6199 
G01 X-1.3365 Y0.6329 
G01 X-1.3365 Y0.6471 
G01 X-1.3311 Y0.6601 
G01 X-1.3211 Y0.6701 
G01 X-1.3081 Y0.6755 
G01 X-1.2319 Y0.6755 
G01 X-1.2189 Y0.6701 
G01 X-1.2089 Y0.6601 
G01 X-1.2035 Y0.6471 
G01 X-1.2035 Y0.6425 
G01 X-0.9164 Y0.6425 
G01 X-0.9164 Y0.6780 
G01 X-0.9110 Y0.6911 
G01 X-0.9010 Y0.7010 
G01 X-0.8879 Y0.7064 
G01 X-0.8738 Y0.7064 
G01 X-0.8608 Y0.7010 
G01 X-0.8508 Y0.6911 
G01 X-0.8454 Y0.6780 
G01 X-0.8454 Y0.6019 
G01 X-0.8508 Y0.5888 
G01 X-0.8608 Y0.5789 
G01 X-0.8738 Y0.5734 
G01 X-0.8879 Y0.5734 
G01 X-0.9010 Y0.5789 
G01 X-0.9110 Y0.5888 
G01 X-0.9164 Y0.6019 
G01 X-0.9164 Y0.6175 
G01 X-1.2113 Y0.6175 
G01 X-1.2189 Y0.6099 
G01 X-1.2319 Y0.6045 
G00 Z0.1000 
G00 X-2.3545 Y1.0074 
G01 Z-0.0070 F10.00 
G01 X-2.3545 Y1.0526 F20.00 
G01 X-2.3226 Y1.0845 
G01 X-2.2774 Y1.0845 
G01 X-2.2455 Y1.0526 
G01 X-2.2455 Y1.0522 
G01 X-2.1825 Y1.1152 
G01 X-2.1825 Y1.1152 
G01 X-2.1752 Y1.1225 
G01 X-2.1652 Y1.1225 
G01 X-2.1225 Y1.1652 
G01 X-2.1152 Y1.1725 
G01 X-1.9252 Y1.1725 
G01 X-1.9148 Y1.1725 
G01 X-1.7748 Y1.0325 
G01 X-1.7252 Y1.0325 
G01 X-1.6452 Y1.1125 
G01 X-1.6348 Y1.1125 
G01 X-1.5048 Y1.1125 
G01 X-1.4975 Y1.1052 
G01 X-1.4675 Y1.0752 
G01 X-1.4675 Y1.0648 
G01 X-1.4675 Y1.0450 
G01 X-1.3660 Y0.9387 
G01 X-1.3625 Y0.9352 
G01 X-1.3625 Y0.9350 
G01 X-1.3624 Y0.9349 
G01 X-1.3625 Y0.9298 
G01 X-1.3625 Y0.7757 
G01 X-1.3354 Y0.7525 
G01 X-1.3342 Y0.7525 
G01 X-1.3311 Y0.7601 
G01 X-1.3211 Y0.7701 
G01 X-1.3081 Y0.7755 
G01 X-1.2319 Y0.7755 
G01 X-1.2189 Y0.7701 
G01 X-1.2089 Y0.7601 
G01 X-1.2035 Y0.7471 
G01 X-1.2035 Y0.7329 
G01 X-1.2089 Y0.7199 
G01 X-1.2189 Y0.7099 
G01 X-1.2319 Y0.7045 
G01 X-1.3081 Y0.7045 
G01 X-1.3211 Y0.7099 
G01 X-1.3311 Y0.7199 
G01 X-1.3342 Y0.7275 
G01 X-1.3395 Y0.7275 
G01 X-1.3442 Y0.7271 
G01 X-1.3446 Y0.7275 
G01 X-1.3452 Y0.7275 
G01 X-1.3485 Y0.7309 
G01 X-1.3796 Y0.7575 
G01 X-1.3802 Y0.7575 
G01 X-1.3835 Y0.7608 
G01 X-1.3871 Y0.7639 
G01 X-1.3871 Y0.7644 
G01 X-1.3875 Y0.7648 
G01 X-1.3875 Y0.7695 
G01 X-1.3879 Y0.7742 
G01 X-1.3875 Y0.7746 
G01 X-1.3875 Y0.9250 
G01 X-1.4890 Y1.0313 
G01 X-1.4925 Y1.0348 
G01 X-1.4925 Y1.0350 
G01 X-1.4926 Y1.0351 
G01 X-1.4925 Y1.0402 
G01 X-1.4925 Y1.0648 
G01 X-1.5152 Y1.0875 
G01 X-1.6348 Y1.0875 
G01 X-1.7075 Y1.0148 
G01 X-1.7148 Y1.0075 
G01 X-1.7748 Y1.0075 
G01 X-1.7852 Y1.0075 
G01 X-1.9252 Y1.1475 
G01 X-2.1048 Y1.1475 
G01 X-2.1475 Y1.1048 
G01 X-2.1548 Y1.0975 
G01 X-2.1648 Y1.0975 
G01 X-2.2375 Y1.0248 
G01 X-2.2375 Y1.0248 
G01 X-2.2448 Y1.0175 
G01 X-2.2455 Y1.0175 
G01 X-2.2455 Y1.0074 
G01 X-2.2774 Y0.9755 
G01 X-2.3226 Y0.9755 
G01 X-2.3545 Y1.0074 
G00 Z0.1000 
G00 X-0.2188 Y0.3659 
G01 Z-0.0070 F10.00 
G01 X-0.2225 Y0.3696 F20.00 
G01 X-0.2225 Y0.3677 
G01 X-0.5228 Y0.0675 
G01 X-0.5172 Y0.0675 
G01 X-0.2188 Y0.3659 
G00 Z0.1000 
G00 X-2.3595 Y1.0054 
G01 Z-0.0070 F10.00 
G01 X-2.3595 Y1.0546 F20.00 
G01 X-2.3246 Y1.0895 
G01 X-2.2754 Y1.0895 
G01 X-2.2453 Y1.0594 
G01 X-2.1875 Y1.1172 
G01 X-2.1875 Y1.1172 
G01 X-2.1772 Y1.1275 
G01 X-2.1672 Y1.1275 
G01 X-2.1275 Y1.1672 
G01 X-2.1222 Y1.1725 
G01 X-2.2927 Y1.1725 
G01 X-2.3925 Y1.0727 
G01 X-2.3925 Y0.9972 
G01 X-2.3527 Y0.9575 
G01 X-2.1972 Y0.9575 
G01 X-2.1175 Y1.0372 
G01 X-2.1175 Y1.0672 
G01 X-2.1072 Y1.0775 
G01 X-2.0472 Y1.1375 
G01 X-2.0327 Y1.1375 
G01 X-1.9627 Y1.1375 
G01 X-1.9525 Y1.1272 
G01 X-1.9025 Y1.0772 
G01 X-1.9025 Y1.0627 
G01 X-1.9025 Y0.9922 
G01 X-1.8827 Y0.9725 
G01 X-1.7927 Y0.9725 
G01 X-1.7372 Y0.9725 
G01 X-1.6722 Y1.0375 
G01 X-1.6577 Y1.0375 
G01 X-1.6415 Y1.0375 
G01 X-1.6415 Y1.0481 
G01 X-1.6353 Y1.0629 
G01 X-1.6239 Y1.0743 
G01 X-1.6091 Y1.0805 
G01 X-1.5309 Y1.0805 
G01 X-1.5161 Y1.0743 
G01 X-1.5047 Y1.0629 
G01 X-1.4985 Y1.0481 
G01 X-1.4985 Y1.0333 
G01 X-1.4975 Y1.0322 
G01 X-1.4925 Y1.0272 
G01 X-1.4925 Y1.0270 
G01 X-1.3925 Y0.9222 
G01 X-1.3925 Y0.9230 
G01 X-1.4925 Y1.0278 
G01 X-1.4975 Y1.0327 
G01 X-1.4975 Y1.0330 
G01 X-1.4977 Y1.0332 
G01 X-1.4975 Y1.0402 
G01 X-1.4975 Y1.0627 
G01 X-1.5172 Y1.0825 
G01 X-1.6327 Y1.0825 
G01 X-1.7025 Y1.0127 
G01 X-1.7127 Y1.0025 
G01 X-1.7727 Y1.0025 
G01 X-1.7872 Y1.0025 
G01 X-1.9272 Y1.1425 
G01 X-2.1027 Y1.1425 
G01 X-2.1425 Y1.1027 
G01 X-2.1527 Y1.0925 
G01 X-2.1628 Y1.0925 
G01 X-2.2325 Y1.0228 
G01 X-2.2325 Y1.0227 
G01 X-2.2405 Y1.0148 
G01 X-2.2405 Y1.0054 
G01 X-2.2754 Y0.9705 
G01 X-2.3246 Y0.9705 
G01 X-2.3595 Y1.0054 
G00 Z0.1000 
G00 X-1.9031 Y0.2847 
G01 Z-0.0070 F10.00 
G01 X-1.8891 Y0.2905 F20.00 
G01 X-1.8142 Y0.2905 
G01 X-1.6472 Y0.4575 
G01 X-1.6376 Y0.4575 
G01 X-1.6353 Y0.4629 
G01 X-1.6239 Y0.4743 
G01 X-1.6091 Y0.4805 
G01 X-1.5309 Y0.4805 
G01 X-1.5161 Y0.4743 
G01 X-1.5075 Y0.4658 
G01 X-1.5075 Y0.5142 
G01 X-1.5161 Y0.5057 
G01 X-1.5309 Y0.4995 
G01 X-1.6091 Y0.4995 
G01 X-1.6239 Y0.5057 
G01 X-1.6268 Y0.5085 
G01 X-1.6625 Y0.4728 
G01 X-1.6625 Y0.4727 
G01 X-1.6727 Y0.4625 
G01 X-1.7602 Y0.4625 
G01 X-1.7832 Y0.4395 
G01 X-1.8058 Y0.4395 
G01 X-1.8325 Y0.4127 
G01 X-1.8325 Y0.3905 
G01 X-1.8109 Y0.3905 
G01 X-1.7961 Y0.3843 
G01 X-1.7847 Y0.3729 
G01 X-1.7785 Y0.3581 
G01 X-1.7785 Y0.3419 
G01 X-1.7847 Y0.3271 
G01 X-1.7961 Y0.3157 
G01 X-1.8109 Y0.3095 
G01 X-1.8891 Y0.3095 
G01 X-1.9039 Y0.3157 
G01 X-1.9125 Y0.3242 
G01 X-1.9125 Y0.2929 
G01 X-1.9031 Y0.2847 
G00 Z0.1000 
G00 X-1.9525 Y0.4072 
G01 Z-0.0070 F10.00 
G01 X-1.9525 Y0.4066 F20.00 
G01 X-1.9521 Y0.4061 
G01 X-1.9525 Y0.3994 
G01 X-1.9525 Y0.2280 
G01 X-1.9023 Y0.1850 
G01 X-1.8891 Y0.1905 
G01 X-1.8109 Y0.1905 
G01 X-1.7961 Y0.1843 
G01 X-1.7857 Y0.1740 
G01 X-1.7580 Y0.1768 
G01 X-1.6265 Y0.3082 
G01 X-1.6353 Y0.3171 
G01 X-1.6415 Y0.3319 
G01 X-1.6415 Y0.3481 
G01 X-1.6353 Y0.3629 
G01 X-1.6239 Y0.3743 
G01 X-1.6091 Y0.3805 
G01 X-1.5309 Y0.3805 
G01 X-1.5161 Y0.3743 
G01 X-1.5075 Y0.3658 
G01 X-1.5075 Y0.4142 
G01 X-1.5161 Y0.4057 
G01 X-1.5309 Y0.3995 
G01 X-1.6091 Y0.3995 
G01 X-1.6239 Y0.4057 
G01 X-1.6353 Y0.4171 
G01 X-1.6362 Y0.4191 
G01 X-1.7840 Y0.2713 
G01 X-1.7785 Y0.2581 
G01 X-1.7785 Y0.2419 
G01 X-1.7847 Y0.2271 
G01 X-1.7961 Y0.2157 
G01 X-1.8109 Y0.2095 
G01 X-1.8891 Y0.2095 
G01 X-1.9039 Y0.2157 
G01 X-1.9153 Y0.2271 
G01 X-1.9215 Y0.2419 
G01 X-1.9215 Y0.2543 
G01 X-1.9366 Y0.2675 
G01 X-1.9372 Y0.2675 
G01 X-1.9420 Y0.2722 
G01 X-1.9470 Y0.2766 
G01 X-1.9470 Y0.2773 
G01 X-1.9475 Y0.2777 
G01 X-1.9475 Y0.2844 
G01 X-1.9479 Y0.2911 
G01 X-1.9475 Y0.2916 
G01 X-1.9475 Y0.4502 
G01 X-1.9605 Y0.4632 
G01 X-1.9605 Y0.4968 
G01 X-1.9368 Y0.5205 
G01 X-1.9032 Y0.5205 
G01 X-1.8795 Y0.4968 
G01 X-1.8795 Y0.4632 
G01 X-1.9032 Y0.4395 
G01 X-1.9125 Y0.4395 
G01 X-1.9125 Y0.3758 
G01 X-1.9039 Y0.3843 
G01 X-1.8891 Y0.3905 
G01 X-1.8675 Y0.3905 
G01 X-1.8675 Y0.4272 
G01 X-1.8572 Y0.4375 
G01 X-1.8360 Y0.4587 
G01 X-1.8405 Y0.4632 
G01 X-1.8405 Y0.4968 
G01 X-1.8168 Y0.5205 
G01 X-1.7832 Y0.5205 
G01 X-1.7602 Y0.4975 
G01 X-1.6872 Y0.4975 
G01 X-1.6415 Y0.5432 
G01 X-1.6415 Y0.5481 
G01 X-1.6353 Y0.5629 
G01 X-1.6239 Y0.5743 
G01 X-1.6091 Y0.5805 
G01 X-1.5309 Y0.5805 
G01 X-1.5161 Y0.5743 
G01 X-1.5075 Y0.5658 
G01 X-1.5075 Y0.6142 
G01 X-1.5161 Y0.6057 
G01 X-1.5309 Y0.5995 
G01 X-1.6091 Y0.5995 
G01 X-1.6239 Y0.6057 
G01 X-1.6353 Y0.6171 
G01 X-1.6415 Y0.6319 
G01 X-1.6415 Y0.6481 
G01 X-1.6353 Y0.6629 
G01 X-1.6239 Y0.6743 
G01 X-1.6091 Y0.6805 
G01 X-1.5309 Y0.6805 
G01 X-1.5161 Y0.6743 
G01 X-1.5150 Y0.6733 
G01 X-1.5125 Y0.6763 
G01 X-1.5125 Y0.7092 
G01 X-1.5161 Y0.7057 
G01 X-1.5309 Y0.6995 
G01 X-1.6091 Y0.6995 
G01 X-1.6239 Y0.7057 
G01 X-1.6353 Y0.7171 
G01 X-1.6355 Y0.7175 
G01 X-1.6377 Y0.7175 
G01 X-1.6425 Y0.7127 
G01 X-1.6425 Y0.5727 
G01 X-1.6527 Y0.5625 
G01 X-1.6528 Y0.5625 
G01 X-1.6827 Y0.5325 
G01 X-1.6972 Y0.5325 
G01 X-2.0627 Y0.5325 
G01 X-2.0925 Y0.5028 
G01 X-2.0925 Y0.4722 
G01 X-2.0527 Y0.4325 
G01 X-2.0227 Y0.4325 
G01 X-2.0142 Y0.4240 
G01 X-2.0278 Y0.4395 
G01 X-2.0568 Y0.4395 
G01 X-2.0805 Y0.4632 
G01 X-2.0805 Y0.4968 
G01 X-2.0568 Y0.5205 
G01 X-2.0232 Y0.5205 
G01 X-1.9995 Y0.4968 
G01 X-1.9995 Y0.4632 
G01 X-2.0009 Y0.4619 
G01 X-1.9572 Y0.4120 
G01 X-1.9525 Y0.4072 
G00 Z0.1000 
G00 X-1.8109 Y0.1095 
G01 Z-0.0070 F10.00 
G01 X-1.8891 Y0.1095 F20.00 
G01 X-1.9039 Y0.1157 
G01 X-1.9153 Y0.1271 
G01 X-1.9215 Y0.1419 
G01 X-1.9215 Y0.1554 
G01 X-1.9765 Y0.2025 
G01 X-1.9772 Y0.2025 
G01 X-1.9819 Y0.2072 
G01 X-1.9869 Y0.2114 
G01 X-1.9869 Y0.2122 
G01 X-1.9875 Y0.2127 
G01 X-1.9875 Y0.2193 
G01 X-1.9880 Y0.2259 
G01 X-1.9875 Y0.2265 
G01 X-1.9875 Y0.3934 
G01 X-1.9925 Y0.3991 
G01 X-1.9925 Y0.3877 
G01 X-1.9925 Y0.1872 
G01 X-1.9028 Y0.0975 
G01 X-1.4722 Y0.0975 
G01 X-1.5075 Y0.1327 
G01 X-1.5075 Y0.1472 
G01 X-1.5075 Y0.3142 
G01 X-1.5161 Y0.3057 
G01 X-1.5309 Y0.2995 
G01 X-1.5857 Y0.2995 
G01 X-1.7370 Y0.1482 
G01 X-1.7410 Y0.1433 
G01 X-1.7420 Y0.1432 
G01 X-1.7427 Y0.1425 
G01 X-1.7491 Y0.1425 
G01 X-1.7795 Y0.1395 
G01 X-1.7847 Y0.1271 
G01 X-1.7961 Y0.1157 
G01 X-1.8109 Y0.1095 
G00 Z0.1000 
G00 X-1.3495 Y1.1532 
G01 Z-0.0070 F10.00 
G01 X-1.3652 Y1.1375 F20.00 
G01 X-1.3172 Y1.1375 
G01 X-1.2853 Y1.1694 
G01 X-1.2843 Y1.1724 
G01 X-1.2825 Y1.1733 
G01 X-1.2825 Y1.1928 
G01 X-1.3127 Y1.1625 
G01 X-1.3272 Y1.1625 
G01 X-1.3495 Y1.1625 
G01 X-1.3495 Y1.1532 
G00 Z0.1000 
G00 X-1.2427 Y1.2325 
G01 Z-0.0070 F10.00 
G01 X-1.2428 Y1.2325 F20.00 
G01 X-1.2083 Y1.2325 
G01 X-1.1777 Y1.2020 
G01 X-1.1774 Y1.2027 
G01 X-1.2072 Y1.2325 
G01 X-1.2427 Y1.2325 
G00 Z0.1000 
G00 X-1.1985 Y0.4319 
G01 Z-0.0070 F10.00 
G01 X-1.2047 Y0.4171 F20.00 
G01 X-1.2161 Y0.4057 
G01 X-1.2309 Y0.3995 
G01 X-1.3091 Y0.3995 
G01 X-1.3239 Y0.4057 
G01 X-1.3353 Y0.4171 
G01 X-1.3415 Y0.4319 
G01 X-1.3415 Y0.4481 
G01 X-1.3353 Y0.4629 
G01 X-1.3258 Y0.4725 
G01 X-1.3875 Y0.4725 
G01 X-1.3875 Y0.3572 
G01 X-1.3627 Y0.3325 
G01 X-1.3525 Y0.3222 
G01 X-1.3525 Y0.2698 
G01 X-1.3295 Y0.2468 
G01 X-1.3295 Y0.2242 
G01 X-1.3027 Y0.1975 
G01 X-1.2948 Y0.1975 
G01 X-1.3105 Y0.2132 
G01 X-1.3105 Y0.2468 
G01 X-1.2868 Y0.2705 
G01 X-1.2775 Y0.2705 
G01 X-1.2775 Y0.2995 
G01 X-1.3091 Y0.2995 
G01 X-1.3239 Y0.3057 
G01 X-1.3353 Y0.3171 
G01 X-1.3415 Y0.3319 
G01 X-1.3415 Y0.3481 
G01 X-1.3353 Y0.3629 
G01 X-1.3239 Y0.3743 
G01 X-1.3091 Y0.3805 
G01 X-1.2309 Y0.3805 
G01 X-1.2161 Y0.3743 
G01 X-1.2047 Y0.3629 
G01 X-1.2022 Y0.3569 
G01 X-1.1509 Y0.3056 
G01 X-1.1391 Y0.3105 
G01 X-1.0609 Y0.3105 
G01 X-1.0461 Y0.3043 
G01 X-1.0392 Y0.2975 
G01 X-1.0172 Y0.2975 
G01 X-0.9872 Y0.3275 
G01 X-0.9727 Y0.3275 
G01 X-0.9425 Y0.3275 
G01 X-0.9425 Y0.4272 
G01 X-0.9372 Y0.4325 
G01 X-1.1985 Y0.4325 
G01 X-1.1985 Y0.4319 
G00 Z0.1000 
G00 X-0.8222 Y0.4375 
G01 Z-0.0070 F10.00 
G01 X-0.6875 Y0.5722 F20.00 
G01 X-0.6875 Y0.5898 
G01 X-0.6891 Y0.5860 
G01 X-0.7004 Y0.5746 
G01 X-0.7025 Y0.5738 
G01 X-0.7025 Y0.5677 
G01 X-0.7127 Y0.5575 
G01 X-0.7128 Y0.5575 
G01 X-0.8328 Y0.4375 
G01 X-0.8222 Y0.4375 
G00 Z0.1000 
G00 X-0.7463 Y0.5746 
G01 Z-0.0070 F10.00 
G01 X-0.7577 Y0.5860 F20.00 
G01 X-0.7628 Y0.5982 
G01 X-0.7678 Y0.5860 
G01 X-0.7792 Y0.5746 
G01 X-0.7825 Y0.5732 
G01 X-0.7825 Y0.5677 
G01 X-0.8777 Y0.4725 
G01 X-0.8922 Y0.4725 
G01 X-1.2142 Y0.4725 
G01 X-1.2092 Y0.4675 
G01 X-0.8522 Y0.4675 
G01 X-0.7455 Y0.5743 
G01 X-0.7463 Y0.5746 
G00 Z0.1000 
G00 X-0.3975 Y0.3772 
G01 Z-0.0070 F10.00 
G01 X-0.3975 Y0.4027 F20.00 
G01 X-0.3975 Y0.4172 
G01 X-0.3338 Y0.4809 
G01 X-0.3345 Y0.4816 
G01 X-0.3345 Y0.5184 
G01 X-0.3204 Y0.5325 
G01 X-0.3277 Y0.5325 
G01 X-0.5075 Y0.3527 
G01 X-0.5177 Y0.3425 
G01 X-0.6477 Y0.3425 
G01 X-0.6875 Y0.3027 
G01 X-0.6977 Y0.2925 
G01 X-0.9227 Y0.2925 
G01 X-0.9372 Y0.2925 
G01 X-0.9727 Y0.2925 
G01 X-1.0027 Y0.2625 
G01 X-1.0172 Y0.2625 
G01 X-1.0285 Y0.2625 
G01 X-1.0285 Y0.2619 
G01 X-1.0347 Y0.2471 
G01 X-1.0461 Y0.2357 
G01 X-1.0609 Y0.2295 
G01 X-1.1391 Y0.2295 
G01 X-1.1539 Y0.2357 
G01 X-1.1653 Y0.2471 
G01 X-1.1715 Y0.2619 
G01 X-1.1715 Y0.2767 
G01 X-1.2082 Y0.3135 
G01 X-1.2161 Y0.3057 
G01 X-1.2309 Y0.2995 
G01 X-1.2425 Y0.2995 
G01 X-1.2425 Y0.2598 
G01 X-1.2295 Y0.2468 
G01 X-1.2295 Y0.2132 
G01 X-1.2452 Y0.1975 
G01 X-1.0372 Y0.1975 
G01 X-0.9572 Y0.2775 
G01 X-0.9427 Y0.2775 
G01 X-0.6715 Y0.2775 
G01 X-0.6715 Y0.2781 
G01 X-0.6653 Y0.2929 
G01 X-0.6539 Y0.3043 
G01 X-0.6391 Y0.3105 
G01 X-0.5609 Y0.3105 
G01 X-0.5461 Y0.3043 
G01 X-0.5347 Y0.2929 
G01 X-0.5285 Y0.2781 
G01 X-0.5285 Y0.2619 
G01 X-0.5347 Y0.2471 
G01 X-0.5461 Y0.2357 
G01 X-0.5609 Y0.2295 
G01 X-0.6391 Y0.2295 
G01 X-0.6539 Y0.2357 
G01 X-0.6608 Y0.2425 
G01 X-0.9427 Y0.2425 
G01 X-1.0125 Y0.1727 
G01 X-1.0227 Y0.1625 
G01 X-1.3027 Y0.1625 
G01 X-1.3172 Y0.1625 
G01 X-1.3487 Y0.1940 
G01 X-1.3532 Y0.1895 
G01 X-1.3868 Y0.1895 
G01 X-1.4105 Y0.2132 
G01 X-1.4105 Y0.2468 
G01 X-1.3875 Y0.2698 
G01 X-1.3875 Y0.3077 
G01 X-1.4225 Y0.3427 
G01 X-1.4225 Y0.3572 
G01 X-1.4225 Y0.4972 
G01 X-1.4225 Y0.5277 
G01 X-1.4225 Y0.5327 
G01 X-1.4225 Y0.6075 
G01 X-1.4325 Y0.5942 
G01 X-1.4325 Y0.1772 
G01 X-1.4127 Y0.1575 
G01 X-0.6172 Y0.1575 
G01 X-0.3975 Y0.3772 
G00 Z0.1000 
G00 X-0.2084 Y0.4445 
G01 Z-0.0070 F10.00 
G01 X-0.1716 Y0.4445 F20.00 
G01 X-0.1575 Y0.4304 
G01 X-0.1575 Y0.4696 
G01 X-0.1716 Y0.4555 
G01 X-0.2084 Y0.4555 
G01 X-0.2091 Y0.4562 
G01 X-0.2225 Y0.4427 
G01 X-0.2225 Y0.4304 
G01 X-0.2084 Y0.4445 
G00 Z0.1000 
G00 X-0.5422 Y0.0975 
G01 Z-0.0070 F10.00 
G01 X-0.2842 Y0.3555 F20.00 
G01 X-0.3084 Y0.3555 
G01 X-0.3091 Y0.3562 
G01 X-0.5625 Y0.1027 
G01 X-0.5678 Y0.0975 
G01 X-0.5422 Y0.0975 
G00 Z0.1000 
G00 X-0.2575 Y0.4427 
G01 Z-0.0070 F10.00 
G01 X-0.2575 Y0.4572 F20.00 
G01 X-0.2338 Y0.4809 
G01 X-0.2345 Y0.4816 
G01 X-0.2345 Y0.5184 
G01 X-0.2204 Y0.5325 
G01 X-0.2596 Y0.5325 
G01 X-0.2455 Y0.5184 
G01 X-0.2455 Y0.4816 
G01 X-0.2716 Y0.4555 
G01 X-0.3084 Y0.4555 
G01 X-0.3091 Y0.4562 
G01 X-0.3625 Y0.4027 
G01 X-0.3625 Y0.3627 
G01 X-0.3727 Y0.3525 
G01 X-0.5925 Y0.1327 
G01 X-0.5978 Y0.1275 
G01 X-0.5872 Y0.1275 
G01 X-0.3338 Y0.3809 
G01 X-0.3345 Y0.3816 
G01 X-0.3345 Y0.4184 
G01 X-0.3084 Y0.4445 
G01 X-0.2716 Y0.4445 
G01 X-0.2575 Y0.4304 
G01 X-0.2575 Y0.4427 
G00 Z0.1000 
G00 X-1.5047 Y0.8171 
G01 Z-0.0070 F10.00 
G01 X-1.5142 Y0.8075 F20.00 
G01 X-1.5041 Y0.8075 
G01 X-1.5013 Y0.8089 
G01 X-1.4972 Y0.8075 
G01 X-1.4948 Y0.8075 
G01 X-1.5042 Y0.8182 
G01 X-1.5047 Y0.8171 
G00 Z0.1000 
G00 X-1.4525 Y0.8232 
G01 Z-0.0070 F10.00 
G01 X-1.4977 Y0.8725 F20.00 
G01 X-1.5142 Y0.8725 
G01 X-1.5047 Y0.8629 
G01 X-1.5025 Y0.8577 
G01 X-1.4994 Y0.8575 
G01 X-1.4927 Y0.8575 
G01 X-1.4923 Y0.8570 
G01 X-1.4916 Y0.8570 
G01 X-1.4872 Y0.8520 
G01 X-1.4825 Y0.8472 
G01 X-1.4825 Y0.8466 
G01 X-1.4525 Y0.8123 
G01 X-1.4525 Y0.8232 
G00 Z0.1000 
G00 X-1.4825 Y0.6577 
G01 Z-0.0070 F10.00 
G01 X-1.4985 Y0.6385 F20.00 
G01 X-1.4985 Y0.6371 
G01 X-1.4825 Y0.6563 
G01 X-1.4825 Y0.6577 
G00 Z0.1000 
G00 X-0.4872 Y0.0375 
G01 Z-0.0070 F10.00 
G01 X-0.1575 Y0.3672 F20.00 
G01 X-0.1575 Y0.3696 
G01 X-0.1716 Y0.3555 
G01 X-0.1797 Y0.3555 
G01 X-0.4925 Y0.0427 
G01 X-0.4978 Y0.0375 
G01 X-0.4872 Y0.0375 
G00 Z0.1000 
G00 X-0.1575 Y0.5304 
G01 Z-0.0070 F10.00 
G01 X-0.1575 Y0.5362 F20.00 
G01 X-0.1602 Y0.5351 
G01 X-0.1612 Y0.5341 
G01 X-0.1575 Y0.5304 
G00 Z0.1000 
G00 X-0.8579 Y0.7053 
G01 Z-0.0070 F10.00 
G01 X-0.8465 Y0.6939 F20.00 
G01 X-0.8415 Y0.6817 
G01 X-0.8365 Y0.6939 
G01 X-0.8251 Y0.7053 
G01 X-0.8102 Y0.7114 
G01 X-0.7941 Y0.7114 
G01 X-0.7792 Y0.7053 
G01 X-0.7678 Y0.6939 
G01 X-0.7628 Y0.6817 
G01 X-0.7577 Y0.6939 
G01 X-0.7463 Y0.7053 
G01 X-0.7314 Y0.7114 
G01 X-0.7162 Y0.7114 
G01 X-0.7537 Y0.7490 
G01 X-0.7547 Y0.7486 
G01 X-0.7708 Y0.7486 
G01 X-0.7857 Y0.7547 
G01 X-0.7971 Y0.7661 
G01 X-0.8021 Y0.7783 
G01 X-0.8072 Y0.7661 
G01 X-0.8186 Y0.7547 
G01 X-0.8275 Y0.7510 
G01 X-0.8275 Y0.7477 
G01 X-0.8377 Y0.7375 
G01 X-0.8664 Y0.7088 
G01 X-0.8579 Y0.7053 
G00 Z0.1000 
G00 X-0.3254 Y0.9725 
G01 Z-0.0070 F10.00 
G01 X-0.3802 Y0.9725 F20.00 
G01 X-0.3852 Y0.9675 
G01 X-0.3204 Y0.9675 
G01 X-0.3254 Y0.9725 
G00 Z0.1000 
G00 X-0.8072 Y0.8740 
G01 Z-0.0070 F10.00 
G01 X-0.8021 Y0.8618 F20.00 
G01 X-0.7971 Y0.8740 
G01 X-0.7886 Y0.8825 
G01 X-0.8157 Y0.8825 
G01 X-0.8072 Y0.8740 
G00 Z0.1000 
G00 X-0.8859 Y0.8740 
G01 Z-0.0070 F10.00 
G01 X-0.8809 Y0.8618 F20.00 
G01 X-0.8758 Y0.8740 
G01 X-0.8673 Y0.8825 
G01 X-0.8944 Y0.8825 
G01 X-0.8859 Y0.8740 
G00 Z0.1000 
G00 X-0.1455 Y0.6184 
G01 Z-0.0070 F10.00 
G01 X-0.1455 Y0.5842 F20.00 
G01 X-0.1175 Y0.6122 
G01 X-0.1175 Y0.6675 
G01 X-0.1185 Y0.6667 
G01 X-0.1227 Y0.6625 
G01 X-0.1242 Y0.6625 
G01 X-0.1585 Y0.6367 
G01 X-0.1612 Y0.6341 
G01 X-0.1455 Y0.6184 
G00 Z0.1000 
G00 X-0.1227 Y0.8375 
G01 Z-0.0070 F10.00 
G01 X-0.1185 Y0.8333 F20.00 
G01 X-0.1175 Y0.8325 
G01 X-0.1175 Y0.9075 
G01 X-0.1700 Y0.9571 
G01 X-0.1716 Y0.9555 
G01 X-0.2084 Y0.9555 
G01 X-0.2345 Y0.9816 
G01 X-0.2345 Y1.0184 
G01 X-0.2313 Y1.0216 
G01 X-0.3522 Y1.1425 
G01 X-1.0872 Y1.1425 
G01 X-1.0913 Y1.1411 
G01 X-1.0935 Y1.1422 
G01 X-1.1003 Y1.1355 
G01 X-1.1196 Y1.1275 
G01 X-1.1404 Y1.1275 
G01 X-1.1597 Y1.1355 
G01 X-1.1745 Y1.1503 
G01 X-1.1777 Y1.1580 
G01 X-1.1805 Y1.1552 
G01 X-1.1527 Y1.1275 
G01 X-0.4927 Y1.1275 
G01 X-0.4825 Y1.1172 
G01 X-0.4058 Y1.0405 
G01 X-0.3932 Y1.0405 
G01 X-0.3695 Y1.0168 
G01 X-0.3695 Y1.0075 
G01 X-0.3345 Y1.0075 
G01 X-0.3345 Y1.0184 
G01 X-0.3084 Y1.0445 
G01 X-0.2716 Y1.0445 
G01 X-0.2455 Y1.0184 
G01 X-0.2455 Y0.9816 
G01 X-0.2596 Y0.9675 
G01 X-0.2472 Y0.9675 
G01 X-0.2327 Y0.9675 
G01 X-0.2091 Y0.9438 
G01 X-0.2084 Y0.9445 
G01 X-0.1716 Y0.9445 
G01 X-0.1455 Y0.9184 
G01 X-0.1455 Y0.8816 
G01 X-0.1612 Y0.8659 
G01 X-0.1585 Y0.8633 
G01 X-0.1242 Y0.8375 
G01 X-0.1227 Y0.8375 
G00 Z0.1000 
G00 X-0.3084 Y0.8445 
G01 Z-0.0070 F10.00 
G01 X-0.2716 Y0.8445 F20.00 
G01 X-0.2455 Y0.8184 
G01 X-0.2455 Y0.7816 
G01 X-0.2596 Y0.7675 
G01 X-0.2472 Y0.7675 
G01 X-0.2338 Y0.7809 
G01 X-0.2345 Y0.7816 
G01 X-0.2345 Y0.8184 
G01 X-0.2204 Y0.8325 
G01 X-0.2327 Y0.8325 
G01 X-0.2472 Y0.8325 
G01 X-0.2709 Y0.8562 
G01 X-0.2716 Y0.8555 
G01 X-0.3084 Y0.8555 
G01 X-0.3345 Y0.8816 
G01 X-0.3345 Y0.9184 
G01 X-0.3204 Y0.9325 
G01 X-0.4342 Y0.9325 
G01 X-0.3312 Y0.8217 
G01 X-0.3084 Y0.8445 
G00 Z0.1000 
G00 X-0.2204 Y0.8675 
G01 Z-0.0070 F10.00 
G01 X-0.2345 Y0.8816 F20.00 
G01 X-0.2345 Y0.9184 
G01 X-0.2338 Y0.9191 
G01 X-0.2472 Y0.9325 
G01 X-0.2596 Y0.9325 
G01 X-0.2455 Y0.9184 
G01 X-0.2455 Y0.8816 
G01 X-0.2462 Y0.8809 
G01 X-0.2327 Y0.8675 
G01 X-0.2204 Y0.8675 
G00 Z0.1000 
G00 X-0.2455 Y0.6184 
G01 Z-0.0070 F10.00 
G01 X-0.2455 Y0.5816 F20.00 
G01 X-0.2596 Y0.5675 
G01 X-0.2204 Y0.5675 
G01 X-0.2345 Y0.5816 
G01 X-0.2345 Y0.6184 
G01 X-0.2204 Y0.6325 
G01 X-0.2596 Y0.6325 
G01 X-0.2455 Y0.6184 
G00 Z0.1000 
G00 X-0.7285 Y0.3619 
G01 Z-0.0070 F10.00 
G01 X-0.7347 Y0.3471 F20.00 
G01 X-0.7461 Y0.3357 
G01 X-0.7609 Y0.3295 
G01 X-0.8391 Y0.3295 
G01 X-0.8539 Y0.3357 
G01 X-0.8653 Y0.3471 
G01 X-0.8715 Y0.3619 
G01 X-0.8715 Y0.3781 
G01 X-0.8653 Y0.3929 
G01 X-0.8558 Y0.4025 
G01 X-0.9075 Y0.4025 
G01 X-0.9075 Y0.3275 
G01 X-0.7122 Y0.3275 
G01 X-0.6622 Y0.3775 
G01 X-0.6477 Y0.3775 
G01 X-0.5322 Y0.3775 
G01 X-0.3422 Y0.5675 
G01 X-0.3277 Y0.5675 
G01 X-0.3204 Y0.5675 
G01 X-0.3345 Y0.5816 
G01 X-0.3345 Y0.6184 
G01 X-0.3204 Y0.6325 
G01 X-0.3327 Y0.6325 
G01 X-0.4625 Y0.5027 
G01 X-0.4625 Y0.4977 
G01 X-0.5375 Y0.4227 
G01 X-0.5477 Y0.4125 
G01 X-0.6877 Y0.4125 
G01 X-0.7285 Y0.3717 
G01 X-0.7285 Y0.3619 
G00 Z0.1000 
G00 X-0.3345 Y0.6816 
G01 Z-0.0070 F10.00 
G01 X-0.3345 Y0.7184 F20.00 
G01 X-0.3204 Y0.7325 
G01 X-0.3427 Y0.7325 
G01 X-0.3572 Y0.7325 
G01 X-0.5072 Y0.8825 
G01 X-0.7369 Y0.8825 
G01 X-0.7284 Y0.8740 
G01 X-0.7223 Y0.8591 
G01 X-0.7223 Y0.7810 
G01 X-0.7264 Y0.7711 
G01 X-0.6525 Y0.6972 
G01 X-0.6525 Y0.6827 
G01 X-0.6525 Y0.5722 
G01 X-0.6525 Y0.5577 
G01 X-0.7975 Y0.4127 
G01 X-0.7998 Y0.4105 
G01 X-0.7609 Y0.4105 
G01 X-0.7461 Y0.4043 
G01 X-0.7457 Y0.4040 
G01 X-0.7022 Y0.4475 
G01 X-0.6877 Y0.4475 
G01 X-0.5622 Y0.4475 
G01 X-0.4975 Y0.5122 
G01 X-0.4975 Y0.5172 
G01 X-0.4872 Y0.5275 
G01 X-0.3472 Y0.6675 
G01 X-0.3327 Y0.6675 
G01 X-0.3204 Y0.6675 
G01 X-0.3345 Y0.6816 
G00 Z0.1000 
G00 X-0.1716 Y0.7555 
G01 Z-0.0070 F10.00 
G01 X-0.2084 Y0.7555 F20.00 
G01 X-0.2091 Y0.7562 
G01 X-0.2225 Y0.7427 
G01 X-0.2327 Y0.7325 
G01 X-0.2596 Y0.7325 
G01 X-0.2455 Y0.7184 
G01 X-0.2455 Y0.6816 
G01 X-0.2596 Y0.6675 
G01 X-0.2204 Y0.6675 
G01 X-0.2345 Y0.6816 
G01 X-0.2345 Y0.7184 
G01 X-0.2084 Y0.7445 
G01 X-0.1716 Y0.7445 
G01 X-0.1475 Y0.7204 
G01 X-0.1475 Y0.7796 
G01 X-0.1716 Y0.7555 
G00 Z0.1000 
G00 X-1.2309 Y0.5995 
G01 Z-0.0070 F10.00 
G01 X-1.3091 Y0.5995 F20.00 
G01 X-1.3239 Y0.6057 
G01 X-1.3353 Y0.6171 
G01 X-1.3415 Y0.6319 
G01 X-1.3415 Y0.6481 
G01 X-1.3375 Y0.6578 
G01 X-1.3425 Y0.6527 
G01 X-1.3425 Y0.6172 
G01 X-1.3058 Y0.5805 
G01 X-1.2309 Y0.5805 
G01 X-1.2161 Y0.5743 
G01 X-1.2047 Y0.5629 
G01 X-1.1985 Y0.5481 
G01 X-1.1985 Y0.5319 
G01 X-1.2047 Y0.5171 
G01 X-1.2142 Y0.5075 
G01 X-0.8922 Y0.5075 
G01 X-0.8251 Y0.5746 
G01 X-0.8365 Y0.5860 
G01 X-0.8415 Y0.5982 
G01 X-0.8465 Y0.5860 
G01 X-0.8579 Y0.5746 
G01 X-0.8728 Y0.5684 
G01 X-0.8889 Y0.5684 
G01 X-0.9038 Y0.5746 
G01 X-0.9152 Y0.5860 
G01 X-0.9214 Y0.6009 
G01 X-0.9214 Y0.6125 
G01 X-1.2092 Y0.6125 
G01 X-1.2161 Y0.6057 
G01 X-1.2309 Y0.5995 
G00 Z0.1000 
G00 X-0.9214 Y0.6790 
G01 Z-0.0070 F10.00 
G01 X-0.9152 Y0.6939 F20.00 
G01 X-0.9038 Y0.7053 
G01 X-0.8984 Y0.7075 
G01 X-0.9077 Y0.7075 
G01 X-0.9427 Y0.6725 
G01 X-0.9572 Y0.6725 
G01 X-1.2142 Y0.6725 
G01 X-1.2047 Y0.6629 
G01 X-1.1985 Y0.6481 
G01 X-1.1985 Y0.6475 
G01 X-0.9214 Y0.6475 
G01 X-0.9214 Y0.6790 
G00 Z0.1000 
G00 X-1.3258 Y1.0075 
G01 Z-0.0070 F10.00 
G01 X-1.3353 Y1.0171 F20.00 
G01 X-1.3415 Y1.0319 
G01 X-1.3415 Y1.0481 
G01 X-1.3353 Y1.0629 
G01 X-1.3239 Y1.0743 
G01 X-1.3091 Y1.0805 
G01 X-1.2309 Y1.0805 
G01 X-1.2161 Y1.0743 
G01 X-1.2092 Y1.0675 
G01 X-0.4972 Y1.0675 
G01 X-0.4827 Y1.0675 
G01 X-0.4527 Y1.0375 
G01 X-0.4425 Y1.0272 
G01 X-0.4425 Y1.0248 
G01 X-0.4410 Y1.0263 
G01 X-0.5072 Y1.0925 
G01 X-1.1527 Y1.0925 
G01 X-1.1672 Y1.0925 
G01 X-1.2052 Y1.1305 
G01 X-1.2083 Y1.1275 
G01 X-1.2517 Y1.1275 
G01 X-1.2647 Y1.1405 
G01 X-1.2925 Y1.1128 
G01 X-1.2925 Y1.1127 
G01 X-1.3027 Y1.1025 
G01 X-1.4127 Y1.1025 
G01 X-1.4272 Y1.1025 
G01 X-1.4472 Y1.1225 
G01 X-1.4575 Y1.1327 
G01 X-1.4575 Y1.1452 
G01 X-1.4690 Y1.1337 
G01 X-1.3427 Y1.0075 
G01 X-1.3327 Y1.0075 
G01 X-1.3258 Y1.0075 
G00 Z0.1000 
G00 X-1.3575 Y0.7780 
G01 Z-0.0070 F10.00 
G01 X-1.3365 Y0.7601 F20.00 
G01 X-1.3353 Y0.7629 
G01 X-1.3258 Y0.7725 
G01 X-1.3372 Y0.7725 
G01 X-1.3475 Y0.7827 
G01 X-1.3575 Y0.7928 
G01 X-1.3575 Y0.7780 
G00 Z0.1000 
G00 X-0.9607 Y0.8591 
G01 Z-0.0070 F10.00 
G01 X-0.9546 Y0.8740 F20.00 
G01 X-0.9461 Y0.8825 
G01 X-1.1427 Y0.8825 
G01 X-1.1925 Y0.8327 
G01 X-1.2022 Y0.8231 
G01 X-1.2047 Y0.8171 
G01 X-1.2142 Y0.8075 
G01 X-1.2022 Y0.8075 
G01 X-1.1825 Y0.8272 
G01 X-1.1722 Y0.8375 
G01 X-0.9607 Y0.8375 
G01 X-0.9607 Y0.8591 
G00 Z0.1000 
G00 X-1.2047 Y0.7629 
G01 Z-0.0070 F10.00 
G01 X-1.1985 Y0.7481 F20.00 
G01 X-1.1985 Y0.7319 
G01 X-1.2047 Y0.7171 
G01 X-1.2142 Y0.7075 
G01 X-0.9572 Y0.7075 
G01 X-0.9325 Y0.7322 
G01 X-0.9222 Y0.7425 
G01 X-0.8822 Y0.7425 
G01 X-0.8672 Y0.7575 
G01 X-0.8758 Y0.7661 
G01 X-0.8809 Y0.7783 
G01 X-0.8859 Y0.7661 
G01 X-0.8973 Y0.7547 
G01 X-0.9122 Y0.7486 
G01 X-0.9283 Y0.7486 
G01 X-0.9432 Y0.7547 
G01 X-0.9546 Y0.7661 
G01 X-0.9607 Y0.7810 
G01 X-0.9607 Y0.8025 
G01 X-1.1577 Y0.8025 
G01 X-1.1877 Y0.7725 
G01 X-1.2022 Y0.7725 
G01 X-1.2142 Y0.7725 
G01 X-1.2047 Y0.7629 
G00 Z0.1000 
G00 X-1.5075 Y1.1227 
G01 Z-0.0070 F10.00 
G01 X-1.5075 Y1.1302 F20.00 
G01 X-1.5305 Y1.1532 
G01 X-1.5305 Y1.1825 
G01 X-1.7072 Y1.1825 
G01 X-1.7113 Y1.1811 
G01 X-1.7135 Y1.1822 
G01 X-1.7203 Y1.1755 
G01 X-1.7280 Y1.1723 
G01 X-1.6975 Y1.1417 
G01 X-1.6975 Y1.0983 
G01 X-1.7283 Y1.0675 
G01 X-1.7717 Y1.0675 
G01 X-1.8025 Y1.0983 
G01 X-1.8025 Y1.1417 
G01 X-1.7995 Y1.1447 
G01 X-1.8272 Y1.1725 
G01 X-1.9078 Y1.1725 
G01 X-1.7727 Y1.0375 
G01 X-1.7272 Y1.0375 
G01 X-1.6472 Y1.1175 
G01 X-1.6327 Y1.1175 
G01 X-1.5027 Y1.1175 
G01 X-1.4925 Y1.1072 
G01 X-1.4625 Y1.0772 
G01 X-1.4625 Y1.0627 
G01 X-1.4625 Y1.0470 
G01 X-1.3625 Y0.9422 
G01 X-1.3625 Y0.9777 
G01 X-1.5075 Y1.1227 
G00 Z0.1000 
G00 X-1.3258 Y0.9725 
G01 Z-0.0070 F10.00 
G01 X-1.3275 Y0.9725 F20.00 
G01 X-1.3275 Y0.9708 
G01 X-1.3258 Y0.9725 
G00 Z0.1000 
G00 X-1.2309 Y0.8995 
G01 Z-0.0070 F10.00 
G01 X-1.3091 Y0.8995 F20.00 
G01 X-1.3239 Y0.9057 
G01 X-1.3275 Y0.9092 
G01 X-1.3275 Y0.8708 
G01 X-1.3239 Y0.8743 
G01 X-1.3091 Y0.8805 
G01 X-1.2309 Y0.8805 
G01 X-1.2161 Y0.8743 
G01 X-1.2082 Y0.8665 
G01 X-1.1572 Y0.9175 
G01 X-1.1427 Y0.9175 
G01 X-0.4927 Y0.9175 
G01 X-0.4825 Y0.9072 
G01 X-0.3427 Y0.7675 
G01 X-0.3204 Y0.7675 
G01 X-0.3345 Y0.7816 
G01 X-0.3345 Y0.7825 
G01 X-0.3353 Y0.7825 
G01 X-0.3422 Y0.7825 
G01 X-0.3425 Y0.7828 
G01 X-0.3429 Y0.7828 
G01 X-0.3476 Y0.7879 
G01 X-0.3525 Y0.7927 
G01 X-0.3525 Y0.7931 
G01 X-0.4726 Y0.9225 
G01 X-1.2024 Y0.9225 
G01 X-1.2047 Y0.9171 
G01 X-1.2161 Y0.9057 
G01 X-1.2309 Y0.8995 
G00 Z0.1000 
G00 X-1.2047 Y0.9629 
G01 Z-0.0070 F10.00 
G01 X-1.2024 Y0.9575 F20.00 
G01 X-0.4719 Y0.9575 
G01 X-0.4716 Y0.9578 
G01 X-0.4647 Y0.9575 
G01 X-0.4622 Y0.9575 
G01 X-0.4775 Y0.9727 
G01 X-0.4775 Y0.9752 
G01 X-0.4932 Y0.9595 
G01 X-0.5268 Y0.9595 
G01 X-0.5398 Y0.9725 
G01 X-1.2142 Y0.9725 
G01 X-1.2047 Y0.9629 
G00 Z0.1000 
G00 X-0.5505 Y1.0168 
G01 Z-0.0070 F10.00 
G01 X-0.5348 Y1.0325 F20.00 
G01 X-1.1985 Y1.0325 
G01 X-1.1985 Y1.0319 
G01 X-1.2047 Y1.0171 
G01 X-1.2142 Y1.0075 
G01 X-0.5505 Y1.0075 
G01 X-0.5505 Y1.0168 
G00 Z0.1000 
G00 X-1.4732 Y1.2105 
G01 Z-0.0070 F10.00 
G01 X-1.4575 Y1.1948 F20.00 
G01 X-1.4575 Y1.2052 
G01 X-1.4805 Y1.2282 
G01 X-1.4805 Y1.2607 
G01 X-1.4922 Y1.2725 
G01 X-1.7627 Y1.2725 
G01 X-1.7644 Y1.2709 
G01 X-1.7604 Y1.2725 
G01 X-1.7396 Y1.2725 
G01 X-1.7203 Y1.2645 
G01 X-1.7055 Y1.2497 
G01 X-1.6975 Y1.2304 
G01 X-1.6975 Y1.2175 
G01 X-1.5127 Y1.2175 
G01 X-1.5058 Y1.2105 
G01 X-1.4732 Y1.2105 
G00 Z0.1000 
G00 X-1.3875 Y0.5522 
G01 Z-0.0070 F10.00 
G01 X-1.3825 Y0.5472 F20.00 
G01 X-1.3825 Y0.5327 
G01 X-1.3875 Y0.5277 
G01 X-1.3875 Y0.5075 
G01 X-1.3258 Y0.5075 
G01 X-1.3353 Y0.5171 
G01 X-1.3415 Y0.5319 
G01 X-1.3415 Y0.5481 
G01 X-1.3360 Y0.5613 
G01 X-1.3775 Y0.6027 
G01 X-1.3775 Y0.6172 
G01 X-1.3775 Y0.6672 
G01 X-1.3672 Y0.6775 
G01 X-1.3372 Y0.7075 
G01 X-1.3258 Y0.7075 
G01 X-1.3353 Y0.7171 
G01 X-1.3376 Y0.7225 
G01 X-1.3393 Y0.7225 
G01 X-1.3459 Y0.7220 
G01 X-1.3465 Y0.7225 
G01 X-1.3472 Y0.7225 
G01 X-1.3519 Y0.7271 
G01 X-1.3815 Y0.7525 
G01 X-1.3822 Y0.7525 
G01 X-1.3869 Y0.7572 
G01 X-1.3875 Y0.7577 
G01 X-1.3875 Y0.5522 
G00 Z0.1000 
G00 X-1.5125 Y0.7708 
G01 Z-0.0070 F10.00 
G01 X-1.5125 Y0.7725 F20.00 
G01 X-1.5142 Y0.7725 
G01 X-1.5125 Y0.7708 
G00 Z0.1000 
G00 X-1.4322 Y0.1275 
G01 Z-0.0070 F10.00 
G01 X-1.4375 Y0.1327 F20.00 
G01 X-1.4675 Y0.1627 
G01 X-1.4675 Y0.1772 
G01 X-1.4675 Y0.5987 
G01 X-1.4683 Y0.6047 
G01 X-1.4675 Y0.6058 
G01 X-1.4675 Y0.6072 
G01 X-1.4633 Y0.6115 
G01 X-1.4525 Y0.6258 
G01 X-1.4525 Y0.6377 
G01 X-1.4725 Y0.6137 
G01 X-1.4725 Y0.1472 
G01 X-1.4527 Y0.1275 
G01 X-1.4322 Y0.1275 
G00 Z0.1000 
G00 X-1.7720 Y1.1723 
G01 Z-0.0070 F10.00 
G01 X-1.7797 Y1.1755 F20.00 
G01 X-1.7945 Y1.1903 
G01 X-1.8025 Y1.2096 
G01 X-1.8025 Y1.2304 
G01 X-1.8009 Y1.2344 
G01 X-1.8025 Y1.2327 
G01 X-1.8025 Y1.1972 
G01 X-1.8025 Y1.1972 
G01 X-1.7747 Y1.1695 
G01 X-1.7720 Y1.1723 
G00 Z0.1000 
G00 X-2.0847 Y0.1271 
G01 Z-0.0070 F10.00 
G01 X-2.0961 Y0.1157 F20.00 
G01 X-2.1109 Y0.1095 
G01 X-2.1891 Y0.1095 
G01 X-2.2039 Y0.1157 
G01 X-2.2153 Y0.1271 
G01 X-2.2215 Y0.1419 
G01 X-2.2215 Y0.1581 
G01 X-2.2153 Y0.1729 
G01 X-2.2039 Y0.1843 
G01 X-2.1891 Y0.1905 
G01 X-2.1275 Y0.1905 
G01 X-2.1275 Y0.2027 
G01 X-2.1342 Y0.2095 
G01 X-2.1891 Y0.2095 
G01 X-2.2039 Y0.2157 
G01 X-2.2153 Y0.2271 
G01 X-2.2215 Y0.2419 
G01 X-2.2215 Y0.2581 
G01 X-2.2153 Y0.2729 
G01 X-2.2039 Y0.2843 
G01 X-2.1891 Y0.2905 
G01 X-2.1275 Y0.2905 
G01 X-2.1275 Y0.3027 
G01 X-2.1342 Y0.3095 
G01 X-2.1891 Y0.3095 
G01 X-2.2039 Y0.3157 
G01 X-2.2153 Y0.3271 
G01 X-2.2176 Y0.3325 
G01 X-2.3125 Y0.3325 
G01 X-2.3125 Y0.1272 
G01 X-2.2228 Y0.0375 
G01 X-2.0572 Y0.0375 
G01 X-2.0625 Y0.0427 
G01 X-2.0625 Y0.0428 
G01 X-2.0722 Y0.0525 
G01 X-2.0722 Y0.0525 
G01 X-2.0825 Y0.0627 
G01 X-2.0825 Y0.1323 
G01 X-2.0847 Y0.1271 
G00 Z0.1000 
G00 X-2.0847 Y0.2271 
G01 Z-0.0070 F10.00 
G01 X-2.0935 Y0.2182 F20.00 
G01 X-2.0925 Y0.2172 
G01 X-2.0925 Y0.2027 
G01 X-2.0925 Y0.1808 
G01 X-2.0847 Y0.1729 
G01 X-2.0825 Y0.1677 
G01 X-2.0825 Y0.2323 
G01 X-2.0847 Y0.2271 
G00 Z0.1000 
G00 X-2.0847 Y0.3271 
G01 Z-0.0070 F10.00 
G01 X-2.0935 Y0.3182 F20.00 
G01 X-2.0925 Y0.3172 
G01 X-2.0925 Y0.3027 
G01 X-2.0925 Y0.2808 
G01 X-2.0847 Y0.2729 
G01 X-2.0825 Y0.2677 
G01 X-2.0825 Y0.3323 
G01 X-2.0847 Y0.3271 
G00 Z0.1000 
G00 X-2.0825 Y0.3677 
G01 Z-0.0070 F10.00 
G01 X-2.0825 Y0.3709 F20.00 
G01 X-2.0844 Y0.3723 
G01 X-2.0825 Y0.3677 
G00 Z0.1000 
G00 X-2.0577 Y0.3975 
G01 Z-0.0070 F10.00 
G01 X-2.0537 Y0.3934 F20.00 
G01 X-2.0490 Y0.3901 
G01 X-2.0487 Y0.3884 
G01 X-2.0475 Y0.3872 
G01 X-2.0475 Y0.3815 
G01 X-2.0465 Y0.3758 
G01 X-2.0475 Y0.3744 
G01 X-2.0475 Y0.0772 
G01 X-2.0378 Y0.0675 
G01 X-1.9222 Y0.0675 
G01 X-1.9275 Y0.0727 
G01 X-1.9275 Y0.0728 
G01 X-2.0172 Y0.1625 
G01 X-2.0172 Y0.1625 
G01 X-2.0275 Y0.1727 
G01 X-2.0275 Y0.3877 
G01 X-2.0372 Y0.3975 
G01 X-2.0527 Y0.3975 
G01 X-2.0595 Y0.3975 
G01 X-2.0594 Y0.3975 
G01 X-2.0577 Y0.3975 
G00 Z0.1000 
G00 X-2.1275 Y0.4577 
G01 Z-0.0070 F10.00 
G01 X-2.1275 Y0.4722 F20.00 
G01 X-2.1275 Y0.5172 
G01 X-2.1172 Y0.5275 
G01 X-2.1172 Y0.5275 
G01 X-2.0875 Y0.5572 
G01 X-2.0772 Y0.5675 
G01 X-1.6972 Y0.5675 
G01 X-1.6775 Y0.5872 
G01 X-1.6775 Y0.7127 
G01 X-1.6775 Y0.7272 
G01 X-1.6625 Y0.7422 
G01 X-1.6522 Y0.7525 
G01 X-1.6397 Y0.7525 
G01 X-1.6353 Y0.7629 
G01 X-1.6258 Y0.7725 
G01 X-1.6372 Y0.7725 
G01 X-1.6572 Y0.7925 
G01 X-1.6675 Y0.8027 
G01 X-1.6675 Y0.8527 
G01 X-1.6675 Y0.8672 
G01 X-1.6375 Y0.8972 
G01 X-1.6272 Y0.9075 
G01 X-1.6258 Y0.9075 
G01 X-1.6353 Y0.9171 
G01 X-1.6376 Y0.9225 
G01 X-1.6727 Y0.9225 
G01 X-1.6925 Y0.9027 
G01 X-1.6925 Y0.6372 
G01 X-1.6925 Y0.6227 
G01 X-1.7325 Y0.5827 
G01 X-1.7427 Y0.5725 
G01 X-2.0827 Y0.5725 
G01 X-2.1325 Y0.5227 
G01 X-2.1325 Y0.4491 
G01 X-2.0859 Y0.4162 
G01 X-2.1275 Y0.4577 
G00 Z0.1000 
G00 X-2.1572 Y0.4225 
G01 Z-0.0070 F10.00 
G01 X-2.1613 Y0.4266 F20.00 
G01 X-2.1660 Y0.4299 
G01 X-2.1663 Y0.4316 
G01 X-2.1675 Y0.4327 
G01 X-2.1675 Y0.4385 
G01 X-2.1685 Y0.4442 
G01 X-2.1675 Y0.4455 
G01 X-2.1675 Y0.5227 
G01 X-2.1675 Y0.5372 
G01 X-2.0972 Y0.6075 
G01 X-2.0827 Y0.6075 
G01 X-1.7572 Y0.6075 
G01 X-1.7275 Y0.6372 
G01 X-1.7275 Y0.9172 
G01 X-1.7172 Y0.9275 
G01 X-1.6975 Y0.9472 
G01 X-1.6872 Y0.9575 
G01 X-1.6376 Y0.9575 
G01 X-1.6353 Y0.9629 
G01 X-1.6239 Y0.9743 
G01 X-1.6091 Y0.9805 
G01 X-1.5309 Y0.9805 
G01 X-1.5161 Y0.9743 
G01 X-1.5047 Y0.9629 
G01 X-1.4985 Y0.9481 
G01 X-1.4985 Y0.9319 
G01 X-1.5047 Y0.9171 
G01 X-1.5142 Y0.9075 
G01 X-1.4968 Y0.9075 
G01 X-1.4965 Y0.9078 
G01 X-1.4896 Y0.9075 
G01 X-1.4827 Y0.9075 
G01 X-1.4824 Y0.9072 
G01 X-1.4820 Y0.9072 
G01 X-1.4774 Y0.9021 
G01 X-1.4725 Y0.8972 
G01 X-1.4725 Y0.8968 
G01 X-1.4225 Y0.8423 
G01 X-1.4225 Y0.9030 
G01 X-1.5175 Y1.0025 
G01 X-1.5237 Y1.0025 
G01 X-1.5309 Y0.9995 
G01 X-1.6091 Y0.9995 
G01 X-1.6163 Y1.0025 
G01 X-1.6577 Y1.0025 
G01 X-1.7125 Y0.9477 
G01 X-1.7227 Y0.9375 
G01 X-1.7825 Y0.9375 
G01 X-1.7825 Y0.7198 
G01 X-1.7595 Y0.6968 
G01 X-1.7595 Y0.6632 
G01 X-1.7832 Y0.6395 
G01 X-1.8168 Y0.6395 
G01 X-1.8298 Y0.6525 
G01 X-1.8902 Y0.6525 
G01 X-1.9032 Y0.6395 
G01 X-1.9368 Y0.6395 
G01 X-1.9498 Y0.6525 
G01 X-2.0102 Y0.6525 
G01 X-2.0232 Y0.6395 
G01 X-2.0568 Y0.6395 
G01 X-2.0805 Y0.6632 
G01 X-2.0805 Y0.6968 
G01 X-2.0568 Y0.7205 
G01 X-2.0232 Y0.7205 
G01 X-1.9995 Y0.6968 
G01 X-1.9995 Y0.6875 
G01 X-1.9605 Y0.6875 
G01 X-1.9605 Y0.6968 
G01 X-1.9368 Y0.7205 
G01 X-1.9032 Y0.7205 
G01 X-1.8795 Y0.6968 
G01 X-1.8795 Y0.6875 
G01 X-1.8405 Y0.6875 
G01 X-1.8405 Y0.6968 
G01 X-1.8175 Y0.7198 
G01 X-1.8175 Y0.9375 
G01 X-1.8827 Y0.9375 
G01 X-1.8972 Y0.9375 
G01 X-1.9375 Y0.9777 
G01 X-1.9375 Y0.9922 
G01 X-1.9375 Y1.0627 
G01 X-1.9772 Y1.1025 
G01 X-2.0327 Y1.1025 
G01 X-2.0825 Y1.0527 
G01 X-2.0825 Y1.0372 
G01 X-2.0825 Y1.0227 
G01 X-2.1725 Y0.9327 
G01 X-2.1827 Y0.9225 
G01 X-2.3527 Y0.9225 
G01 X-2.3672 Y0.9225 
G01 X-2.4172 Y0.9725 
G01 X-2.4275 Y0.9827 
G01 X-2.4275 Y1.0727 
G01 X-2.4275 Y1.0872 
G01 X-2.3175 Y1.1972 
G01 X-2.3072 Y1.2075 
G01 X-1.8375 Y1.2075 
G01 X-1.8375 Y1.2327 
G01 X-1.8375 Y1.2472 
G01 X-1.7875 Y1.2972 
G01 X-1.7772 Y1.3075 
G01 X-1.4777 Y1.3075 
G01 X-1.4675 Y1.2972 
G01 X-1.4557 Y1.2855 
G01 X-1.4232 Y1.2855 
G01 X-1.3995 Y1.2618 
G01 X-1.3995 Y1.2282 
G01 X-1.4225 Y1.2052 
G01 X-1.4225 Y1.1948 
G01 X-1.4068 Y1.2105 
G01 X-1.3732 Y1.2105 
G01 X-1.3602 Y1.1975 
G01 X-1.3272 Y1.1975 
G01 X-1.2675 Y1.2572 
G01 X-1.2572 Y1.2675 
G01 X-1.2072 Y1.2675 
G01 X-1.1927 Y1.2675 
G01 X-1.1527 Y1.2274 
G01 X-1.1404 Y1.2325 
G01 X-1.1196 Y1.2325 
G01 X-1.1003 Y1.2245 
G01 X-1.0855 Y1.2097 
G01 X-1.0775 Y1.1904 
G01 X-1.0775 Y1.1775 
G01 X-0.3522 Y1.1775 
G01 X-0.3377 Y1.1775 
G01 X-0.2048 Y1.0445 
G01 X-0.1716 Y1.0445 
G01 X-0.1455 Y1.0184 
G01 X-0.1455 Y0.9820 
G01 X-0.0930 Y0.9325 
G01 X-0.0927 Y0.9325 
G01 X-0.0878 Y0.9276 
G01 X-0.0827 Y0.9227 
G01 X-0.0827 Y0.9224 
G01 X-0.0825 Y0.9222 
G01 X-0.0825 Y0.9153 
G01 X-0.0823 Y0.9083 
G01 X-0.0825 Y0.9080 
G01 X-0.0825 Y0.5977 
G01 X-0.0927 Y0.5875 
G01 X-0.0928 Y0.5875 
G01 X-0.1225 Y0.5578 
G01 X-0.1225 Y0.3672 
G01 X-0.1225 Y0.3527 
G01 X-0.4727 Y0.0025 
G01 X-0.4872 Y0.0025 
G01 X-2.2372 Y0.0025 
G01 X-2.2475 Y0.0127 
G01 X-2.2475 Y0.0128 
G01 X-2.3372 Y0.1025 
G01 X-2.3475 Y0.1127 
G01 X-2.3475 Y0.3427 
G01 X-2.3475 Y0.3572 
G01 X-2.3475 Y0.7727 
G01 X-2.3475 Y0.7872 
G01 X-2.2822 Y0.8525 
G01 X-2.2677 Y0.8525 
G01 X-2.1922 Y0.8525 
G01 X-2.0494 Y0.9953 
G01 X-2.0595 Y1.0054 
G01 X-2.0595 Y1.0546 
G01 X-2.0246 Y1.0895 
G01 X-1.9754 Y1.0895 
G01 X-1.9405 Y1.0546 
G01 X-1.9405 Y1.0054 
G01 X-1.9754 Y0.9705 
G01 X-2.0246 Y0.9705 
G01 X-2.0247 Y0.9706 
G01 X-2.1675 Y0.8277 
G01 X-2.1777 Y0.8175 
G01 X-2.2677 Y0.8175 
G01 X-2.3125 Y0.7727 
G01 X-2.3125 Y0.3675 
G01 X-2.2176 Y0.3675 
G01 X-2.2153 Y0.3729 
G01 X-2.2039 Y0.3843 
G01 X-2.1891 Y0.3905 
G01 X-2.1109 Y0.3905 
G01 X-2.1092 Y0.3898 
G01 X-2.1556 Y0.4225 
G01 X-2.1572 Y0.4225 
G00 Z0.1000 
G00 X-1.7025 Y0.9493 
G01 Z-0.0070 F10.00 
G01 X-1.6893 Y0.9625 F20.00 
G01 X-1.6409 Y0.9625 
G01 X-1.6396 Y0.9658 
G01 X-1.6268 Y0.9786 
G01 X-1.6101 Y0.9855 
G01 X-1.5299 Y0.9855 
G01 X-1.5132 Y0.9786 
G01 X-1.5004 Y0.9658 
G01 X-1.4935 Y0.9491 
G01 X-1.4935 Y0.9309 
G01 X-1.5004 Y0.9142 
G01 X-1.5022 Y0.9125 
G01 X-1.4987 Y0.9125 
G01 X-1.4983 Y0.9129 
G01 X-1.4895 Y0.9125 
G01 X-1.4807 Y0.9125 
G01 X-1.4803 Y0.9121 
G01 X-1.4797 Y0.9121 
G01 X-1.4737 Y0.9056 
G01 X-1.4675 Y0.8993 
G01 X-1.4675 Y0.8987 
G01 X-1.4275 Y0.8551 
G01 X-1.4275 Y0.9010 
G01 X-1.5196 Y0.9975 
G01 X-1.5227 Y0.9975 
G01 X-1.5299 Y0.9945 
G01 X-1.6101 Y0.9945 
G01 X-1.6173 Y0.9975 
G01 X-1.6557 Y0.9975 
G01 X-1.7075 Y0.9457 
G01 X-1.7207 Y0.9325 
G01 X-1.7775 Y0.9325 
G01 X-1.7775 Y0.7218 
G01 X-1.7545 Y0.6988 
G01 X-1.7545 Y0.6612 
G01 X-1.7812 Y0.6345 
G01 X-1.8188 Y0.6345 
G01 X-1.8318 Y0.6475 
G01 X-1.8882 Y0.6475 
G01 X-1.9012 Y0.6345 
G01 X-1.9388 Y0.6345 
G01 X-1.9518 Y0.6475 
G01 X-2.0082 Y0.6475 
G01 X-2.0212 Y0.6345 
G01 X-2.0588 Y0.6345 
G01 X-2.0855 Y0.6612 
G01 X-2.0855 Y0.6988 
G01 X-2.0588 Y0.7255 
G01 X-2.0212 Y0.7255 
G01 X-1.9945 Y0.6988 
G01 X-1.9945 Y0.6925 
G01 X-1.9655 Y0.6925 
G01 X-1.9655 Y0.6988 
G01 X-1.9388 Y0.7255 
G01 X-1.9012 Y0.7255 
G01 X-1.8745 Y0.6988 
G01 X-1.8745 Y0.6925 
G01 X-1.8455 Y0.6925 
G01 X-1.8455 Y0.6988 
G01 X-1.8225 Y0.7218 
G01 X-1.8225 Y0.9325 
G01 X-1.8807 Y0.9325 
G01 X-1.8993 Y0.9325 
G01 X-1.9425 Y0.9757 
G01 X-1.9425 Y0.9943 
G01 X-1.9425 Y0.9963 
G01 X-1.9733 Y0.9655 
G01 X-2.0227 Y0.9655 
G01 X-2.1625 Y0.8257 
G01 X-2.1757 Y0.8125 
G01 X-2.2657 Y0.8125 
G01 X-2.3075 Y0.7707 
G01 X-2.3075 Y0.3725 
G01 X-2.2209 Y0.3725 
G01 X-2.2196 Y0.3758 
G01 X-2.2068 Y0.3886 
G01 X-2.1901 Y0.3955 
G01 X-2.1260 Y0.3955 
G01 X-2.1571 Y0.4175 
G01 X-2.1593 Y0.4175 
G01 X-2.1646 Y0.4227 
G01 X-2.1706 Y0.4270 
G01 X-2.1710 Y0.4291 
G01 X-2.1725 Y0.4307 
G01 X-2.1725 Y0.4381 
G01 X-2.1738 Y0.4454 
G01 X-2.1725 Y0.4471 
G01 X-2.1725 Y0.5207 
G01 X-2.1725 Y0.5393 
G01 X-2.0993 Y0.6125 
G01 X-2.0807 Y0.6125 
G01 X-1.7593 Y0.6125 
G01 X-1.7325 Y0.6393 
G01 X-1.7325 Y0.9193 
G01 X-1.7193 Y0.9325 
G01 X-1.7025 Y0.9493 
G00 Z0.1000 
G00 X-2.0875 Y0.3172 
G01 Z-0.0070 F10.00 
G01 X-2.0875 Y0.3007 F20.00 
G01 X-2.0875 Y0.2828 
G01 X-2.0875 Y0.2828 
G01 X-2.0875 Y0.3172 
G01 X-2.0875 Y0.3172 
G00 Z0.1000 
G00 X-2.0875 Y0.2172 
G01 Z-0.0070 F10.00 
G01 X-2.0875 Y0.2007 F20.00 
G01 X-2.0875 Y0.1828 
G01 X-2.0875 Y0.1828 
G01 X-2.0875 Y0.2172 
G01 X-2.0875 Y0.2172 
G00 Z0.1000 
G00 X-2.0932 Y0.1114 
G01 Z-0.0070 F10.00 
G01 X-2.1099 Y0.1045 F20.00 
G01 X-2.1901 Y0.1045 
G01 X-2.2068 Y0.1114 
G01 X-2.2196 Y0.1242 
G01 X-2.2265 Y0.1409 
G01 X-2.2265 Y0.1591 
G01 X-2.2196 Y0.1758 
G01 X-2.2068 Y0.1886 
G01 X-2.1901 Y0.1955 
G01 X-2.1325 Y0.1955 
G01 X-2.1325 Y0.2007 
G01 X-2.1363 Y0.2045 
G01 X-2.1901 Y0.2045 
G01 X-2.2068 Y0.2114 
G01 X-2.2196 Y0.2242 
G01 X-2.2265 Y0.2409 
G01 X-2.2265 Y0.2591 
G01 X-2.2196 Y0.2758 
G01 X-2.2068 Y0.2886 
G01 X-2.1901 Y0.2955 
G01 X-2.1325 Y0.2955 
G01 X-2.1325 Y0.3007 
G01 X-2.1363 Y0.3045 
G01 X-2.1901 Y0.3045 
G01 X-2.2068 Y0.3114 
G01 X-2.2196 Y0.3242 
G01 X-2.2209 Y0.3275 
G01 X-2.3075 Y0.3275 
G01 X-2.3075 Y0.1293 
G01 X-2.2207 Y0.0425 
G01 X-2.0693 Y0.0425 
G01 X-2.0743 Y0.0475 
G01 X-2.0743 Y0.0475 
G01 X-2.0875 Y0.0607 
G01 X-2.0875 Y0.1172 
G01 X-2.0932 Y0.1114 
G00 Z0.1000 
G00 X-2.0357 Y0.0725 
G01 Z-0.0070 F10.00 
G01 X-1.9343 Y0.0725 F20.00 
G01 X-2.0193 Y0.1575 
G01 X-2.0193 Y0.1575 
G01 X-2.0325 Y0.1707 
G01 X-2.0325 Y0.3857 
G01 X-2.0393 Y0.3925 
G01 X-2.0443 Y0.3925 
G01 X-2.0440 Y0.3909 
G01 X-2.0425 Y0.3893 
G01 X-2.0425 Y0.3819 
G01 X-2.0412 Y0.3746 
G01 X-2.0425 Y0.3729 
G01 X-2.0425 Y0.0793 
G01 X-2.0357 Y0.0725 
G00 Z0.1000 
G00 X-1.6993 Y0.5725 
G01 Z-0.0070 F10.00 
G01 X-1.6825 Y0.5893 F20.00 
G01 X-1.6825 Y0.7107 
G01 X-1.6825 Y0.7293 
G01 X-1.6675 Y0.7443 
G01 X-1.6543 Y0.7575 
G01 X-1.6430 Y0.7575 
G01 X-1.6396 Y0.7658 
G01 X-1.6378 Y0.7675 
G01 X-1.6393 Y0.7675 
G01 X-1.6593 Y0.7875 
G01 X-1.6725 Y0.8007 
G01 X-1.6725 Y0.8507 
G01 X-1.6725 Y0.8693 
G01 X-1.6425 Y0.8993 
G01 X-1.6336 Y0.9082 
G01 X-1.6396 Y0.9142 
G01 X-1.6409 Y0.9175 
G01 X-1.6707 Y0.9175 
G01 X-1.6875 Y0.9007 
G01 X-1.6875 Y0.6393 
G01 X-1.6875 Y0.6207 
G01 X-1.7275 Y0.5807 
G01 X-1.7357 Y0.5725 
G01 X-1.6993 Y0.5725 
G00 Z0.1000 
G00 X-1.3487 Y0.1869 
G01 Z-0.0070 F10.00 
G01 X-1.3512 Y0.1845 F20.00 
G01 X-1.3888 Y0.1845 
G01 X-1.4155 Y0.2112 
G01 X-1.4155 Y0.2488 
G01 X-1.3925 Y0.2718 
G01 X-1.3925 Y0.3057 
G01 X-1.4275 Y0.3407 
G01 X-1.4275 Y0.3593 
G01 X-1.4275 Y0.4993 
G01 X-1.4275 Y0.5257 
G01 X-1.4275 Y0.5307 
G01 X-1.4275 Y0.5925 
G01 X-1.4275 Y0.5925 
G01 X-1.4275 Y0.1793 
G01 X-1.4107 Y0.1625 
G01 X-1.3243 Y0.1625 
G01 X-1.3487 Y0.1869 
G00 Z0.1000 
G00 X-0.5554 Y0.2264 
G01 Z-0.0070 F10.00 
G01 X-0.5599 Y0.2245 F20.00 
G01 X-0.6401 Y0.2245 
G01 X-0.6568 Y0.2314 
G01 X-0.6628 Y0.2375 
G01 X-0.9407 Y0.2375 
G01 X-1.0075 Y0.1707 
G01 X-1.0157 Y0.1625 
G01 X-0.6193 Y0.1625 
G01 X-0.5554 Y0.2264 
G00 Z0.1000 
G00 X-0.1695 Y0.4495 
G01 Z-0.0070 F10.00 
G01 X-0.1625 Y0.4425 F20.00 
G01 X-0.1625 Y0.4575 
G01 X-0.1695 Y0.4505 
G01 X-0.2077 Y0.4505 
G01 X-0.2087 Y0.4495 
G01 X-0.1695 Y0.4495 
G00 Z0.1000 
G00 X-0.2395 Y0.5205 
G01 Z-0.0070 F10.00 
G01 X-0.2325 Y0.5275 F20.00 
G01 X-0.2475 Y0.5275 
G01 X-0.2405 Y0.5205 
G01 X-0.2405 Y0.4813 
G01 X-0.2395 Y0.4823 
G01 X-0.2395 Y0.5205 
G00 Z0.1000 
G00 X-0.2695 Y0.4505 
G01 Z-0.0070 F10.00 
G01 X-0.3077 Y0.4505 F20.00 
G01 X-0.3087 Y0.4495 
G01 X-0.2695 Y0.4495 
G01 X-0.2625 Y0.4425 
G01 X-0.2625 Y0.4575 
G01 X-0.2695 Y0.4505 
G00 Z0.1000 
G00 X-0.8817 Y0.8768 
G01 Z-0.0070 F10.00 
G01 X-0.8809 Y0.8749 F20.00 
G01 X-0.8801 Y0.8768 
G01 X-0.8794 Y0.8775 
G01 X-0.8823 Y0.8775 
G01 X-0.8817 Y0.8768 
G00 Z0.1000 
G00 X-0.8029 Y0.8768 
G01 Z-0.0070 F10.00 
G01 X-0.8021 Y0.8749 F20.00 
G01 X-0.8013 Y0.8768 
G01 X-0.8006 Y0.8775 
G01 X-0.8036 Y0.8775 
G01 X-0.8029 Y0.8768 
G00 Z0.1000 
G00 X-0.2395 Y0.9795 
G01 Z-0.0070 F10.00 
G01 X-0.2395 Y1.0205 F20.00 
G01 X-0.2384 Y1.0216 
G01 X-0.3543 Y1.1375 
G01 X-1.0864 Y1.1375 
G01 X-1.0917 Y1.1357 
G01 X-1.0926 Y1.1361 
G01 X-1.0962 Y1.1325 
G01 X-0.4907 Y1.1325 
G01 X-0.4775 Y1.1193 
G01 X-0.4037 Y1.0455 
G01 X-0.3912 Y1.0455 
G01 X-0.3645 Y1.0188 
G01 X-0.3645 Y1.0125 
G01 X-0.3395 Y1.0125 
G01 X-0.3395 Y1.0205 
G01 X-0.3105 Y1.0495 
G01 X-0.2695 Y1.0495 
G01 X-0.2405 Y1.0205 
G01 X-0.2405 Y0.9795 
G01 X-0.2475 Y0.9725 
G01 X-0.2325 Y0.9725 
G01 X-0.2395 Y0.9795 
G00 Z0.1000 
G00 X-2.1343 Y1.1675 
G01 Z-0.0070 F10.00 
G01 X-2.2907 Y1.1675 F20.00 
G01 X-2.3875 Y1.0707 
G01 X-2.3875 Y0.9993 
G01 X-2.3507 Y0.9625 
G01 X-2.1993 Y0.9625 
G01 X-2.1225 Y1.0393 
G01 X-2.1225 Y1.0693 
G01 X-2.1093 Y1.0825 
G01 X-2.0543 Y1.1375 
G01 X-2.1007 Y1.1375 
G01 X-2.1375 Y1.1007 
G01 X-2.1507 Y1.0875 
G01 X-2.1607 Y1.0875 
G01 X-2.2275 Y1.0207 
G01 X-2.2275 Y1.0207 
G01 X-2.2355 Y1.0127 
G01 X-2.2355 Y1.0033 
G01 X-2.2733 Y0.9655 
G01 X-2.3267 Y0.9655 
G01 X-2.3645 Y1.0033 
G01 X-2.3645 Y1.0567 
G01 X-2.3267 Y1.0945 
G01 X-2.2733 Y1.0945 
G01 X-2.2453 Y1.0665 
G01 X-2.1925 Y1.1193 
G01 X-2.1925 Y1.1193 
G01 X-2.1793 Y1.1325 
G01 X-2.1693 Y1.1325 
G01 X-2.1343 Y1.1675 
G00 Z0.1000 
G00 X-1.5355 Y1.1512 
G01 Z-0.0070 F10.00 
G01 X-1.5355 Y1.1775 F20.00 
G01 X-1.7064 Y1.1775 
G01 X-1.7117 Y1.1757 
G01 X-1.7126 Y1.1761 
G01 X-1.7174 Y1.1713 
G01 X-1.7192 Y1.1705 
G01 X-1.6925 Y1.1438 
G01 X-1.6925 Y1.0962 
G01 X-1.7262 Y1.0625 
G01 X-1.7738 Y1.0625 
G01 X-1.8075 Y1.0962 
G01 X-1.8075 Y1.1438 
G01 X-1.8066 Y1.1447 
G01 X-1.8293 Y1.1675 
G01 X-1.8957 Y1.1675 
G01 X-1.7707 Y1.0425 
G01 X-1.7293 Y1.0425 
G01 X-1.6493 Y1.1225 
G01 X-1.6307 Y1.1225 
G01 X-1.5125 Y1.1225 
G01 X-1.5125 Y1.1282 
G01 X-1.5355 Y1.1512 
G00 Z0.1000 
G00 X-1.3396 Y1.0142 
G01 Z-0.0070 F10.00 
G01 X-1.3465 Y1.0309 F20.00 
G01 X-1.3465 Y1.0491 
G01 X-1.3396 Y1.0658 
G01 X-1.3268 Y1.0786 
G01 X-1.3101 Y1.0855 
G01 X-1.2299 Y1.0855 
G01 X-1.2132 Y1.0786 
G01 X-1.2071 Y1.0725 
G01 X-0.4993 Y1.0725 
G01 X-0.4943 Y1.0725 
G01 X-0.5093 Y1.0875 
G01 X-1.1507 Y1.0875 
G01 X-1.1693 Y1.0875 
G01 X-1.2052 Y1.1234 
G01 X-1.2062 Y1.1225 
G01 X-1.2538 Y1.1225 
G01 X-1.2647 Y1.1334 
G01 X-1.2875 Y1.1107 
G01 X-1.2875 Y1.1107 
G01 X-1.3007 Y1.0975 
G01 X-1.4107 Y1.0975 
G01 X-1.4257 Y1.0975 
G01 X-1.3407 Y1.0125 
G01 X-1.3378 Y1.0125 
G01 X-1.3396 Y1.0142 
G00 Z0.1000 
G00 X-1.3525 Y0.7803 
G01 Z-0.0070 F10.00 
G01 X-1.3501 Y0.7783 F20.00 
G01 X-1.3525 Y0.7807 
G01 X-1.3525 Y0.7807 
G01 X-1.3525 Y0.7803 
G00 Z0.1000 
G00 X-0.9657 Y0.8601 
G01 Z-0.0070 F10.00 
G01 X-0.9588 Y0.8768 F20.00 
G01 X-0.9581 Y0.8775 
G01 X-1.1407 Y0.8775 
G01 X-1.1875 Y0.8307 
G01 X-1.1979 Y0.8202 
G01 X-1.1989 Y0.8179 
G01 X-1.1875 Y0.8293 
G01 X-1.1743 Y0.8425 
G01 X-0.9657 Y0.8425 
G01 X-0.9657 Y0.8601 
G00 Z0.1000 
G00 X-1.2004 Y0.7658 
G01 Z-0.0070 F10.00 
G01 X-1.1935 Y0.7491 F20.00 
G01 X-1.1935 Y0.7309 
G01 X-1.2004 Y0.7142 
G01 X-1.2022 Y0.7125 
G01 X-0.9593 Y0.7125 
G01 X-0.9375 Y0.7343 
G01 X-0.9283 Y0.7436 
G01 X-0.9293 Y0.7436 
G01 X-0.9460 Y0.7505 
G01 X-0.9588 Y0.7633 
G01 X-0.9657 Y0.7800 
G01 X-0.9657 Y0.7975 
G01 X-1.1557 Y0.7975 
G01 X-1.1857 Y0.7675 
G01 X-1.2022 Y0.7675 
G01 X-1.2004 Y0.7658 
G00 Z0.1000 
G00 X-1.4575 Y1.0657 
G01 Z-0.0070 F10.00 
G01 X-1.4575 Y1.0607 F20.00 
G01 X-1.4575 Y1.0490 
G01 X-1.3675 Y0.9547 
G01 X-1.3675 Y0.9757 
G01 X-1.4575 Y1.0657 
G00 Z0.1000 
G00 X-1.2299 Y0.8945 
G01 Z-0.0070 F10.00 
G01 X-1.3101 Y0.8945 F20.00 
G01 X-1.3225 Y0.8997 
G01 X-1.3225 Y0.8803 
G01 X-1.3101 Y0.8855 
G01 X-1.2299 Y0.8855 
G01 X-1.2132 Y0.8786 
G01 X-1.2082 Y0.8736 
G01 X-1.1643 Y0.9175 
G01 X-1.1991 Y0.9175 
G01 X-1.2004 Y0.9142 
G01 X-1.2132 Y0.9014 
G01 X-1.2299 Y0.8945 
G00 Z0.1000 
G00 X-1.2004 Y0.9658 
G01 Z-0.0070 F10.00 
G01 X-1.1991 Y0.9625 F20.00 
G01 X-0.5368 Y0.9625 
G01 X-0.5418 Y0.9675 
G01 X-1.2022 Y0.9675 
G01 X-1.2004 Y0.9658 
G00 Z0.1000 
G00 X-0.5555 Y1.0188 
G01 Z-0.0070 F10.00 
G01 X-0.5468 Y1.0275 F20.00 
G01 X-1.1949 Y1.0275 
G01 X-1.2004 Y1.0142 
G01 X-1.2022 Y1.0125 
G01 X-0.5555 Y1.0125 
G01 X-0.5555 Y1.0188 
G00 Z0.1000 
G00 X-1.4748 Y1.2155 
G01 Z-0.0070 F10.00 
G01 X-1.4855 Y1.2262 F20.00 
G01 X-1.4855 Y1.2587 
G01 X-1.4943 Y1.2675 
G01 X-1.7162 Y1.2675 
G01 X-1.7013 Y1.2526 
G01 X-1.6925 Y1.2314 
G01 X-1.6925 Y1.2225 
G01 X-1.5107 Y1.2225 
G01 X-1.5037 Y1.2155 
G01 X-1.4748 Y1.2155 
G00 Z0.1000 
G00 X-1.9557 Y1.1375 
G01 Z-0.0070 F10.00 
G01 X-1.9475 Y1.1293 F20.00 
G01 X-1.8975 Y1.0793 
G01 X-1.8975 Y1.0607 
G01 X-1.8975 Y0.9943 
G01 X-1.8807 Y0.9775 
G01 X-1.7907 Y0.9775 
G01 X-1.7393 Y0.9775 
G01 X-1.7193 Y0.9975 
G01 X-1.7707 Y0.9975 
G01 X-1.7893 Y0.9975 
G01 X-1.9293 Y1.1375 
G01 X-1.9557 Y1.1375 
G00 Z0.1000 
G00 X-1.6557 Y1.0425 
G01 Z-0.0070 F10.00 
G01 X-1.6465 Y1.0425 F20.00 
G01 X-1.6465 Y1.0491 
G01 X-1.6396 Y1.0658 
G01 X-1.6278 Y1.0775 
G01 X-1.6307 Y1.0775 
G01 X-1.6657 Y1.0425 
G01 X-1.6557 Y1.0425 
G00 Z0.1000 
G00 X-1.3825 Y0.5543 
G01 Z-0.0070 F10.00 
G01 X-1.3775 Y0.5493 F20.00 
G01 X-1.3775 Y0.5307 
G01 X-1.3825 Y0.5257 
G01 X-1.3825 Y0.5125 
G01 X-1.3378 Y0.5125 
G01 X-1.3396 Y0.5142 
G01 X-1.3465 Y0.5309 
G01 X-1.3465 Y0.5491 
G01 X-1.3419 Y0.5601 
G01 X-1.3825 Y0.6007 
G01 X-1.3825 Y0.6193 
G01 X-1.3825 Y0.6693 
G01 X-1.3693 Y0.6825 
G01 X-1.3393 Y0.7125 
G01 X-1.3378 Y0.7125 
G01 X-1.3396 Y0.7142 
G01 X-1.3409 Y0.7174 
G01 X-1.3476 Y0.7169 
G01 X-1.3483 Y0.7175 
G01 X-1.3493 Y0.7175 
G01 X-1.3553 Y0.7235 
G01 X-1.3825 Y0.7468 
G01 X-1.3825 Y0.5543 
G00 Z0.1000 
G00 X-0.4775 Y0.9093 
G01 Z-0.0070 F10.00 
G01 X-0.3407 Y0.7725 F20.00 
G01 X-0.3325 Y0.7725 
G01 X-0.3375 Y0.7775 
G01 X-0.3443 Y0.7775 
G01 X-0.3447 Y0.7778 
G01 X-0.3451 Y0.7779 
G01 X-0.3512 Y0.7844 
G01 X-0.3575 Y0.7907 
G01 X-0.3575 Y0.7912 
G01 X-0.4748 Y0.9175 
G01 X-0.4857 Y0.9175 
G01 X-0.4775 Y0.9093 
G00 Z0.1000 
G00 X-0.4787 Y0.9669 
G01 Z-0.0070 F10.00 
G01 X-0.4832 Y0.9625 F20.00 
G01 X-0.4743 Y0.9625 
G01 X-0.4787 Y0.9669 
G00 Z0.1000 
G00 X-0.1695 Y0.7505 
G01 Z-0.0070 F10.00 
G01 X-0.2077 Y0.7505 F20.00 
G01 X-0.2087 Y0.7495 
G01 X-0.1695 Y0.7495 
G01 X-0.1525 Y0.7325 
G01 X-0.1525 Y0.7675 
G01 X-0.1695 Y0.7505 
G00 Z0.1000 
G00 X-0.2395 Y0.9177 
G01 Z-0.0070 F10.00 
G01 X-0.2405 Y0.9187 F20.00 
G01 X-0.2405 Y0.8823 
G01 X-0.2395 Y0.8813 
G01 X-0.2395 Y0.9177 
G00 Z0.1000 
G00 X-0.2405 Y0.8205 
G01 Z-0.0070 F10.00 
G01 X-0.2405 Y0.7813 F20.00 
G01 X-0.2395 Y0.7823 
G01 X-0.2395 Y0.8205 
G01 X-0.2325 Y0.8275 
G01 X-0.2475 Y0.8275 
G01 X-0.2405 Y0.8205 
G00 Z0.1000 
G00 X-0.3105 Y0.8495 
G01 Z-0.0070 F10.00 
G01 X-0.2713 Y0.8495 F20.00 
G01 X-0.2723 Y0.8505 
G01 X-0.3105 Y0.8505 
G01 X-0.3395 Y0.8795 
G01 X-0.3395 Y0.9205 
G01 X-0.3325 Y0.9275 
G01 X-0.4227 Y0.9275 
G01 X-0.3311 Y0.8289 
G01 X-0.3105 Y0.8495 
G00 Z0.1000 
G00 X-0.1225 Y0.8425 
G01 Z-0.0070 F10.00 
G01 X-0.1225 Y0.9053 F20.00 
G01 X-0.1704 Y0.9505 
G01 X-0.2087 Y0.9505 
G01 X-0.2077 Y0.9495 
G01 X-0.1695 Y0.9495 
G01 X-0.1405 Y0.9205 
G01 X-0.1405 Y0.8795 
G01 X-0.1539 Y0.8661 
G01 X-0.1225 Y0.8425 
G01 X-0.1225 Y0.8425 
G00 Z0.1000 
G00 X-0.2395 Y0.6795 
G01 Z-0.0070 F10.00 
G01 X-0.2395 Y0.7205 F20.00 
G01 X-0.2325 Y0.7275 
G01 X-0.2475 Y0.7275 
G01 X-0.2405 Y0.7205 
G01 X-0.2405 Y0.6795 
G01 X-0.2475 Y0.6725 
G01 X-0.2325 Y0.6725 
G01 X-0.2395 Y0.6795 
G00 Z0.1000 
G00 X-0.3395 Y0.6795 
G01 Z-0.0070 F10.00 
G01 X-0.3395 Y0.7205 F20.00 
G01 X-0.3325 Y0.7275 
G01 X-0.3407 Y0.7275 
G01 X-0.3593 Y0.7275 
G01 X-0.5093 Y0.8775 
G01 X-0.7249 Y0.8775 
G01 X-0.7242 Y0.8768 
G01 X-0.7173 Y0.8601 
G01 X-0.7173 Y0.7800 
G01 X-0.7205 Y0.7723 
G01 X-0.6475 Y0.6993 
G01 X-0.6475 Y0.6807 
G01 X-0.6475 Y0.5743 
G01 X-0.6475 Y0.5557 
G01 X-0.7877 Y0.4155 
G01 X-0.7599 Y0.4155 
G01 X-0.7468 Y0.4100 
G01 X-0.7043 Y0.4525 
G01 X-0.6857 Y0.4525 
G01 X-0.5643 Y0.4525 
G01 X-0.5025 Y0.5143 
G01 X-0.5025 Y0.5193 
G01 X-0.4893 Y0.5325 
G01 X-0.3493 Y0.6725 
G01 X-0.3325 Y0.6725 
G01 X-0.3395 Y0.6795 
G00 Z0.1000 
G00 X-0.7235 Y0.3609 
G01 Z-0.0070 F10.00 
G01 X-0.7304 Y0.3442 F20.00 
G01 X-0.7422 Y0.3325 
G01 X-0.7143 Y0.3325 
G01 X-0.6643 Y0.3825 
G01 X-0.6457 Y0.3825 
G01 X-0.5343 Y0.3825 
G01 X-0.3443 Y0.5725 
G01 X-0.3325 Y0.5725 
G01 X-0.3395 Y0.5795 
G01 X-0.3395 Y0.6187 
G01 X-0.4575 Y0.5007 
G01 X-0.4575 Y0.4957 
G01 X-0.5325 Y0.4207 
G01 X-0.5457 Y0.4075 
G01 X-0.6857 Y0.4075 
G01 X-0.7235 Y0.3697 
G01 X-0.7235 Y0.3609 
G00 Z0.1000 
G00 X-0.2405 Y0.6205 
G01 Z-0.0070 F10.00 
G01 X-0.2405 Y0.5795 F20.00 
G01 X-0.2475 Y0.5725 
G01 X-0.2325 Y0.5725 
G01 X-0.2395 Y0.5795 
G01 X-0.2395 Y0.6205 
G01 X-0.2325 Y0.6275 
G01 X-0.2475 Y0.6275 
G01 X-0.2405 Y0.6205 
G00 Z0.1000 
G00 X-0.1405 Y0.6205 
G01 Z-0.0070 F10.00 
G01 X-0.1405 Y0.5963 F20.00 
G01 X-0.1225 Y0.6143 
G01 X-0.1225 Y0.6575 
G01 X-0.1225 Y0.6575 
G01 X-0.1539 Y0.6339 
G01 X-0.1405 Y0.6205 
G00 Z0.1000 
G00 X-1.3445 Y1.1512 
G01 Z-0.0070 F10.00 
G01 X-1.3532 Y1.1425 F20.00 
G01 X-1.3193 Y1.1425 
G01 X-1.2897 Y1.1722 
G01 X-1.2884 Y1.1760 
G01 X-1.2875 Y1.1764 
G01 X-1.2875 Y1.1807 
G01 X-1.3107 Y1.1575 
G01 X-1.3293 Y1.1575 
G01 X-1.3445 Y1.1575 
G01 X-1.3445 Y1.1512 
G00 Z0.1000 
G00 X-0.3395 Y0.5137 
G01 Z-0.0070 F10.00 
G01 X-0.5025 Y0.3507 F20.00 
G01 X-0.5157 Y0.3375 
G01 X-0.6457 Y0.3375 
G01 X-0.6825 Y0.3007 
G01 X-0.6957 Y0.2875 
G01 X-0.9207 Y0.2875 
G01 X-0.9393 Y0.2875 
G01 X-0.9707 Y0.2875 
G01 X-1.0007 Y0.2575 
G01 X-1.0193 Y0.2575 
G01 X-1.0249 Y0.2575 
G01 X-1.0304 Y0.2442 
G01 X-1.0432 Y0.2314 
G01 X-1.0599 Y0.2245 
G01 X-1.1401 Y0.2245 
G01 X-1.1568 Y0.2314 
G01 X-1.1696 Y0.2442 
G01 X-1.1765 Y0.2609 
G01 X-1.1765 Y0.2747 
G01 X-1.2082 Y0.3064 
G01 X-1.2132 Y0.3014 
G01 X-1.2299 Y0.2945 
G01 X-1.2375 Y0.2945 
G01 X-1.2375 Y0.2618 
G01 X-1.2245 Y0.2488 
G01 X-1.2245 Y0.2112 
G01 X-1.2332 Y0.2025 
G01 X-1.0393 Y0.2025 
G01 X-0.9593 Y0.2825 
G01 X-0.9407 Y0.2825 
G01 X-0.6751 Y0.2825 
G01 X-0.6696 Y0.2958 
G01 X-0.6568 Y0.3086 
G01 X-0.6401 Y0.3155 
G01 X-0.5599 Y0.3155 
G01 X-0.5432 Y0.3086 
G01 X-0.5304 Y0.2958 
G01 X-0.5235 Y0.2791 
G01 X-0.5235 Y0.2609 
G01 X-0.5254 Y0.2564 
G01 X-0.4025 Y0.3793 
G01 X-0.4025 Y0.4007 
G01 X-0.4025 Y0.4193 
G01 X-0.3395 Y0.4823 
G01 X-0.3395 Y0.5137 
G00 Z0.1000 
G00 X-1.2132 Y0.6014 
G01 Z-0.0070 F10.00 
G01 X-1.2299 Y0.5945 F20.00 
G01 X-1.3101 Y0.5945 
G01 X-1.3146 Y0.5964 
G01 X-1.3037 Y0.5855 
G01 X-1.2299 Y0.5855 
G01 X-1.2132 Y0.5786 
G01 X-1.2004 Y0.5658 
G01 X-1.1935 Y0.5491 
G01 X-1.1935 Y0.5309 
G01 X-1.2004 Y0.5142 
G01 X-1.2022 Y0.5125 
G01 X-0.8943 Y0.5125 
G01 X-0.8322 Y0.5746 
G01 X-0.8407 Y0.5832 
G01 X-0.8415 Y0.5851 
G01 X-0.8423 Y0.5832 
G01 X-0.8551 Y0.5704 
G01 X-0.8718 Y0.5634 
G01 X-0.8899 Y0.5634 
G01 X-0.9066 Y0.5704 
G01 X-0.9194 Y0.5832 
G01 X-0.9264 Y0.5999 
G01 X-0.9264 Y0.6075 
G01 X-1.2071 Y0.6075 
G01 X-1.2132 Y0.6014 
G00 Z0.1000 
G00 X-1.2022 Y0.6675 
G01 Z-0.0070 F10.00 
G01 X-1.2004 Y0.6658 F20.00 
G01 X-1.1949 Y0.6525 
G01 X-0.9264 Y0.6525 
G01 X-0.9264 Y0.6800 
G01 X-0.9251 Y0.6831 
G01 X-0.9407 Y0.6675 
G01 X-0.9593 Y0.6675 
G01 X-1.2022 Y0.6675 
G00 Z0.1000 
G00 X-0.8551 Y0.7095 
G01 Z-0.0070 F10.00 
G01 X-0.8423 Y0.6967 F20.00 
G01 X-0.8415 Y0.6948 
G01 X-0.8407 Y0.6967 
G01 X-0.8279 Y0.7095 
G01 X-0.8112 Y0.7164 
G01 X-0.7931 Y0.7164 
G01 X-0.7764 Y0.7095 
G01 X-0.7636 Y0.6967 
G01 X-0.7628 Y0.6948 
G01 X-0.7620 Y0.6967 
G01 X-0.7492 Y0.7095 
G01 X-0.7324 Y0.7164 
G01 X-0.7283 Y0.7164 
G01 X-0.7554 Y0.7436 
G01 X-0.7718 Y0.7436 
G01 X-0.7885 Y0.7505 
G01 X-0.8013 Y0.7633 
G01 X-0.8021 Y0.7652 
G01 X-0.8029 Y0.7633 
G01 X-0.8157 Y0.7505 
G01 X-0.8225 Y0.7477 
G01 X-0.8225 Y0.7457 
G01 X-0.8357 Y0.7325 
G01 X-0.8576 Y0.7106 
G01 X-0.8551 Y0.7095 
G00 Z0.1000 
G00 X-0.8801 Y0.7633 
G01 Z-0.0070 F10.00 
G01 X-0.8809 Y0.7652 F20.00 
G01 X-0.8817 Y0.7633 
G01 X-0.8945 Y0.7505 
G01 X-0.9017 Y0.7475 
G01 X-0.8843 Y0.7475 
G01 X-0.8743 Y0.7575 
G01 X-0.8801 Y0.7633 
G00 Z0.1000 
G00 X-0.8578 Y0.3325 
G01 Z-0.0070 F10.00 
G01 X-0.8696 Y0.3442 F20.00 
G01 X-0.8765 Y0.3609 
G01 X-0.8765 Y0.3791 
G01 X-0.8696 Y0.3958 
G01 X-0.8678 Y0.3975 
G01 X-0.9025 Y0.3975 
G01 X-0.9025 Y0.3325 
G01 X-0.8578 Y0.3325 
G00 Z0.1000 
G00 X-1.2004 Y0.4142 
G01 Z-0.0070 F10.00 
G01 X-1.2132 Y0.4014 F20.00 
G01 X-1.2299 Y0.3945 
G01 X-1.3101 Y0.3945 
G01 X-1.3268 Y0.4014 
G01 X-1.3396 Y0.4142 
G01 X-1.3465 Y0.4309 
G01 X-1.3465 Y0.4491 
G01 X-1.3396 Y0.4658 
G01 X-1.3378 Y0.4675 
G01 X-1.3825 Y0.4675 
G01 X-1.3825 Y0.3593 
G01 X-1.3607 Y0.3375 
G01 X-1.3475 Y0.3243 
G01 X-1.3475 Y0.2718 
G01 X-1.3245 Y0.2488 
G01 X-1.3245 Y0.2263 
G01 X-1.3155 Y0.2173 
G01 X-1.3155 Y0.2488 
G01 X-1.2888 Y0.2755 
G01 X-1.2825 Y0.2755 
G01 X-1.2825 Y0.2945 
G01 X-1.3101 Y0.2945 
G01 X-1.3268 Y0.3014 
G01 X-1.3396 Y0.3142 
G01 X-1.3465 Y0.3309 
G01 X-1.3465 Y0.3491 
G01 X-1.3396 Y0.3658 
G01 X-1.3268 Y0.3786 
G01 X-1.3101 Y0.3855 
G01 X-1.2299 Y0.3855 
G01 X-1.2132 Y0.3786 
G01 X-1.2004 Y0.3658 
G01 X-1.1979 Y0.3597 
G01 X-1.1497 Y0.3115 
G01 X-1.1401 Y0.3155 
G01 X-1.0599 Y0.3155 
G01 X-1.0432 Y0.3086 
G01 X-1.0372 Y0.3025 
G01 X-1.0193 Y0.3025 
G01 X-0.9893 Y0.3325 
G01 X-0.9707 Y0.3325 
G01 X-0.9475 Y0.3325 
G01 X-0.9475 Y0.4275 
G01 X-1.1949 Y0.4275 
G01 X-1.2004 Y0.4142 
G00 Z0.1000 
G00 X-0.6925 Y0.5743 
G01 Z-0.0070 F10.00 
G01 X-0.6925 Y0.5755 F20.00 
G01 X-0.6975 Y0.5705 
G01 X-0.6975 Y0.5693 
G01 X-0.6925 Y0.5743 
G00 Z0.1000 
G00 X-0.7620 Y0.5832 
G01 Z-0.0070 F10.00 
G01 X-0.7628 Y0.5851 F20.00 
G01 X-0.7636 Y0.5832 
G01 X-0.7764 Y0.5704 
G01 X-0.7775 Y0.5699 
G01 X-0.7775 Y0.5657 
G01 X-0.8707 Y0.4725 
G01 X-0.8543 Y0.4725 
G01 X-0.7528 Y0.5740 
G01 X-0.7620 Y0.5832 
G00 Z0.1000 
G00 X-1.8099 Y0.1045 
G01 Z-0.0070 F10.00 
G01 X-1.8901 Y0.1045 F20.00 
G01 X-1.9068 Y0.1114 
G01 X-1.9196 Y0.1242 
G01 X-1.9265 Y0.1409 
G01 X-1.9265 Y0.1531 
G01 X-1.9783 Y0.1975 
G01 X-1.9793 Y0.1975 
G01 X-1.9853 Y0.2035 
G01 X-1.9875 Y0.2054 
G01 X-1.9875 Y0.1893 
G01 X-1.9007 Y0.1025 
G01 X-1.4843 Y0.1025 
G01 X-1.5125 Y0.1307 
G01 X-1.5125 Y0.1493 
G01 X-1.5125 Y0.3022 
G01 X-1.5132 Y0.3014 
G01 X-1.5299 Y0.2945 
G01 X-1.5837 Y0.2945 
G01 X-1.7333 Y0.1449 
G01 X-1.7385 Y0.1385 
G01 X-1.7398 Y0.1384 
G01 X-1.7407 Y0.1375 
G01 X-1.7489 Y0.1375 
G01 X-1.7761 Y0.1348 
G01 X-1.7804 Y0.1242 
G01 X-1.7932 Y0.1114 
G01 X-1.8099 Y0.1045 
G00 Z0.1000 
G00 X-1.9525 Y0.4482 
G01 Z-0.0070 F10.00 
G01 X-1.9655 Y0.4612 F20.00 
G01 X-1.9655 Y0.4988 
G01 X-1.9388 Y0.5255 
G01 X-1.9012 Y0.5255 
G01 X-1.8745 Y0.4988 
G01 X-1.8745 Y0.4612 
G01 X-1.9012 Y0.4345 
G01 X-1.9075 Y0.4345 
G01 X-1.9075 Y0.3878 
G01 X-1.9068 Y0.3886 
G01 X-1.8901 Y0.3955 
G01 X-1.8725 Y0.3955 
G01 X-1.8725 Y0.4293 
G01 X-1.8593 Y0.4425 
G01 X-1.8431 Y0.4587 
G01 X-1.8455 Y0.4612 
G01 X-1.8455 Y0.4988 
G01 X-1.8188 Y0.5255 
G01 X-1.7812 Y0.5255 
G01 X-1.7582 Y0.5025 
G01 X-1.6893 Y0.5025 
G01 X-1.6465 Y0.5453 
G01 X-1.6465 Y0.5491 
G01 X-1.6396 Y0.5658 
G01 X-1.6268 Y0.5786 
G01 X-1.6101 Y0.5855 
G01 X-1.5299 Y0.5855 
G01 X-1.5132 Y0.5786 
G01 X-1.5125 Y0.5778 
G01 X-1.5125 Y0.6022 
G01 X-1.5132 Y0.6014 
G01 X-1.5299 Y0.5945 
G01 X-1.6101 Y0.5945 
G01 X-1.6268 Y0.6014 
G01 X-1.6375 Y0.6122 
G01 X-1.6375 Y0.5707 
G01 X-1.6507 Y0.5575 
G01 X-1.6507 Y0.5575 
G01 X-1.6807 Y0.5275 
G01 X-1.6993 Y0.5275 
G01 X-2.0607 Y0.5275 
G01 X-2.0875 Y0.5007 
G01 X-2.0875 Y0.4743 
G01 X-2.0855 Y0.4723 
G01 X-2.0855 Y0.4988 
G01 X-2.0588 Y0.5255 
G01 X-2.0212 Y0.5255 
G01 X-1.9945 Y0.4988 
G01 X-1.9945 Y0.4622 
G01 X-1.9536 Y0.4154 
G01 X-1.9525 Y0.4143 
G01 X-1.9525 Y0.4482 
G00 Z0.1000 
G00 X-1.8901 Y0.1955 
G01 Z-0.0070 F10.00 
G01 X-1.8099 Y0.1955 F20.00 
G01 X-1.7932 Y0.1886 
G01 X-1.7839 Y0.1792 
G01 X-1.7602 Y0.1816 
G01 X-1.6336 Y0.3082 
G01 X-1.6396 Y0.3142 
G01 X-1.6465 Y0.3309 
G01 X-1.6465 Y0.3491 
G01 X-1.6396 Y0.3658 
G01 X-1.6268 Y0.3786 
G01 X-1.6101 Y0.3855 
G01 X-1.5299 Y0.3855 
G01 X-1.5132 Y0.3786 
G01 X-1.5125 Y0.3778 
G01 X-1.5125 Y0.4022 
G01 X-1.5132 Y0.4014 
G01 X-1.5299 Y0.3945 
G01 X-1.6101 Y0.3945 
G01 X-1.6268 Y0.4014 
G01 X-1.6368 Y0.4114 
G01 X-1.7781 Y0.2701 
G01 X-1.7735 Y0.2591 
G01 X-1.7735 Y0.2409 
G01 X-1.7804 Y0.2242 
G01 X-1.7932 Y0.2114 
G01 X-1.8099 Y0.2045 
G01 X-1.8901 Y0.2045 
G01 X-1.9068 Y0.2114 
G01 X-1.9196 Y0.2242 
G01 X-1.9265 Y0.2409 
G01 X-1.9265 Y0.2520 
G01 X-1.9385 Y0.2625 
G01 X-1.9393 Y0.2625 
G01 X-1.9454 Y0.2686 
G01 X-1.9475 Y0.2704 
G01 X-1.9475 Y0.2303 
G01 X-1.9014 Y0.1908 
G01 X-1.8901 Y0.1955 
G00 Z0.1000 
G00 X-1.9021 Y0.2905 
G01 Z-0.0070 F10.00 
G01 X-1.8901 Y0.2955 F20.00 
G01 X-1.8163 Y0.2955 
G01 X-1.8054 Y0.3064 
G01 X-1.8099 Y0.3045 
G01 X-1.8901 Y0.3045 
G01 X-1.9068 Y0.3114 
G01 X-1.9075 Y0.3122 
G01 X-1.9075 Y0.2952 
G01 X-1.9021 Y0.2905 
G00 Z0.1000 
G00 X-1.6268 Y0.6786 
G01 Z-0.0070 F10.00 
G01 X-1.6101 Y0.6855 F20.00 
G01 X-1.5299 Y0.6855 
G01 X-1.5175 Y0.6803 
G01 X-1.5175 Y0.6997 
G01 X-1.5299 Y0.6945 
G01 X-1.6101 Y0.6945 
G01 X-1.6268 Y0.7014 
G01 X-1.6368 Y0.7114 
G01 X-1.6375 Y0.7107 
G01 X-1.6375 Y0.6678 
G01 X-1.6268 Y0.6786 
G00 Z0.1000 
G00 X-0.3395 Y0.4187 
G01 Z-0.0070 F10.00 
G01 X-0.3575 Y0.4007 F20.00 
G01 X-0.3575 Y0.3643 
G01 X-0.3395 Y0.3823 
G01 X-0.3395 Y0.4187 
G00 Z0.1000 
G00 X-0.5443 Y0.1025 
G01 Z-0.0070 F10.00 
G01 X-0.2963 Y0.3505 F20.00 
G01 X-0.3077 Y0.3505 
G01 X-0.5557 Y0.1025 
G01 X-0.5443 Y0.1025 
G00 Z0.1000 
G00 X-1.4999 Y0.8675 
G01 Z-0.0070 F10.00 
G01 X-1.5022 Y0.8675 F20.00 
G01 X-1.5004 Y0.8658 
G01 X-1.4991 Y0.8625 
G01 X-1.4953 Y0.8625 
G01 X-1.4999 Y0.8675 
G00 Z0.1000 
G00 X-1.4443 Y0.1325 
G01 Z-0.0070 F10.00 
G01 X-1.4675 Y0.1557 F20.00 
G01 X-1.4675 Y0.1493 
G01 X-1.4507 Y0.1325 
G01 X-1.4443 Y0.1325 
G00 Z0.1000 
G00 X-1.6396 Y0.4658 
G01 Z-0.0070 F10.00 
G01 X-1.6268 Y0.4786 F20.00 
G01 X-1.6101 Y0.4855 
G01 X-1.5299 Y0.4855 
G01 X-1.5132 Y0.4786 
G01 X-1.5125 Y0.4778 
G01 X-1.5125 Y0.5022 
G01 X-1.5132 Y0.5014 
G01 X-1.5299 Y0.4945 
G01 X-1.6101 Y0.4945 
G01 X-1.6268 Y0.5014 
G01 X-1.6575 Y0.4707 
G01 X-1.6575 Y0.4707 
G01 X-1.6707 Y0.4575 
G01 X-1.7582 Y0.4575 
G01 X-1.7812 Y0.4345 
G01 X-1.8037 Y0.4345 
G01 X-1.8275 Y0.4107 
G01 X-1.8275 Y0.3955 
G01 X-1.8099 Y0.3955 
G01 X-1.7932 Y0.3886 
G01 X-1.7804 Y0.3758 
G01 X-1.7735 Y0.3591 
G01 X-1.7735 Y0.3409 
G01 X-1.7754 Y0.3364 
G01 X-1.6493 Y0.4625 
G01 X-1.6409 Y0.4625 
G01 X-1.6396 Y0.4658 
G00 Z0.1000 
G00 X-2.1943 Y0.8575 
G01 Z-0.0070 F10.00 
G01 X-2.0565 Y0.9953 F20.00 
G01 X-2.0645 Y1.0033 
G01 X-2.0645 Y1.0567 
G01 X-2.0267 Y1.0945 
G01 X-1.9763 Y1.0945 
G01 X-1.9793 Y1.0975 
G01 X-2.0307 Y1.0975 
G01 X-2.0775 Y1.0507 
G01 X-2.0775 Y1.0393 
G01 X-2.0775 Y1.0207 
G01 X-2.1675 Y0.9307 
G01 X-2.1807 Y0.9175 
G01 X-2.3507 Y0.9175 
G01 X-2.3693 Y0.9175 
G01 X-2.4193 Y0.9675 
G01 X-2.4325 Y0.9807 
G01 X-2.4325 Y1.0707 
G01 X-2.4325 Y1.0893 
G01 X-2.3225 Y1.1993 
G01 X-2.3093 Y1.2125 
G01 X-1.8425 Y1.2125 
G01 X-1.8425 Y1.2307 
G01 X-1.8425 Y1.2493 
G01 X-1.7925 Y1.2993 
G01 X-1.7793 Y1.3125 
G01 X-1.4757 Y1.3125 
G01 X-1.4625 Y1.2993 
G01 X-1.4537 Y1.2905 
G01 X-1.4212 Y1.2905 
G01 X-1.3945 Y1.2638 
G01 X-1.3945 Y1.2262 
G01 X-1.4052 Y1.2155 
G01 X-1.3712 Y1.2155 
G01 X-1.3582 Y1.2025 
G01 X-1.3293 Y1.2025 
G01 X-1.2725 Y1.2593 
G01 X-1.2593 Y1.2725 
G01 X-1.2093 Y1.2725 
G01 X-1.1907 Y1.2725 
G01 X-1.1515 Y1.2333 
G01 X-1.1414 Y1.2375 
G01 X-1.1186 Y1.2375 
G01 X-1.0974 Y1.2287 
G01 X-1.0813 Y1.2126 
G01 X-1.0725 Y1.1914 
G01 X-1.0725 Y1.1825 
G01 X-0.3543 Y1.1825 
G01 X-0.3357 Y1.1825 
G01 X-0.2027 Y1.0495 
G01 X-0.1695 Y1.0495 
G01 X-0.1405 Y1.0205 
G01 X-0.1405 Y0.9842 
G01 X-0.0911 Y0.9375 
G01 X-0.0907 Y0.9375 
G01 X-0.0843 Y0.9311 
G01 X-0.0778 Y0.9250 
G01 X-0.0778 Y0.9246 
G01 X-0.0775 Y0.9243 
G01 X-0.0775 Y0.9153 
G01 X-0.0772 Y0.9063 
G01 X-0.0775 Y0.9061 
G01 X-0.0775 Y0.5957 
G01 X-0.0907 Y0.5825 
G01 X-0.0907 Y0.5825 
G01 X-0.1175 Y0.5557 
G01 X-0.1175 Y0.3693 
G01 X-0.1175 Y0.3507 
G01 X-0.4707 Y-0.0025 
G01 X-0.4893 Y-0.0025 
G01 X-2.2393 Y-0.0025 
G01 X-2.2525 Y0.0107 
G01 X-2.2525 Y0.0107 
G01 X-2.3393 Y0.0975 
G01 X-2.3525 Y0.1107 
G01 X-2.3525 Y0.3407 
G01 X-2.3525 Y0.3593 
G01 X-2.3525 Y0.7707 
G01 X-2.3525 Y0.7893 
G01 X-2.2843 Y0.8575 
G01 X-2.2657 Y0.8575 
G01 X-2.1943 Y0.8575 
G00 Z0.1000 
G00 X-1.3515 Y0.3500 
G01 Z-0.0070 F10.00 
G01 X-1.3438 Y0.3686 F20.00 
G01 X-1.3296 Y0.3828 
G01 X-1.3122 Y0.3900 
G01 X-1.3296 Y0.3972 
G01 X-1.3438 Y0.4114 
G01 X-1.3515 Y0.4300 
G01 X-1.3515 Y0.4500 
G01 X-1.3463 Y0.4625 
G01 X-1.3775 Y0.4625 
G01 X-1.3775 Y0.3614 
G01 X-1.3544 Y0.3383 
G01 X-1.3515 Y0.3354 
G01 X-1.3515 Y0.3500 
G00 Z0.1000 
G00 X-1.5278 Y0.9900 
G01 Z-0.0070 F10.00 
G01 X-1.5139 Y0.9843 F20.00 
G01 X-1.5217 Y0.9925 
G01 X-1.5278 Y0.9900 
G00 Z0.1000 
G00 X-1.3110 Y0.2895 
G01 Z-0.0070 F10.00 
G01 X-1.3296 Y0.2972 F20.00 
G01 X-1.3425 Y0.3101 
G01 X-1.3425 Y0.2739 
G01 X-1.3200 Y0.2514 
G01 X-1.2909 Y0.2805 
G01 X-1.2875 Y0.2805 
G01 X-1.2875 Y0.2895 
G01 X-1.3110 Y0.2895 
G00 Z0.1000 
G00 X-1.3395 Y1.1491 
G01 Z-0.0070 F10.00 
G01 X-1.3411 Y1.1475 F20.00 
G01 X-1.3214 Y1.1475 
G01 X-1.3164 Y1.1525 
G01 X-1.3255 Y1.1525 
G01 X-1.3395 Y1.1525 
G01 X-1.3395 Y1.1491 
G00 Z0.1000 
G00 X-0.1629 Y0.7500 
G01 Z-0.0070 F10.00 
G01 X-0.1575 Y0.7446 F20.00 
G01 X-0.1575 Y0.7554 
G01 X-0.1629 Y0.7500 
G00 Z0.1000 
G00 X-0.1355 Y0.8774 
G01 Z-0.0070 F10.00 
G01 X-0.1463 Y0.8666 F20.00 
G01 X-0.1275 Y0.8525 
G01 X-0.1275 Y0.9031 
G01 X-0.1355 Y0.9107 
G01 X-0.1355 Y0.8774 
G00 Z0.1000 
G00 X-0.1355 Y0.6226 
G01 Z-0.0070 F10.00 
G01 X-0.1355 Y0.6084 F20.00 
G01 X-0.1275 Y0.6164 
G01 X-0.1275 Y0.6475 
G01 X-0.1463 Y0.6334 
G01 X-0.1355 Y0.6226 
G00 Z0.1000 
G00 X-0.9314 Y0.6697 
G01 Z-0.0070 F10.00 
G01 X-0.9344 Y0.6667 F20.00 
G01 X-0.9445 Y0.6625 
G01 X-0.9555 Y0.6625 
G01 X-1.1937 Y0.6625 
G01 X-1.1916 Y0.6575 
G01 X-0.9314 Y0.6575 
G01 X-0.9314 Y0.6697 
G00 Z0.1000 
G00 X-1.2104 Y0.5972 
G01 Z-0.0070 F10.00 
G01 X-1.2278 Y0.5900 F20.00 
G01 X-1.2104 Y0.5828 
G01 X-1.1962 Y0.5686 
G01 X-1.1885 Y0.5500 
G01 X-1.1885 Y0.5300 
G01 X-1.1937 Y0.5175 
G01 X-0.8964 Y0.5175 
G01 X-0.8392 Y0.5746 
G01 X-0.8415 Y0.5769 
G01 X-0.8523 Y0.5661 
G01 X-0.8708 Y0.5584 
G01 X-0.8909 Y0.5584 
G01 X-0.9095 Y0.5661 
G01 X-0.9237 Y0.5803 
G01 X-0.9314 Y0.5989 
G01 X-0.9314 Y0.6025 
G01 X-1.2051 Y0.6025 
G01 X-1.2104 Y0.5972 
G00 Z0.1000 
G00 X-0.3171 Y0.8500 
G01 Z-0.0070 F10.00 
G01 X-0.3445 Y0.8774 F20.00 
G01 X-0.3445 Y0.9225 
G01 X-0.4112 Y0.9225 
G01 X-0.3310 Y0.8361 
G01 X-0.3171 Y0.8500 
G00 Z0.1000 
G00 X-0.5605 Y1.0209 
G01 Z-0.0070 F10.00 
G01 X-0.5589 Y1.0225 F20.00 
G01 X-1.1916 Y1.0225 
G01 X-1.1937 Y1.0175 
G01 X-0.5605 Y1.0175 
G01 X-0.5605 Y1.0209 
G00 Z0.1000 
G00 X-1.1962 Y0.9114 
G01 Z-0.0070 F10.00 
G01 X-1.2104 Y0.8972 F20.00 
G01 X-1.2278 Y0.8900 
G01 X-1.2104 Y0.8828 
G01 X-1.2082 Y0.8806 
G01 X-1.1764 Y0.9125 
G01 X-1.1957 Y0.9125 
G01 X-1.1962 Y0.9114 
G00 Z0.1000 
G00 X-0.9707 Y0.8611 
G01 Z-0.0070 F10.00 
G01 X-0.9660 Y0.8725 F20.00 
G01 X-1.1386 Y0.8725 
G01 X-1.1636 Y0.8475 
G01 X-0.9707 Y0.8475 
G01 X-0.9707 Y0.8611 
G00 Z0.1000 
G00 X-0.9488 Y0.7462 
G01 Z-0.0070 F10.00 
G01 X-0.9630 Y0.7604 F20.00 
G01 X-0.9707 Y0.7790 
G01 X-0.9707 Y0.7925 
G01 X-1.1536 Y0.7925 
G01 X-1.1794 Y0.7667 
G01 X-1.1895 Y0.7625 
G01 X-1.1937 Y0.7625 
G01 X-1.1885 Y0.7500 
G01 X-1.1885 Y0.7300 
G01 X-1.1937 Y0.7175 
G01 X-0.9614 Y0.7175 
G01 X-0.9383 Y0.7406 
G01 X-0.9374 Y0.7415 
G01 X-0.9488 Y0.7462 
G00 Z0.1000 
G00 X-0.7123 Y0.8611 
G01 Z-0.0070 F10.00 
G01 X-0.7123 Y0.7790 F20.00 
G01 X-0.7146 Y0.7734 
G01 X-0.6467 Y0.7056 
G01 X-0.6425 Y0.6955 
G01 X-0.6425 Y0.6845 
G01 X-0.6425 Y0.5705 
G01 X-0.6425 Y0.5595 
G01 X-0.6467 Y0.5494 
G01 X-0.7756 Y0.4205 
G01 X-0.7590 Y0.4205 
G01 X-0.7479 Y0.4159 
G01 X-0.7106 Y0.4533 
G01 X-0.7005 Y0.4575 
G01 X-0.6895 Y0.4575 
G01 X-0.5664 Y0.4575 
G01 X-0.5068 Y0.5170 
G01 X-0.5033 Y0.5256 
G01 X-0.4956 Y0.5333 
G01 X-0.3556 Y0.6733 
G01 X-0.3455 Y0.6775 
G01 X-0.3445 Y0.6775 
G01 X-0.3445 Y0.7225 
G01 X-0.3445 Y0.7225 
G01 X-0.3555 Y0.7225 
G01 X-0.3656 Y0.7267 
G01 X-0.5114 Y0.8725 
G01 X-0.7170 Y0.8725 
G01 X-0.7123 Y0.8611 
G00 Z0.1000 
G00 X-0.7185 Y0.3600 
G01 Z-0.0070 F10.00 
G01 X-0.7262 Y0.3414 F20.00 
G01 X-0.7301 Y0.3375 
G01 X-0.7164 Y0.3375 
G01 X-0.6706 Y0.3833 
G01 X-0.6605 Y0.3875 
G01 X-0.6495 Y0.3875 
G01 X-0.5364 Y0.3875 
G01 X-0.3506 Y0.5733 
G01 X-0.3434 Y0.5763 
G01 X-0.3445 Y0.5774 
G01 X-0.3445 Y0.6066 
G01 X-0.4532 Y0.4980 
G01 X-0.4567 Y0.4894 
G01 X-0.5317 Y0.4144 
G01 X-0.5394 Y0.4067 
G01 X-0.5495 Y0.4025 
G01 X-0.6836 Y0.4025 
G01 X-0.7185 Y0.3676 
G01 X-0.7185 Y0.3600 
G00 Z0.1000 
G00 X-1.3122 Y0.8900 
G01 Z-0.0070 F10.00 
G01 X-1.3175 Y0.8922 F20.00 
G01 X-1.3175 Y0.8878 
G01 X-1.3122 Y0.8900 
G00 Z0.1000 
G00 X-1.4525 Y1.0510 
G01 Z-0.0070 F10.00 
G01 X-1.3725 Y0.9672 F20.00 
G01 X-1.3725 Y0.9736 
G01 X-1.4525 Y1.0536 
G01 X-1.4525 Y1.0510 
G00 Z0.1000 
G00 X-0.5114 Y1.0825 
G01 Z-0.0070 F10.00 
G01 X-1.1545 Y1.0825 F20.00 
G01 X-1.1655 Y1.0825 
G01 X-1.1756 Y1.0867 
G01 X-1.2064 Y1.1175 
G01 X-1.2559 Y1.1175 
G01 X-1.2647 Y1.1264 
G01 X-1.2867 Y1.1044 
G01 X-1.2867 Y1.1044 
G01 X-1.2944 Y1.0967 
G01 X-1.3045 Y1.0925 
G01 X-1.4136 Y1.0925 
G01 X-1.3515 Y1.0304 
G01 X-1.3515 Y1.0500 
G01 X-1.3438 Y1.0686 
G01 X-1.3296 Y1.0828 
G01 X-1.3110 Y1.0905 
G01 X-1.2290 Y1.0905 
G01 X-1.2104 Y1.0828 
G01 X-1.2051 Y1.0775 
G01 X-0.5064 Y1.0775 
G01 X-0.5114 Y1.0825 
G00 Z0.1000 
G00 X-2.1464 Y1.1625 
G01 Z-0.0070 F10.00 
G01 X-2.2886 Y1.1625 F20.00 
G01 X-2.3825 Y1.0686 
G01 X-2.3825 Y1.0014 
G01 X-2.3486 Y0.9675 
G01 X-2.3358 Y0.9675 
G01 X-2.3695 Y1.0012 
G01 X-2.3695 Y1.0588 
G01 X-2.3288 Y1.0995 
G01 X-2.2712 Y1.0995 
G01 X-2.2453 Y1.0736 
G01 X-2.1933 Y1.1256 
G01 X-2.1933 Y1.1256 
G01 X-2.1856 Y1.1333 
G01 X-2.1755 Y1.1375 
G01 X-2.1714 Y1.1375 
G01 X-2.1464 Y1.1625 
G00 Z0.1000 
G00 X-2.2305 Y1.0012 
G01 Z-0.0070 F10.00 
G01 X-2.2642 Y0.9675 F20.00 
G01 X-2.2014 Y0.9675 
G01 X-2.1275 Y1.0414 
G01 X-2.1275 Y1.0655 
G01 X-2.1233 Y1.0756 
G01 X-2.1156 Y1.0833 
G01 X-2.0664 Y1.1325 
G01 X-2.0986 Y1.1325 
G01 X-2.1367 Y1.0944 
G01 X-2.1444 Y1.0867 
G01 X-2.1545 Y1.0825 
G01 X-2.1586 Y1.0825 
G01 X-2.2267 Y1.0144 
G01 X-2.2267 Y1.0144 
G01 X-2.2305 Y1.0106 
G01 X-2.2305 Y1.0012 
G00 Z0.1000 
G00 X-1.5405 Y1.1491 
G01 Z-0.0070 F10.00 
G01 X-1.5405 Y1.1725 F20.00 
G01 X-1.7055 Y1.1725 
G01 X-1.7065 Y1.1722 
G01 X-1.7092 Y1.1724 
G01 X-1.7116 Y1.1700 
G01 X-1.6875 Y1.1459 
G01 X-1.6875 Y1.0941 
G01 X-1.7241 Y1.0575 
G01 X-1.7759 Y1.0575 
G01 X-1.8125 Y1.0941 
G01 X-1.8125 Y1.1436 
G01 X-1.8314 Y1.1625 
G01 X-1.8836 Y1.1625 
G01 X-1.7686 Y1.0475 
G01 X-1.7314 Y1.0475 
G01 X-1.6556 Y1.1233 
G01 X-1.6455 Y1.1275 
G01 X-1.6345 Y1.1275 
G01 X-1.5189 Y1.1275 
G01 X-1.5405 Y1.1491 
G00 Z0.1000 
G00 X-1.4869 Y1.2205 
G01 Z-0.0070 F10.00 
G01 X-1.4905 Y1.2241 F20.00 
G01 X-1.4905 Y1.2566 
G01 X-1.4964 Y1.2625 
G01 X-1.7041 Y1.2625 
G01 X-1.6970 Y1.2554 
G01 X-1.6875 Y1.2324 
G01 X-1.6875 Y1.2275 
G01 X-1.5145 Y1.2275 
G01 X-1.5044 Y1.2233 
G01 X-1.5016 Y1.2205 
G01 X-1.4869 Y1.2205 
G00 Z0.1000 
G00 X-1.9436 Y1.1325 
G01 Z-0.0070 F10.00 
G01 X-1.8967 Y1.0856 F20.00 
G01 X-1.8925 Y1.0755 
G01 X-1.8925 Y1.0645 
G01 X-1.8925 Y0.9964 
G01 X-1.8786 Y0.9825 
G01 X-1.7945 Y0.9825 
G01 X-1.7414 Y0.9825 
