(.../Documents/src/pcbgcode/pcb-gcode.ulp)
(Copyright 2005 - 2009 by John Johnson)
(See readme.txt for licensing terms.)
(This file generated from the board:)
(.../docs/examples/04151_lcdi2c.brd)
(Current profile is .../pcbgcode/profiles/generic.pp  )
(This file generated 1/24/09 2:49 PM)
(Settings from pcb-machine.h)
(  Tool Size)
(0.0050 )
(Z Axis Settings)
(  High     Up        Down     Drill)
(0.5000 	0.1000 	-0.0070 	-0.0320 )
(spindle on time = 3.0000)
(milling depth = -0.0100)
(text depth = -0.0050)
(tool change at 0.0000 0.0000 0.0000 )
(feed rate xy = F20.00 )
(feed rate z  = F10.00 )
(Settings from pcb-defaults.h)
(Default isolate = 0.0010)
(isolate max = 0.0300)
(isolate step = 0.0150)
(Generated top outlines, top drill, bottom outlines, bottom drill, )
(Unit of measure: inch)
(Inch Mode)
G20
(Inch Mode)
G20
(Absolute Coordinates)
G90
(Absolute Coordinates)
G90
G00 X0.0000 Y0.0000 
M03
G04 P3.000000
M03
G04 P3.000000
G00 Z0.1000 
G00 X0.8366 Y0.6021 
G01 Z-0.0070 F10.00 
G01 X0.8366 Y0.6778 F20.00 
G01 X0.8314 Y0.6905 
G01 X0.8217 Y0.7002 
G01 X0.8090 Y0.7054 
G01 X0.7953 Y0.7054 
G01 X0.7826 Y0.7002 
G01 X0.7729 Y0.6905 
G01 X0.7676 Y0.6778 
G01 X0.7676 Y0.6021 
G01 X0.7729 Y0.5894 
G01 X0.7826 Y0.5797 
G01 X0.7953 Y0.5744 
G01 X0.8090 Y0.5744 
G01 X0.8217 Y0.5797 
G01 X0.8314 Y0.5894 
G01 X0.8366 Y0.6021 
G00 Z0.1000 
G00 X0.8070 Y0.8579 
G01 Z-0.0070 F10.00 
G01 X0.8070 Y0.7822 F20.00 
G01 X0.8122 Y0.7695 
G01 X0.8220 Y0.7598 
G01 X0.8346 Y0.7546 
G01 X0.8484 Y0.7546 
G01 X0.8610 Y0.7598 
G01 X0.8707 Y0.7695 
G01 X0.8760 Y0.7822 
G01 X0.8760 Y0.8579 
G01 X0.8707 Y0.8706 
G01 X0.8610 Y0.8803 
G01 X0.8484 Y0.8856 
G01 X0.8346 Y0.8856 
G01 X0.8220 Y0.8803 
G01 X0.8122 Y0.8706 
G01 X0.8070 Y0.8579 
G00 Z0.1000 
G00 X0.7579 Y0.6021 
G01 Z-0.0070 F10.00 
G01 X0.7579 Y0.6778 F20.00 
G01 X0.7526 Y0.6905 
G01 X0.7429 Y0.7002 
G01 X0.7302 Y0.7054 
G01 X0.7165 Y0.7054 
G01 X0.7038 Y0.7002 
G01 X0.6941 Y0.6905 
G01 X0.6889 Y0.6778 
G01 X0.6889 Y0.6021 
G01 X0.6941 Y0.5894 
G01 X0.7038 Y0.5797 
G01 X0.7165 Y0.5744 
G01 X0.7302 Y0.5744 
G01 X0.7429 Y0.5797 
G01 X0.7526 Y0.5894 
G01 X0.7579 Y0.6021 
G00 Z0.1000 
G00 X0.9154 Y0.6021 
G01 Z-0.0070 F10.00 
G01 X0.9154 Y0.6778 F20.00 
G01 X0.9101 Y0.6905 
G01 X0.9004 Y0.7002 
G01 X0.8877 Y0.7054 
G01 X0.8740 Y0.7054 
G01 X0.8613 Y0.7002 
G01 X0.8516 Y0.6905 
G01 X0.8464 Y0.6778 
G01 X0.8464 Y0.6021 
G01 X0.8516 Y0.5894 
G01 X0.8613 Y0.5797 
G01 X0.8740 Y0.5744 
G01 X0.8877 Y0.5744 
G01 X0.9004 Y0.5797 
G01 X0.9101 Y0.5894 
G01 X0.9154 Y0.6021 
G00 Z0.1000 
G00 X0.8857 Y0.8579 
G01 Z-0.0070 F10.00 
G01 X0.8857 Y0.7822 F20.00 
G01 X0.8910 Y0.7695 
G01 X0.9007 Y0.7598 
G01 X0.9134 Y0.7546 
G01 X0.9271 Y0.7546 
G01 X0.9398 Y0.7598 
G01 X0.9495 Y0.7695 
G01 X0.9547 Y0.7822 
G01 X0.9547 Y0.8579 
G01 X0.9495 Y0.8706 
G01 X0.9398 Y0.8803 
G01 X0.9271 Y0.8856 
G01 X0.9134 Y0.8856 
G01 X0.9007 Y0.8803 
G01 X0.8910 Y0.8706 
G01 X0.8857 Y0.8579 
G00 Z0.1000 
G00 X0.7283 Y0.8579 
G01 Z-0.0070 F10.00 
G01 X0.7283 Y0.7822 F20.00 
G01 X0.7335 Y0.7695 
G01 X0.7432 Y0.7598 
G01 X0.7559 Y0.7546 
G01 X0.7696 Y0.7546 
G01 X0.7823 Y0.7598 
G01 X0.7920 Y0.7695 
G01 X0.7973 Y0.7822 
G01 X0.7973 Y0.8579 
G01 X0.7920 Y0.8706 
G01 X0.7823 Y0.8803 
G01 X0.7696 Y0.8856 
G01 X0.7559 Y0.8856 
G01 X0.7432 Y0.8803 
G01 X0.7335 Y0.8706 
G01 X0.7283 Y0.8579 
G00 Z0.1000 
G00 X1.5321 Y0.3055 
G01 Z-0.0070 F10.00 
G01 X1.6079 Y0.3055 F20.00 
G01 X1.6205 Y0.3108 
G01 X1.6302 Y0.3205 
G01 X1.6355 Y0.3331 
G01 X1.6355 Y0.3469 
G01 X1.6302 Y0.3595 
G01 X1.6205 Y0.3692 
G01 X1.6079 Y0.3745 
G01 X1.5321 Y0.3745 
G01 X1.5195 Y0.3692 
G01 X1.5098 Y0.3595 
G01 X1.5045 Y0.3469 
G01 X1.5045 Y0.3331 
G01 X1.5098 Y0.3205 
G01 X1.5195 Y0.3108 
G01 X1.5321 Y0.3055 
G00 Z0.1000 
G00 X1.5321 Y0.4055 
G01 Z-0.0070 F10.00 
G01 X1.6079 Y0.4055 F20.00 
G01 X1.6205 Y0.4108 
G01 X1.6302 Y0.4205 
G01 X1.6355 Y0.4331 
G01 X1.6355 Y0.4469 
G01 X1.6302 Y0.4595 
G01 X1.6205 Y0.4692 
G01 X1.6079 Y0.4745 
G01 X1.5321 Y0.4745 
G01 X1.5195 Y0.4692 
G01 X1.5098 Y0.4595 
G01 X1.5045 Y0.4469 
G01 X1.5045 Y0.4331 
G01 X1.5098 Y0.4205 
G01 X1.5195 Y0.4108 
G01 X1.5321 Y0.4055 
G00 Z0.1000 
G00 X1.5321 Y0.5055 
G01 Z-0.0070 F10.00 
G01 X1.6079 Y0.5055 F20.00 
G01 X1.6205 Y0.5108 
G01 X1.6302 Y0.5205 
G01 X1.6355 Y0.5331 
G01 X1.6355 Y0.5469 
G01 X1.6302 Y0.5595 
G01 X1.6205 Y0.5692 
G01 X1.6079 Y0.5745 
G01 X1.5321 Y0.5745 
G01 X1.5195 Y0.5692 
G01 X1.5098 Y0.5595 
G01 X1.5045 Y0.5469 
G01 X1.5045 Y0.5331 
G01 X1.5098 Y0.5205 
G01 X1.5195 Y0.5108 
G01 X1.5321 Y0.5055 
G00 Z0.1000 
G00 X1.5321 Y0.6055 
G01 Z-0.0070 F10.00 
G01 X1.6079 Y0.6055 F20.00 
G01 X1.6205 Y0.6108 
G01 X1.6302 Y0.6205 
G01 X1.6355 Y0.6331 
G01 X1.6355 Y0.6469 
G01 X1.6302 Y0.6595 
G01 X1.6205 Y0.6692 
G01 X1.6079 Y0.6745 
G01 X1.5321 Y0.6745 
G01 X1.5195 Y0.6692 
G01 X1.5098 Y0.6595 
G01 X1.5045 Y0.6469 
G01 X1.5045 Y0.6331 
G01 X1.5098 Y0.6205 
G01 X1.5195 Y0.6108 
G01 X1.5321 Y0.6055 
G00 Z0.1000 
G00 X1.5321 Y0.7055 
G01 Z-0.0070 F10.00 
G01 X1.6079 Y0.7055 F20.00 
G01 X1.6205 Y0.7108 
G01 X1.6302 Y0.7205 
G01 X1.6355 Y0.7331 
G01 X1.6355 Y0.7469 
G01 X1.6302 Y0.7595 
G01 X1.6205 Y0.7692 
G01 X1.6079 Y0.7745 
G01 X1.5321 Y0.7745 
G01 X1.5195 Y0.7692 
G01 X1.5098 Y0.7595 
G01 X1.5045 Y0.7469 
G01 X1.5045 Y0.7331 
G01 X1.5098 Y0.7205 
G01 X1.5195 Y0.7108 
G01 X1.5321 Y0.7055 
G00 Z0.1000 
G00 X1.5321 Y0.8055 
G01 Z-0.0070 F10.00 
G01 X1.6079 Y0.8055 F20.00 
G01 X1.6205 Y0.8108 
G01 X1.6302 Y0.8205 
G01 X1.6355 Y0.8331 
G01 X1.6355 Y0.8469 
G01 X1.6302 Y0.8595 
G01 X1.6205 Y0.8692 
G01 X1.6079 Y0.8745 
G01 X1.5321 Y0.8745 
G01 X1.5195 Y0.8692 
G01 X1.5098 Y0.8595 
G01 X1.5045 Y0.8469 
G01 X1.5045 Y0.8331 
G01 X1.5098 Y0.8205 
G01 X1.5195 Y0.8108 
G01 X1.5321 Y0.8055 
G00 Z0.1000 
G00 X1.5321 Y0.9055 
G01 Z-0.0070 F10.00 
G01 X1.6079 Y0.9055 F20.00 
G01 X1.6205 Y0.9108 
G01 X1.6302 Y0.9205 
G01 X1.6355 Y0.9331 
G01 X1.6355 Y0.9469 
G01 X1.6302 Y0.9595 
G01 X1.6205 Y0.9692 
G01 X1.6079 Y0.9745 
G01 X1.5321 Y0.9745 
G01 X1.5195 Y0.9692 
G01 X1.5098 Y0.9595 
G01 X1.5045 Y0.9469 
G01 X1.5045 Y0.9331 
G01 X1.5098 Y0.9205 
G01 X1.5195 Y0.9108 
G01 X1.5321 Y0.9055 
G00 Z0.1000 
G00 X1.5321 Y1.0055 
G01 Z-0.0070 F10.00 
G01 X1.6079 Y1.0055 F20.00 
G01 X1.6205 Y1.0108 
G01 X1.6302 Y1.0205 
G01 X1.6355 Y1.0331 
G01 X1.6355 Y1.0469 
G01 X1.6302 Y1.0595 
G01 X1.6205 Y1.0692 
G01 X1.6079 Y1.0745 
G01 X1.5321 Y1.0745 
G01 X1.5195 Y1.0692 
G01 X1.5098 Y1.0595 
G01 X1.5045 Y1.0469 
G01 X1.5045 Y1.0331 
G01 X1.5098 Y1.0205 
G01 X1.5195 Y1.0108 
G01 X1.5321 Y1.0055 
G00 Z0.1000 
G00 X1.2321 Y1.0055 
G01 Z-0.0070 F10.00 
G01 X1.3079 Y1.0055 F20.00 
G01 X1.3205 Y1.0108 
G01 X1.3302 Y1.0205 
G01 X1.3355 Y1.0331 
G01 X1.3355 Y1.0469 
G01 X1.3302 Y1.0595 
G01 X1.3205 Y1.0692 
G01 X1.3079 Y1.0745 
G01 X1.2321 Y1.0745 
G01 X1.2195 Y1.0692 
G01 X1.2098 Y1.0595 
G01 X1.2045 Y1.0469 
G01 X1.2045 Y1.0331 
G01 X1.2098 Y1.0205 
G01 X1.2195 Y1.0108 
G01 X1.2321 Y1.0055 
G00 Z0.1000 
G00 X1.2321 Y0.9055 
G01 Z-0.0070 F10.00 
G01 X1.3079 Y0.9055 F20.00 
G01 X1.3205 Y0.9108 
G01 X1.3302 Y0.9205 
G01 X1.3355 Y0.9331 
G01 X1.3355 Y0.9469 
G01 X1.3302 Y0.9595 
G01 X1.3205 Y0.9692 
G01 X1.3079 Y0.9745 
G01 X1.2321 Y0.9745 
G01 X1.2195 Y0.9692 
G01 X1.2098 Y0.9595 
G01 X1.2045 Y0.9469 
G01 X1.2045 Y0.9331 
G01 X1.2098 Y0.9205 
G01 X1.2195 Y0.9108 
G01 X1.2321 Y0.9055 
G00 Z0.1000 
G00 X1.2321 Y0.8055 
G01 Z-0.0070 F10.00 
G01 X1.3079 Y0.8055 F20.00 
G01 X1.3205 Y0.8108 
G01 X1.3302 Y0.8205 
G01 X1.3355 Y0.8331 
G01 X1.3355 Y0.8469 
G01 X1.3302 Y0.8595 
G01 X1.3205 Y0.8692 
G01 X1.3079 Y0.8745 
G01 X1.2321 Y0.8745 
G01 X1.2195 Y0.8692 
G01 X1.2098 Y0.8595 
G01 X1.2045 Y0.8469 
G01 X1.2045 Y0.8331 
G01 X1.2098 Y0.8205 
G01 X1.2195 Y0.8108 
G01 X1.2321 Y0.8055 
G00 Z0.1000 
G00 X1.2321 Y0.7055 
G01 Z-0.0070 F10.00 
G01 X1.3079 Y0.7055 F20.00 
G01 X1.3205 Y0.7108 
G01 X1.3302 Y0.7205 
G01 X1.3355 Y0.7331 
G01 X1.3355 Y0.7469 
G01 X1.3302 Y0.7595 
G01 X1.3205 Y0.7692 
G01 X1.3079 Y0.7745 
G01 X1.2321 Y0.7745 
G01 X1.2195 Y0.7692 
G01 X1.2098 Y0.7595 
G01 X1.2045 Y0.7469 
G01 X1.2045 Y0.7331 
G01 X1.2098 Y0.7205 
G01 X1.2195 Y0.7108 
G01 X1.2321 Y0.7055 
G00 Z0.1000 
G00 X1.2321 Y0.6055 
G01 Z-0.0070 F10.00 
G01 X1.3079 Y0.6055 F20.00 
G01 X1.3205 Y0.6108 
G01 X1.3302 Y0.6205 
G01 X1.3355 Y0.6331 
G01 X1.3355 Y0.6469 
G01 X1.3302 Y0.6595 
G01 X1.3205 Y0.6692 
G01 X1.3079 Y0.6745 
G01 X1.2321 Y0.6745 
G01 X1.2195 Y0.6692 
G01 X1.2098 Y0.6595 
G01 X1.2045 Y0.6469 
G01 X1.2045 Y0.6331 
G01 X1.2098 Y0.6205 
G01 X1.2195 Y0.6108 
G01 X1.2321 Y0.6055 
G00 Z0.1000 
G00 X1.2321 Y0.5055 
G01 Z-0.0070 F10.00 
G01 X1.3079 Y0.5055 F20.00 
G01 X1.3205 Y0.5108 
G01 X1.3302 Y0.5205 
G01 X1.3355 Y0.5331 
G01 X1.3355 Y0.5469 
G01 X1.3302 Y0.5595 
G01 X1.3205 Y0.5692 
G01 X1.3079 Y0.5745 
G01 X1.2321 Y0.5745 
G01 X1.2195 Y0.5692 
G01 X1.2098 Y0.5595 
G01 X1.2045 Y0.5469 
G01 X1.2045 Y0.5331 
G01 X1.2098 Y0.5205 
G01 X1.2195 Y0.5108 
G01 X1.2321 Y0.5055 
G00 Z0.1000 
G00 X1.2321 Y0.4055 
G01 Z-0.0070 F10.00 
G01 X1.3079 Y0.4055 F20.00 
G01 X1.3205 Y0.4108 
G01 X1.3302 Y0.4205 
G01 X1.3355 Y0.4331 
G01 X1.3355 Y0.4469 
G01 X1.3302 Y0.4595 
G01 X1.3205 Y0.4692 
G01 X1.3079 Y0.4745 
G01 X1.2321 Y0.4745 
G01 X1.2195 Y0.4692 
G01 X1.2098 Y0.4595 
G01 X1.2045 Y0.4469 
G01 X1.2045 Y0.4331 
G01 X1.2098 Y0.4205 
G01 X1.2195 Y0.4108 
G01 X1.2321 Y0.4055 
G00 Z0.1000 
G00 X1.2321 Y0.3055 
G01 Z-0.0070 F10.00 
G01 X1.3079 Y0.3055 F20.00 
G01 X1.3205 Y0.3108 
G01 X1.3302 Y0.3205 
G01 X1.3355 Y0.3331 
G01 X1.3355 Y0.3469 
G01 X1.3302 Y0.3595 
G01 X1.3205 Y0.3692 
G01 X1.3079 Y0.3745 
G01 X1.2321 Y0.3745 
G01 X1.2195 Y0.3692 
G01 X1.2098 Y0.3595 
G01 X1.2045 Y0.3469 
G01 X1.2045 Y0.3331 
G01 X1.2098 Y0.3205 
G01 X1.2195 Y0.3108 
G01 X1.2321 Y0.3055 
G00 Z0.1000 
G00 X0.3285 Y0.9841 
G01 Z-0.0070 F10.00 
G01 X0.3285 Y1.0159 F20.00 
G01 X0.3059 Y1.0385 
G01 X0.2741 Y1.0385 
G01 X0.2515 Y1.0159 
G01 X0.2515 Y0.9841 
G01 X0.2741 Y0.9615 
G01 X0.3059 Y0.9615 
G01 X0.3285 Y0.9841 
G00 Z0.1000 
G00 X0.3285 Y0.8841 
G01 Z-0.0070 F10.00 
G01 X0.3285 Y0.9159 F20.00 
G01 X0.3059 Y0.9385 
G01 X0.2741 Y0.9385 
G01 X0.2515 Y0.9159 
G01 X0.2515 Y0.8841 
G01 X0.2741 Y0.8615 
G01 X0.3059 Y0.8615 
G01 X0.3285 Y0.8841 
G00 Z0.1000 
G00 X0.3285 Y0.7841 
G01 Z-0.0070 F10.00 
G01 X0.3285 Y0.8159 F20.00 
G01 X0.3059 Y0.8385 
G01 X0.2741 Y0.8385 
G01 X0.2515 Y0.8159 
G01 X0.2515 Y0.7841 
G01 X0.2741 Y0.7615 
G01 X0.3059 Y0.7615 
G01 X0.3285 Y0.7841 
G00 Z0.1000 
G00 X0.3285 Y0.6841 
G01 Z-0.0070 F10.00 
G01 X0.3285 Y0.7159 F20.00 
G01 X0.3059 Y0.7385 
G01 X0.2741 Y0.7385 
G01 X0.2515 Y0.7159 
G01 X0.2515 Y0.6841 
G01 X0.2741 Y0.6615 
G01 X0.3059 Y0.6615 
G01 X0.3285 Y0.6841 
G00 Z0.1000 
G00 X0.3285 Y0.5841 
G01 Z-0.0070 F10.00 
G01 X0.3285 Y0.6159 F20.00 
G01 X0.3059 Y0.6385 
G01 X0.2741 Y0.6385 
G01 X0.2515 Y0.6159 
G01 X0.2515 Y0.5841 
G01 X0.2741 Y0.5615 
G01 X0.3059 Y0.5615 
G01 X0.3285 Y0.5841 
G00 Z0.1000 
G00 X0.3285 Y0.4841 
G01 Z-0.0070 F10.00 
G01 X0.3285 Y0.5159 F20.00 
G01 X0.3059 Y0.5385 
G01 X0.2741 Y0.5385 
G01 X0.2515 Y0.5159 
G01 X0.2515 Y0.4841 
G01 X0.2741 Y0.4615 
G01 X0.3059 Y0.4615 
G01 X0.3285 Y0.4841 
G00 Z0.1000 
G00 X0.2285 Y0.9841 
G01 Z-0.0070 F10.00 
G01 X0.2285 Y1.0159 F20.00 
G01 X0.2059 Y1.0385 
G01 X0.1741 Y1.0385 
G01 X0.1515 Y1.0159 
G01 X0.1515 Y0.9841 
G01 X0.1741 Y0.9615 
G01 X0.2059 Y0.9615 
G01 X0.2285 Y0.9841 
G00 Z0.1000 
G00 X0.2285 Y0.8841 
G01 Z-0.0070 F10.00 
G01 X0.2285 Y0.9159 F20.00 
G01 X0.2059 Y0.9385 
G01 X0.1741 Y0.9385 
G01 X0.1515 Y0.9159 
G01 X0.1515 Y0.8841 
G01 X0.1741 Y0.8615 
G01 X0.2059 Y0.8615 
G01 X0.2285 Y0.8841 
G00 Z0.1000 
G00 X0.2285 Y0.7841 
G01 Z-0.0070 F10.00 
G01 X0.2285 Y0.8159 F20.00 
G01 X0.2059 Y0.8385 
G01 X0.1741 Y0.8385 
G01 X0.1515 Y0.8159 
G01 X0.1515 Y0.7841 
G01 X0.1741 Y0.7615 
G01 X0.2059 Y0.7615 
G01 X0.2285 Y0.7841 
G00 Z0.1000 
G00 X0.2285 Y0.6841 
G01 Z-0.0070 F10.00 
G01 X0.2285 Y0.7159 F20.00 
G01 X0.2059 Y0.7385 
G01 X0.1741 Y0.7385 
G01 X0.1515 Y0.7159 
G01 X0.1515 Y0.6841 
G01 X0.1741 Y0.6615 
G01 X0.2059 Y0.6615 
G01 X0.2285 Y0.6841 
G00 Z0.1000 
G00 X0.2285 Y0.5841 
G01 Z-0.0070 F10.00 
G01 X0.2285 Y0.6159 F20.00 
G01 X0.2059 Y0.6385 
G01 X0.1741 Y0.6385 
G01 X0.1515 Y0.6159 
G01 X0.1515 Y0.5841 
G01 X0.1741 Y0.5615 
G01 X0.2059 Y0.5615 
G01 X0.2285 Y0.5841 
G00 Z0.1000 
G00 X0.2285 Y0.4841 
G01 Z-0.0070 F10.00 
G01 X0.2285 Y0.5159 F20.00 
G01 X0.2059 Y0.5385 
G01 X0.1741 Y0.5385 
G01 X0.1515 Y0.5159 
G01 X0.1515 Y0.4841 
G01 X0.1741 Y0.4615 
G01 X0.2059 Y0.4615 
G01 X0.2285 Y0.4841 
G00 Z0.1000 
G00 X0.3285 Y0.3841 
G01 Z-0.0070 F10.00 
G01 X0.3285 Y0.4159 F20.00 
G01 X0.3059 Y0.4385 
G01 X0.2741 Y0.4385 
G01 X0.2515 Y0.4159 
G01 X0.2515 Y0.3841 
G01 X0.2741 Y0.3615 
G01 X0.3059 Y0.3615 
G01 X0.3285 Y0.3841 
G00 Z0.1000 
G00 X0.2285 Y0.3841 
G01 Z-0.0070 F10.00 
G01 X0.2285 Y0.4159 F20.00 
G01 X0.2059 Y0.4385 
G01 X0.1741 Y0.4385 
G01 X0.1515 Y0.4159 
G01 X0.1515 Y0.3841 
G01 X0.1741 Y0.3615 
G01 X0.2059 Y0.3615 
G01 X0.2285 Y0.3841 
G00 Z0.1000 
G00 X0.8379 Y0.4045 
G01 Z-0.0070 F10.00 
G01 X0.7621 Y0.4045 F20.00 
G01 X0.7495 Y0.3992 
G01 X0.7398 Y0.3895 
G01 X0.7345 Y0.3769 
G01 X0.7345 Y0.3631 
G01 X0.7398 Y0.3505 
G01 X0.7495 Y0.3408 
G01 X0.7621 Y0.3355 
G01 X0.8379 Y0.3355 
G01 X0.8505 Y0.3408 
G01 X0.8602 Y0.3505 
G01 X0.8655 Y0.3631 
G01 X0.8655 Y0.3769 
G01 X0.8602 Y0.3895 
G01 X0.8505 Y0.3992 
G01 X0.8379 Y0.4045 
G00 Z0.1000 
G00 X1.1379 Y0.3045 
G01 Z-0.0070 F10.00 
G01 X1.0621 Y0.3045 F20.00 
G01 X1.0495 Y0.2992 
G01 X1.0398 Y0.2895 
G01 X1.0345 Y0.2769 
G01 X1.0345 Y0.2631 
G01 X1.0398 Y0.2505 
G01 X1.0495 Y0.2408 
G01 X1.0621 Y0.2355 
G01 X1.1379 Y0.2355 
G01 X1.1505 Y0.2408 
G01 X1.1602 Y0.2505 
G01 X1.1655 Y0.2631 
G01 X1.1655 Y0.2769 
G01 X1.1602 Y0.2895 
G01 X1.1505 Y0.2992 
G01 X1.1379 Y0.3045 
G00 Z0.1000 
G00 X0.6379 Y0.3045 
G01 Z-0.0070 F10.00 
G01 X0.5621 Y0.3045 F20.00 
G01 X0.5495 Y0.2992 
G01 X0.5398 Y0.2895 
G01 X0.5345 Y0.2769 
G01 X0.5345 Y0.2631 
G01 X0.5398 Y0.2505 
G01 X0.5495 Y0.2408 
G01 X0.5621 Y0.2355 
G01 X0.6379 Y0.2355 
G01 X0.6505 Y0.2408 
G01 X0.6602 Y0.2505 
G01 X0.6655 Y0.2631 
G01 X0.6655 Y0.2769 
G01 X0.6602 Y0.2895 
G01 X0.6505 Y0.2992 
G01 X0.6379 Y0.3045 
G00 Z0.1000 
G00 X2.1121 Y0.1155 
G01 Z-0.0070 F10.00 
G01 X2.1879 Y0.1155 F20.00 
G01 X2.2005 Y0.1208 
G01 X2.2102 Y0.1305 
G01 X2.2155 Y0.1431 
G01 X2.2155 Y0.1569 
G01 X2.2102 Y0.1695 
G01 X2.2005 Y0.1792 
G01 X2.1879 Y0.1845 
G01 X2.1121 Y0.1845 
G01 X2.0995 Y0.1792 
G01 X2.0898 Y0.1695 
G01 X2.0845 Y0.1569 
G01 X2.0845 Y0.1431 
G01 X2.0898 Y0.1305 
G01 X2.0995 Y0.1208 
G01 X2.1121 Y0.1155 
G00 Z0.1000 
G00 X2.1121 Y0.2155 
G01 Z-0.0070 F10.00 
G01 X2.1879 Y0.2155 F20.00 
G01 X2.2005 Y0.2208 
G01 X2.2102 Y0.2305 
G01 X2.2155 Y0.2431 
G01 X2.2155 Y0.2569 
G01 X2.2102 Y0.2695 
G01 X2.2005 Y0.2792 
G01 X2.1879 Y0.2845 
G01 X2.1121 Y0.2845 
G01 X2.0995 Y0.2792 
G01 X2.0898 Y0.2695 
G01 X2.0845 Y0.2569 
G01 X2.0845 Y0.2431 
G01 X2.0898 Y0.2305 
G01 X2.0995 Y0.2208 
G01 X2.1121 Y0.2155 
G00 Z0.1000 
G00 X2.1121 Y0.3155 
G01 Z-0.0070 F10.00 
G01 X2.1879 Y0.3155 F20.00 
G01 X2.2005 Y0.3208 
G01 X2.2102 Y0.3305 
G01 X2.2155 Y0.3431 
G01 X2.2155 Y0.3569 
G01 X2.2102 Y0.3695 
G01 X2.2005 Y0.3792 
G01 X2.1879 Y0.3845 
G01 X2.1121 Y0.3845 
G01 X2.0995 Y0.3792 
G01 X2.0898 Y0.3695 
G01 X2.0845 Y0.3569 
G01 X2.0845 Y0.3431 
G01 X2.0898 Y0.3305 
G01 X2.0995 Y0.3208 
G01 X2.1121 Y0.3155 
G00 Z0.1000 
G00 X1.8121 Y0.3155 
G01 Z-0.0070 F10.00 
G01 X1.8879 Y0.3155 F20.00 
G01 X1.9005 Y0.3208 
G01 X1.9102 Y0.3305 
G01 X1.9155 Y0.3431 
G01 X1.9155 Y0.3569 
G01 X1.9102 Y0.3695 
G01 X1.9005 Y0.3792 
G01 X1.8879 Y0.3845 
G01 X1.8121 Y0.3845 
G01 X1.7995 Y0.3792 
G01 X1.7898 Y0.3695 
G01 X1.7845 Y0.3569 
G01 X1.7845 Y0.3431 
G01 X1.7898 Y0.3305 
G01 X1.7995 Y0.3208 
G01 X1.8121 Y0.3155 
G00 Z0.1000 
G00 X1.8121 Y0.2155 
G01 Z-0.0070 F10.00 
G01 X1.8879 Y0.2155 F20.00 
G01 X1.9005 Y0.2208 
G01 X1.9102 Y0.2305 
G01 X1.9155 Y0.2431 
G01 X1.9155 Y0.2569 
G01 X1.9102 Y0.2695 
G01 X1.9005 Y0.2792 
G01 X1.8879 Y0.2845 
G01 X1.8121 Y0.2845 
G01 X1.7995 Y0.2792 
G01 X1.7898 Y0.2695 
G01 X1.7845 Y0.2569 
G01 X1.7845 Y0.2431 
G01 X1.7898 Y0.2305 
G01 X1.7995 Y0.2208 
G01 X1.8121 Y0.2155 
G00 Z0.1000 
G00 X1.8121 Y0.1155 
G01 Z-0.0070 F10.00 
G01 X1.8879 Y0.1155 F20.00 
G01 X1.9005 Y0.1208 
G01 X1.9102 Y0.1305 
G01 X1.9155 Y0.1431 
G01 X1.9155 Y0.1569 
G01 X1.9102 Y0.1695 
G01 X1.9005 Y0.1792 
G01 X1.8879 Y0.1845 
G01 X1.8121 Y0.1845 
G01 X1.7995 Y0.1792 
G01 X1.7898 Y0.1695 
G01 X1.7845 Y0.1569 
G01 X1.7845 Y0.1431 
G01 X1.7898 Y0.1305 
G01 X1.7995 Y0.1208 
G01 X1.8121 Y0.1155 
G00 Z0.1000 
G00 X1.8345 Y0.6657 
G01 Z-0.0070 F10.00 
G01 X1.8345 Y0.6943 F20.00 
G01 X1.8143 Y0.7145 
G01 X1.7857 Y0.7145 
G01 X1.7655 Y0.6943 
G01 X1.7655 Y0.6657 
G01 X1.7857 Y0.6455 
G01 X1.8143 Y0.6455 
G01 X1.8345 Y0.6657 
G00 Z0.1000 
G00 X1.8345 Y0.4657 
G01 Z-0.0070 F10.00 
G01 X1.8345 Y0.4943 F20.00 
G01 X1.8143 Y0.5145 
G01 X1.7857 Y0.5145 
G01 X1.7655 Y0.4943 
G01 X1.7655 Y0.4657 
G01 X1.7857 Y0.4455 
G01 X1.8143 Y0.4455 
G01 X1.8345 Y0.4657 
G00 Z0.1000 
G00 X1.9545 Y0.6657 
G01 Z-0.0070 F10.00 
G01 X1.9545 Y0.6943 F20.00 
G01 X1.9343 Y0.7145 
G01 X1.9057 Y0.7145 
G01 X1.8855 Y0.6943 
G01 X1.8855 Y0.6657 
G01 X1.9057 Y0.6455 
G01 X1.9343 Y0.6455 
G01 X1.9545 Y0.6657 
G00 Z0.1000 
G00 X1.9545 Y0.4657 
G01 Z-0.0070 F10.00 
G01 X1.9545 Y0.4943 F20.00 
G01 X1.9343 Y0.5145 
G01 X1.9057 Y0.5145 
G01 X1.8855 Y0.4943 
G01 X1.8855 Y0.4657 
G01 X1.9057 Y0.4455 
G01 X1.9343 Y0.4455 
G01 X1.9545 Y0.4657 
G00 Z0.1000 
G00 X2.0745 Y0.6657 
G01 Z-0.0070 F10.00 
G01 X2.0745 Y0.6943 F20.00 
G01 X2.0543 Y0.7145 
G01 X2.0257 Y0.7145 
G01 X2.0055 Y0.6943 
G01 X2.0055 Y0.6657 
G01 X2.0257 Y0.6455 
G01 X2.0543 Y0.6455 
G01 X2.0745 Y0.6657 
G00 Z0.1000 
G00 X2.0745 Y0.4657 
G01 Z-0.0070 F10.00 
G01 X2.0745 Y0.4943 F20.00 
G01 X2.0543 Y0.5145 
G01 X2.0257 Y0.5145 
G01 X2.0055 Y0.4943 
G01 X2.0055 Y0.4657 
G01 X2.0257 Y0.4455 
G01 X2.0543 Y0.4455 
G01 X2.0745 Y0.4657 
G00 Z0.1000 
G00 X1.3045 Y0.2157 
G01 Z-0.0070 F10.00 
G01 X1.3045 Y0.2443 F20.00 
G01 X1.2843 Y0.2645 
G01 X1.2557 Y0.2645 
G01 X1.2355 Y0.2443 
G01 X1.2355 Y0.2157 
G01 X1.2557 Y0.1955 
G01 X1.2843 Y0.1955 
G01 X1.3045 Y0.2157 
G00 Z0.1000 
G00 X1.4045 Y0.2157 
G01 Z-0.0070 F10.00 
G01 X1.4045 Y0.2443 F20.00 
G01 X1.3843 Y0.2645 
G01 X1.3557 Y0.2645 
G01 X1.3355 Y0.2443 
G01 X1.3355 Y0.2157 
G01 X1.3557 Y0.1955 
G01 X1.3843 Y0.1955 
G01 X1.4045 Y0.2157 
G00 Z0.1000 
G00 X2.3535 Y1.0078 
G01 Z-0.0070 F10.00 
G01 X2.3535 Y1.0522 F20.00 
G01 X2.3222 Y1.0835 
G01 X2.2778 Y1.0835 
G01 X2.2465 Y1.0522 
G01 X2.2465 Y1.0078 
G01 X2.2778 Y0.9765 
G01 X2.3222 Y0.9765 
G01 X2.3535 Y1.0078 
G00 Z0.1000 
G00 X2.0535 Y1.0078 
G01 Z-0.0070 F10.00 
G01 X2.0535 Y1.0522 F20.00 
G01 X2.0222 Y1.0835 
G01 X1.9778 Y1.0835 
G01 X1.9465 Y1.0522 
G01 X1.9465 Y1.0078 
G01 X1.9778 Y0.9765 
G01 X2.0222 Y0.9765 
G01 X2.0535 Y1.0078 
G00 Z0.1000 
G00 X0.5445 Y0.9857 
G01 Z-0.0070 F10.00 
G01 X0.5445 Y1.0143 F20.00 
G01 X0.5243 Y1.0345 
G01 X0.4957 Y1.0345 
G01 X0.4755 Y1.0143 
G01 X0.4755 Y0.9857 
G01 X0.4957 Y0.9655 
G01 X0.5243 Y0.9655 
G01 X0.5445 Y0.9857 
G00 Z0.1000 
G00 X0.4445 Y0.9857 
G01 Z-0.0070 F10.00 
G01 X0.4445 Y1.0143 F20.00 
G01 X0.4243 Y1.0345 
G01 X0.3957 Y1.0345 
G01 X0.3755 Y1.0143 
G01 X0.3755 Y0.9857 
G01 X0.3957 Y0.9655 
G01 X0.4243 Y0.9655 
G01 X0.4445 Y0.9857 
G00 Z0.1000 
G00 X1.4245 Y1.1557 
G01 Z-0.0070 F10.00 
G01 X1.4245 Y1.1843 F20.00 
G01 X1.4043 Y1.2045 
G01 X1.3757 Y1.2045 
G01 X1.3555 Y1.1843 
G01 X1.3555 Y1.1557 
G01 X1.3757 Y1.1355 
G01 X1.4043 Y1.1355 
G01 X1.4245 Y1.1557 
G00 Z0.1000 
G00 X1.4745 Y1.2307 
G01 Z-0.0070 F10.00 
G01 X1.4745 Y1.2593 F20.00 
G01 X1.4543 Y1.2795 
G01 X1.4257 Y1.2795 
G01 X1.4055 Y1.2593 
G01 X1.4055 Y1.2307 
G01 X1.4257 Y1.2105 
G01 X1.4543 Y1.2105 
G01 X1.4745 Y1.2307 
G00 Z0.1000 
G00 X1.5245 Y1.1557 
G01 Z-0.0070 F10.00 
G01 X1.5245 Y1.1843 F20.00 
G01 X1.5043 Y1.2045 
G01 X1.4757 Y1.2045 
G01 X1.4555 Y1.1843 
G01 X1.4555 Y1.1557 
G01 X1.4757 Y1.1355 
G01 X1.5043 Y1.1355 
G01 X1.5245 Y1.1557 
G00 Z0.1000 
G00 X1.1765 Y1.1707 
G01 Z-0.0070 F10.00 
G01 X1.1765 Y1.1892 F20.00 
G01 X1.1694 Y1.2063 
G01 X1.1563 Y1.2194 
G01 X1.1392 Y1.2265 
G01 X1.1207 Y1.2265 
G01 X1.1037 Y1.2194 
G01 X1.0906 Y1.2063 
G01 X1.0835 Y1.1892 
G01 X1.0835 Y1.1707 
G01 X1.0906 Y1.1537 
G01 X1.1037 Y1.1406 
G01 X1.1207 Y1.1335 
G01 X1.1392 Y1.1335 
G01 X1.1563 Y1.1406 
G01 X1.1694 Y1.1537 
G01 X1.1765 Y1.1707 
G00 Z0.1000 
G00 X1.2765 Y1.1607 
G01 Z-0.0070 F10.00 
G01 X1.2765 Y1.1993 F20.00 
G01 X1.2493 Y1.2265 
G01 X1.2107 Y1.2265 
G01 X1.1835 Y1.1993 
G01 X1.1835 Y1.1607 
G01 X1.2107 Y1.1335 
G01 X1.2493 Y1.1335 
G01 X1.2765 Y1.1607 
G00 Z0.1000 
G00 X1.7965 Y1.2107 
G01 Z-0.0070 F10.00 
G01 X1.7965 Y1.2292 F20.00 
G01 X1.7894 Y1.2463 
G01 X1.7763 Y1.2594 
G01 X1.7592 Y1.2665 
G01 X1.7407 Y1.2665 
G01 X1.7237 Y1.2594 
G01 X1.7106 Y1.2463 
G01 X1.7035 Y1.2292 
G01 X1.7035 Y1.2107 
G01 X1.7106 Y1.1937 
G01 X1.7237 Y1.1806 
G01 X1.7407 Y1.1735 
G01 X1.7592 Y1.1735 
G01 X1.7763 Y1.1806 
G01 X1.7894 Y1.1937 
G01 X1.7965 Y1.2107 
G00 Z0.1000 
G00 X1.7965 Y1.1007 
G01 Z-0.0070 F10.00 
G01 X1.7965 Y1.1393 F20.00 
G01 X1.7693 Y1.1665 
G01 X1.7307 Y1.1665 
G01 X1.7035 Y1.1393 
G01 X1.7035 Y1.1007 
G01 X1.7307 Y1.0735 
G01 X1.7693 Y1.0735 
G01 X1.7965 Y1.1007 
G00 Z0.1000 
G00 X0.2400 Y0.9743 
G01 Z-0.0070 F10.00 
G01 X0.2643 Y0.9500 F20.00 
G01 X0.2400 Y0.9257 
G01 X0.2157 Y0.9500 
G01 X0.2400 Y0.9743 
G00 Z0.1000 
G00 X0.2400 Y0.7743 
G01 Z-0.0070 F10.00 
G01 X0.2643 Y0.7500 F20.00 
G01 X0.2400 Y0.7257 
G01 X0.2157 Y0.7500 
G01 X0.2400 Y0.7743 
G00 Z0.1000 
G00 X0.2400 Y0.5743 
G01 Z-0.0070 F10.00 
G01 X0.2643 Y0.5500 F20.00 
G01 X0.2400 Y0.5257 
G01 X0.2157 Y0.5500 
G01 X0.2400 Y0.5743 
G00 Z0.1000 
G00 X0.2400 Y0.4743 
G01 Z-0.0070 F10.00 
G01 X0.2643 Y0.4500 F20.00 
G01 X0.2400 Y0.4257 
G01 X0.2157 Y0.4500 
G01 X0.2400 Y0.4743 
G00 Z0.1000 
G00 X0.2400 Y0.6743 
G01 Z-0.0070 F10.00 
G01 X0.2643 Y0.6500 F20.00 
G01 X0.2400 Y0.6257 
G01 X0.2157 Y0.6500 
G01 X0.2400 Y0.6743 
G00 Z0.1000 
G00 X0.2400 Y0.8743 
G01 Z-0.0070 F10.00 
G01 X0.2643 Y0.8500 F20.00 
G01 X0.2400 Y0.8257 
G01 X0.2157 Y0.8500 
G01 X0.2400 Y0.8743 
G00 Z0.1000 
G00 X1.8115 Y1.2078 
G01 Z-0.0070 F10.00 
G01 X1.8115 Y1.2322 F20.00 
G01 X1.8021 Y1.2548 
G01 X1.7848 Y1.2721 
G01 X1.7622 Y1.2815 
G01 X1.7378 Y1.2815 
G01 X1.7152 Y1.2721 
G01 X1.6979 Y1.2548 
G01 X1.6885 Y1.2322 
G01 X1.6885 Y1.2078 
G01 X1.6979 Y1.1852 
G01 X1.7130 Y1.1700 
G01 X1.6885 Y1.1455 
G01 X1.6885 Y1.0945 
G01 X1.7245 Y1.0585 
G01 X1.7755 Y1.0585 
G01 X1.8115 Y1.0945 
G01 X1.8115 Y1.1455 
G01 X1.7870 Y1.1700 
G01 X1.8021 Y1.1852 
G01 X1.8115 Y1.2078 
G00 Z0.1000 
G00 X0.3435 Y0.9778 
G01 Z-0.0070 F10.00 
G01 X0.3435 Y1.0222 F20.00 
G01 X0.3122 Y1.0535 
G01 X0.2678 Y1.0535 
G01 X0.2400 Y1.0257 
G01 X0.2122 Y1.0535 
G01 X0.1678 Y1.0535 
G01 X0.1365 Y1.0222 
G01 X0.1365 Y0.9778 
G01 X0.1643 Y0.9500 
G01 X0.1365 Y0.9222 
G01 X0.1365 Y0.8778 
G01 X0.1643 Y0.8500 
G01 X0.1365 Y0.8222 
G01 X0.1365 Y0.7778 
G01 X0.1643 Y0.7500 
G01 X0.1365 Y0.7222 
G01 X0.1365 Y0.6778 
G01 X0.1643 Y0.6500 
G01 X0.1365 Y0.6222 
G01 X0.1365 Y0.5778 
G01 X0.1643 Y0.5500 
G01 X0.1365 Y0.5222 
G01 X0.1365 Y0.4778 
G01 X0.1643 Y0.4500 
G01 X0.1365 Y0.4222 
G01 X0.1365 Y0.3778 
G01 X0.1678 Y0.3465 
G01 X0.2122 Y0.3465 
G01 X0.2400 Y0.3743 
G01 X0.2678 Y0.3465 
G01 X0.3122 Y0.3465 
G01 X0.3435 Y0.3778 
G01 X0.3435 Y0.4222 
G01 X0.3157 Y0.4500 
G01 X0.3435 Y0.4778 
G01 X0.3435 Y0.5222 
G01 X0.3157 Y0.5500 
G01 X0.3435 Y0.5778 
G01 X0.3435 Y0.6222 
G01 X0.3157 Y0.6500 
G01 X0.3435 Y0.6778 
G01 X0.3435 Y0.7222 
G01 X0.3157 Y0.7500 
G01 X0.3435 Y0.7778 
G01 X0.3435 Y0.8222 
G01 X0.3157 Y0.8500 
G01 X0.3435 Y0.8778 
G01 X0.3435 Y0.9222 
G01 X0.3157 Y0.9500 
G01 X0.3435 Y0.9778 
G00 Z0.1000 
G00 X1.2291 Y0.2905 
G01 Z-0.0070 F10.00 
G01 X1.3108 Y0.2905 F20.00 
G01 X1.3290 Y0.2980 
G01 X1.3430 Y0.3120 
G01 X1.3505 Y0.3301 
G01 X1.3505 Y0.3498 
G01 X1.3430 Y0.3680 
G01 X1.3290 Y0.3820 
G01 X1.3108 Y0.3895 
G01 X1.2291 Y0.3895 
G01 X1.2110 Y0.3820 
G01 X1.1970 Y0.3680 
G01 X1.1895 Y0.3498 
G01 X1.1895 Y0.3301 
G01 X1.1970 Y0.3120 
G01 X1.2110 Y0.2980 
G01 X1.2291 Y0.2905 
G00 Z0.1000 
G00 X1.2291 Y0.3905 
G01 Z-0.0070 F10.00 
G01 X1.3108 Y0.3905 F20.00 
G01 X1.3290 Y0.3980 
G01 X1.3430 Y0.4120 
G01 X1.3505 Y0.4301 
G01 X1.3505 Y0.4498 
G01 X1.3430 Y0.4680 
G01 X1.3290 Y0.4820 
G01 X1.3108 Y0.4895 
G01 X1.2291 Y0.4895 
G01 X1.2110 Y0.4820 
G01 X1.1970 Y0.4680 
G01 X1.1895 Y0.4498 
G01 X1.1895 Y0.4301 
G01 X1.1970 Y0.4120 
G01 X1.2110 Y0.3980 
G01 X1.2291 Y0.3905 
G00 Z0.1000 
G00 X1.2291 Y0.4905 
G01 Z-0.0070 F10.00 
G01 X1.3108 Y0.4905 F20.00 
G01 X1.3290 Y0.4980 
G01 X1.3430 Y0.5120 
G01 X1.3505 Y0.5301 
G01 X1.3505 Y0.5498 
G01 X1.3430 Y0.5680 
G01 X1.3290 Y0.5820 
G01 X1.3108 Y0.5895 
G01 X1.2291 Y0.5895 
G01 X1.2110 Y0.5820 
G01 X1.1970 Y0.5680 
G01 X1.1895 Y0.5498 
G01 X1.1895 Y0.5301 
G01 X1.1970 Y0.5120 
G01 X1.2110 Y0.4980 
G01 X1.2291 Y0.4905 
G00 Z0.1000 
G00 X1.2291 Y0.5905 
G01 Z-0.0070 F10.00 
G01 X1.3108 Y0.5905 F20.00 
G01 X1.3290 Y0.5980 
G01 X1.3430 Y0.6120 
G01 X1.3505 Y0.6301 
G01 X1.3505 Y0.6498 
G01 X1.3430 Y0.6680 
G01 X1.3290 Y0.6820 
G01 X1.3108 Y0.6895 
G01 X1.2291 Y0.6895 
G01 X1.2110 Y0.6820 
G01 X1.1970 Y0.6680 
G01 X1.1895 Y0.6498 
G01 X1.1895 Y0.6301 
G01 X1.1970 Y0.6120 
G01 X1.2110 Y0.5980 
G01 X1.2291 Y0.5905 
G00 Z0.1000 
G00 X1.2291 Y0.6905 
G01 Z-0.0070 F10.00 
G01 X1.3108 Y0.6905 F20.00 
G01 X1.3290 Y0.6980 
G01 X1.3430 Y0.7120 
G01 X1.3505 Y0.7301 
G01 X1.3505 Y0.7498 
G01 X1.3430 Y0.7680 
G01 X1.3290 Y0.7820 
G01 X1.3108 Y0.7895 
G01 X1.2291 Y0.7895 
G01 X1.2110 Y0.7820 
G01 X1.1970 Y0.7680 
G01 X1.1895 Y0.7498 
G01 X1.1895 Y0.7301 
G01 X1.1970 Y0.7120 
G01 X1.2110 Y0.6980 
G01 X1.2291 Y0.6905 
G00 Z0.1000 
G00 X1.2291 Y0.7905 
G01 Z-0.0070 F10.00 
G01 X1.3108 Y0.7905 F20.00 
G01 X1.3290 Y0.7980 
G01 X1.3430 Y0.8120 
G01 X1.3505 Y0.8301 
G01 X1.3505 Y0.8498 
G01 X1.3430 Y0.8680 
G01 X1.3290 Y0.8820 
G01 X1.3108 Y0.8895 
G01 X1.2291 Y0.8895 
G01 X1.2110 Y0.8820 
G01 X1.1970 Y0.8680 
G01 X1.1895 Y0.8498 
G01 X1.1895 Y0.8301 
G01 X1.1970 Y0.8120 
G01 X1.2110 Y0.7980 
G01 X1.2291 Y0.7905 
G00 Z0.1000 
G00 X1.2291 Y0.8905 
G01 Z-0.0070 F10.00 
G01 X1.3108 Y0.8905 F20.00 
G01 X1.3290 Y0.8980 
G01 X1.3430 Y0.9120 
G01 X1.3505 Y0.9301 
G01 X1.3505 Y0.9498 
G01 X1.3430 Y0.9680 
G01 X1.3290 Y0.9820 
G01 X1.3108 Y0.9895 
G01 X1.2291 Y0.9895 
G01 X1.2110 Y0.9820 
G01 X1.1970 Y0.9680 
G01 X1.1895 Y0.9498 
G01 X1.1895 Y0.9301 
G01 X1.1970 Y0.9120 
G01 X1.2110 Y0.8980 
G01 X1.2291 Y0.8905 
G00 Z0.1000 
G00 X1.2291 Y0.9905 
G01 Z-0.0070 F10.00 
G01 X1.3108 Y0.9905 F20.00 
G01 X1.3290 Y0.9980 
G01 X1.3430 Y1.0120 
G01 X1.3505 Y1.0301 
G01 X1.3505 Y1.0498 
G01 X1.3430 Y1.0680 
G01 X1.3290 Y1.0820 
G01 X1.3108 Y1.0895 
G01 X1.2291 Y1.0895 
G01 X1.2110 Y1.0820 
G01 X1.1970 Y1.0680 
G01 X1.1895 Y1.0498 
G01 X1.1895 Y1.0301 
G01 X1.1970 Y1.0120 
G01 X1.2110 Y0.9980 
G01 X1.2291 Y0.9905 
G00 Z0.1000 
G00 X1.5291 Y0.9905 
G01 Z-0.0070 F10.00 
G01 X1.6108 Y0.9905 F20.00 
G01 X1.6290 Y0.9980 
G01 X1.6430 Y1.0120 
G01 X1.6505 Y1.0301 
G01 X1.6505 Y1.0498 
G01 X1.6430 Y1.0680 
G01 X1.6290 Y1.0820 
G01 X1.6108 Y1.0895 
G01 X1.5291 Y1.0895 
G01 X1.5110 Y1.0820 
G01 X1.4970 Y1.0680 
G01 X1.4895 Y1.0498 
G01 X1.4895 Y1.0301 
G01 X1.4970 Y1.0120 
G01 X1.5110 Y0.9980 
G01 X1.5291 Y0.9905 
G00 Z0.1000 
G00 X1.5291 Y0.8905 
G01 Z-0.0070 F10.00 
G01 X1.6108 Y0.8905 F20.00 
G01 X1.6290 Y0.8980 
G01 X1.6430 Y0.9120 
G01 X1.6505 Y0.9301 
G01 X1.6505 Y0.9498 
G01 X1.6430 Y0.9680 
G01 X1.6290 Y0.9820 
G01 X1.6108 Y0.9895 
G01 X1.5291 Y0.9895 
G01 X1.5110 Y0.9820 
G01 X1.4970 Y0.9680 
G01 X1.4895 Y0.9498 
G01 X1.4895 Y0.9301 
G01 X1.4970 Y0.9120 
G01 X1.5110 Y0.8980 
G01 X1.5291 Y0.8905 
G00 Z0.1000 
G00 X1.5291 Y0.7905 
G01 Z-0.0070 F10.00 
G01 X1.6108 Y0.7905 F20.00 
G01 X1.6290 Y0.7980 
G01 X1.6430 Y0.8120 
G01 X1.6505 Y0.8301 
G01 X1.6505 Y0.8498 
G01 X1.6430 Y0.8680 
G01 X1.6290 Y0.8820 
G01 X1.6108 Y0.8895 
G01 X1.5291 Y0.8895 
G01 X1.5110 Y0.8820 
G01 X1.4970 Y0.8680 
G01 X1.4895 Y0.8498 
G01 X1.4895 Y0.8301 
G01 X1.4970 Y0.8120 
G01 X1.5110 Y0.7980 
G01 X1.5291 Y0.7905 
G00 Z0.1000 
G00 X1.5291 Y0.6905 
G01 Z-0.0070 F10.00 
G01 X1.6108 Y0.6905 F20.00 
G01 X1.6290 Y0.6980 
G01 X1.6430 Y0.7120 
G01 X1.6505 Y0.7301 
G01 X1.6505 Y0.7498 
G01 X1.6430 Y0.7680 
G01 X1.6290 Y0.7820 
G01 X1.6108 Y0.7895 
G01 X1.5291 Y0.7895 
G01 X1.5110 Y0.7820 
G01 X1.4970 Y0.7680 
G01 X1.4895 Y0.7498 
G01 X1.4895 Y0.7301 
G01 X1.4970 Y0.7120 
G01 X1.5110 Y0.6980 
G01 X1.5291 Y0.6905 
G00 Z0.1000 
G00 X1.5291 Y0.5905 
G01 Z-0.0070 F10.00 
G01 X1.6108 Y0.5905 F20.00 
G01 X1.6290 Y0.5980 
G01 X1.6430 Y0.6120 
G01 X1.6505 Y0.6301 
G01 X1.6505 Y0.6498 
G01 X1.6430 Y0.6680 
G01 X1.6290 Y0.6820 
G01 X1.6108 Y0.6895 
G01 X1.5291 Y0.6895 
G01 X1.5110 Y0.6820 
G01 X1.4970 Y0.6680 
G01 X1.4895 Y0.6498 
G01 X1.4895 Y0.6301 
G01 X1.4970 Y0.6120 
G01 X1.5110 Y0.5980 
G01 X1.5291 Y0.5905 
G00 Z0.1000 
G00 X1.5291 Y0.4905 
G01 Z-0.0070 F10.00 
G01 X1.6108 Y0.4905 F20.00 
G01 X1.6290 Y0.4980 
G01 X1.6430 Y0.5120 
G01 X1.6505 Y0.5301 
G01 X1.6505 Y0.5498 
G01 X1.6430 Y0.5680 
G01 X1.6290 Y0.5820 
G01 X1.6108 Y0.5895 
G01 X1.5291 Y0.5895 
G01 X1.5110 Y0.5820 
G01 X1.4970 Y0.5680 
G01 X1.4895 Y0.5498 
G01 X1.4895 Y0.5301 
G01 X1.4970 Y0.5120 
G01 X1.5110 Y0.4980 
G01 X1.5291 Y0.4905 
G00 Z0.1000 
G00 X1.5291 Y0.3905 
G01 Z-0.0070 F10.00 
G01 X1.6108 Y0.3905 F20.00 
G01 X1.6290 Y0.3980 
G01 X1.6430 Y0.4120 
G01 X1.6505 Y0.4301 
G01 X1.6505 Y0.4498 
G01 X1.6430 Y0.4680 
G01 X1.6290 Y0.4820 
G01 X1.6108 Y0.4895 
G01 X1.5291 Y0.4895 
G01 X1.5110 Y0.4820 
G01 X1.4970 Y0.4680 
G01 X1.4895 Y0.4498 
G01 X1.4895 Y0.4301 
G01 X1.4970 Y0.4120 
G01 X1.5110 Y0.3980 
G01 X1.5291 Y0.3905 
G00 Z0.1000 
G00 X1.5291 Y0.2905 
G01 Z-0.0070 F10.00 
G01 X1.6108 Y0.2905 F20.00 
G01 X1.6290 Y0.2980 
G01 X1.6430 Y0.3120 
G01 X1.6505 Y0.3301 
G01 X1.6505 Y0.3498 
G01 X1.6430 Y0.3680 
G01 X1.6290 Y0.3820 
G01 X1.6108 Y0.3895 
G01 X1.5291 Y0.3895 
G01 X1.5110 Y0.3820 
G01 X1.4970 Y0.3680 
G01 X1.4895 Y0.3498 
G01 X1.4895 Y0.3301 
G01 X1.4970 Y0.3120 
G01 X1.5110 Y0.2980 
G01 X1.5291 Y0.2905 
G00 Z0.1000 
G00 X0.8135 Y0.7471 
G01 Z-0.0070 F10.00 
G01 X0.8316 Y0.7396 F20.00 
G01 X0.8513 Y0.7396 
G01 X0.8695 Y0.7471 
G01 X0.8809 Y0.7584 
G01 X0.8922 Y0.7471 
G01 X0.9104 Y0.7396 
G01 X0.9301 Y0.7396 
G01 X0.9483 Y0.7471 
G01 X0.9622 Y0.7610 
G01 X0.9697 Y0.7792 
G01 X0.9697 Y0.8609 
G01 X0.9622 Y0.8791 
G01 X0.9483 Y0.8930 
G01 X0.9301 Y0.9006 
G01 X0.9104 Y0.9006 
G01 X0.8922 Y0.8930 
G01 X0.8809 Y0.8817 
G01 X0.8695 Y0.8930 
G01 X0.8513 Y0.9006 
G01 X0.8316 Y0.9006 
G01 X0.8135 Y0.8930 
G01 X0.8021 Y0.8817 
G01 X0.7908 Y0.8930 
G01 X0.7726 Y0.9006 
G01 X0.7529 Y0.9006 
G01 X0.7347 Y0.8930 
G01 X0.7208 Y0.8791 
G01 X0.7133 Y0.8609 
G01 X0.7133 Y0.7792 
G01 X0.7208 Y0.7610 
G01 X0.7347 Y0.7471 
G01 X0.7529 Y0.7396 
G01 X0.7726 Y0.7396 
G01 X0.7908 Y0.7471 
G01 X0.8021 Y0.7584 
G01 X0.8135 Y0.7471 
G00 Z0.1000 
G00 X0.8302 Y0.7129 
G01 Z-0.0070 F10.00 
G01 X0.8120 Y0.7204 F20.00 
G01 X0.7923 Y0.7204 
G01 X0.7741 Y0.7129 
G01 X0.7628 Y0.7016 
G01 X0.7514 Y0.7129 
G01 X0.7332 Y0.7204 
G01 X0.7135 Y0.7204 
G01 X0.6953 Y0.7129 
G01 X0.6814 Y0.6990 
G01 X0.6739 Y0.6808 
G01 X0.6739 Y0.5991 
G01 X0.6814 Y0.5809 
G01 X0.6953 Y0.5670 
G01 X0.7135 Y0.5594 
G01 X0.7332 Y0.5594 
G01 X0.7514 Y0.5670 
G01 X0.7628 Y0.5783 
G01 X0.7741 Y0.5670 
G01 X0.7923 Y0.5594 
G01 X0.8120 Y0.5594 
G01 X0.8302 Y0.5670 
G01 X0.8415 Y0.5783 
G01 X0.8528 Y0.5670 
G01 X0.8710 Y0.5594 
G01 X0.8907 Y0.5594 
G01 X0.9089 Y0.5670 
G01 X0.9228 Y0.5809 
G01 X0.9304 Y0.5991 
G01 X0.9304 Y0.6808 
G01 X0.9228 Y0.6990 
G01 X0.9089 Y0.7129 
G01 X0.8907 Y0.7204 
G01 X0.8710 Y0.7204 
G01 X0.8528 Y0.7129 
G01 X0.8415 Y0.7016 
G01 X0.8302 Y0.7129 
G00 Z0.1000 
G00 X0.8408 Y0.4195 
G01 Z-0.0070 F10.00 
G01 X0.7591 Y0.4195 F20.00 
G01 X0.7410 Y0.4120 
G01 X0.7270 Y0.3980 
G01 X0.7195 Y0.3798 
G01 X0.7195 Y0.3601 
G01 X0.7270 Y0.3420 
G01 X0.7410 Y0.3280 
G01 X0.7591 Y0.3205 
G01 X0.8408 Y0.3205 
G01 X0.8590 Y0.3280 
G01 X0.8730 Y0.3420 
G01 X0.8805 Y0.3601 
G01 X0.8805 Y0.3798 
G01 X0.8730 Y0.3980 
G01 X0.8590 Y0.4120 
G01 X0.8408 Y0.4195 
G00 Z0.1000 
G00 X1.1408 Y0.3195 
G01 Z-0.0070 F10.00 
G01 X1.0591 Y0.3195 F20.00 
G01 X1.0410 Y0.3120 
G01 X1.0270 Y0.2980 
G01 X1.0195 Y0.2798 
G01 X1.0195 Y0.2601 
G01 X1.0270 Y0.2420 
G01 X1.0410 Y0.2280 
G01 X1.0591 Y0.2205 
G01 X1.1408 Y0.2205 
G01 X1.1590 Y0.2280 
G01 X1.1730 Y0.2420 
G01 X1.1805 Y0.2601 
G01 X1.1805 Y0.2798 
G01 X1.1730 Y0.2980 
G01 X1.1590 Y0.3120 
G01 X1.1408 Y0.3195 
G00 Z0.1000 
G00 X0.6408 Y0.3195 
G01 Z-0.0070 F10.00 
G01 X0.5591 Y0.3195 F20.00 
G01 X0.5410 Y0.3120 
G01 X0.5270 Y0.2980 
G01 X0.5195 Y0.2798 
G01 X0.5195 Y0.2601 
G01 X0.5270 Y0.2420 
G01 X0.5410 Y0.2280 
G01 X0.5591 Y0.2205 
G01 X0.6408 Y0.2205 
G01 X0.6590 Y0.2280 
G01 X0.6730 Y0.2420 
G01 X0.6805 Y0.2601 
G01 X0.6805 Y0.2798 
G01 X0.6730 Y0.2980 
G01 X0.6590 Y0.3120 
G01 X0.6408 Y0.3195 
G00 Z0.1000 
G00 X2.1091 Y0.1005 
G01 Z-0.0070 F10.00 
G01 X2.1908 Y0.1005 F20.00 
G01 X2.2090 Y0.1080 
G01 X2.2230 Y0.1220 
G01 X2.2305 Y0.1401 
G01 X2.2305 Y0.1598 
G01 X2.2230 Y0.1780 
G01 X2.2090 Y0.1920 
G01 X2.1908 Y0.1995 
G01 X2.1091 Y0.1995 
G01 X2.0910 Y0.1920 
G01 X2.0770 Y0.1780 
G01 X2.0695 Y0.1598 
G01 X2.0695 Y0.1401 
G01 X2.0770 Y0.1220 
G01 X2.0910 Y0.1080 
G01 X2.1091 Y0.1005 
G00 Z0.1000 
G00 X2.1091 Y0.2005 
G01 Z-0.0070 F10.00 
G01 X2.1908 Y0.2005 F20.00 
G01 X2.2090 Y0.2080 
G01 X2.2230 Y0.2220 
G01 X2.2305 Y0.2401 
G01 X2.2305 Y0.2598 
G01 X2.2230 Y0.2780 
G01 X2.2090 Y0.2920 
G01 X2.1908 Y0.2995 
G01 X2.1091 Y0.2995 
G01 X2.0910 Y0.2920 
G01 X2.0770 Y0.2780 
G01 X2.0695 Y0.2598 
G01 X2.0695 Y0.2401 
G01 X2.0770 Y0.2220 
G01 X2.0910 Y0.2080 
G01 X2.1091 Y0.2005 
G00 Z0.1000 
G00 X2.1091 Y0.3005 
G01 Z-0.0070 F10.00 
G01 X2.1908 Y0.3005 F20.00 
G01 X2.2090 Y0.3080 
G01 X2.2230 Y0.3220 
G01 X2.2305 Y0.3401 
G01 X2.2305 Y0.3598 
G01 X2.2230 Y0.3780 
G01 X2.2090 Y0.3920 
G01 X2.1908 Y0.3995 
G01 X2.1091 Y0.3995 
G01 X2.0910 Y0.3920 
G01 X2.0770 Y0.3780 
G01 X2.0695 Y0.3598 
G01 X2.0695 Y0.3401 
G01 X2.0770 Y0.3220 
G01 X2.0910 Y0.3080 
G01 X2.1091 Y0.3005 
G00 Z0.1000 
G00 X1.8091 Y0.3005 
G01 Z-0.0070 F10.00 
G01 X1.8908 Y0.3005 F20.00 
G01 X1.9090 Y0.3080 
G01 X1.9230 Y0.3220 
G01 X1.9305 Y0.3401 
G01 X1.9305 Y0.3598 
G01 X1.9230 Y0.3780 
G01 X1.9090 Y0.3920 
G01 X1.8908 Y0.3995 
G01 X1.8091 Y0.3995 
G01 X1.7910 Y0.3920 
G01 X1.7770 Y0.3780 
G01 X1.7695 Y0.3598 
G01 X1.7695 Y0.3401 
G01 X1.7770 Y0.3220 
G01 X1.7910 Y0.3080 
G01 X1.8091 Y0.3005 
G00 Z0.1000 
G00 X1.8091 Y0.2005 
G01 Z-0.0070 F10.00 
G01 X1.8908 Y0.2005 F20.00 
G01 X1.9090 Y0.2080 
G01 X1.9230 Y0.2220 
G01 X1.9305 Y0.2401 
G01 X1.9305 Y0.2598 
G01 X1.9230 Y0.2780 
G01 X1.9090 Y0.2920 
G01 X1.8908 Y0.2995 
G01 X1.8091 Y0.2995 
G01 X1.7910 Y0.2920 
G01 X1.7770 Y0.2780 
G01 X1.7695 Y0.2598 
G01 X1.7695 Y0.2401 
G01 X1.7770 Y0.2220 
G01 X1.7910 Y0.2080 
G01 X1.8091 Y0.2005 
G00 Z0.1000 
G00 X1.8091 Y0.1005 
G01 Z-0.0070 F10.00 
G01 X1.8908 Y0.1005 F20.00 
G01 X1.9090 Y0.1080 
G01 X1.9230 Y0.1220 
G01 X1.9305 Y0.1401 
G01 X1.9305 Y0.1598 
G01 X1.9230 Y0.1780 
G01 X1.9090 Y0.1920 
G01 X1.8908 Y0.1995 
G01 X1.8091 Y0.1995 
G01 X1.7910 Y0.1920 
G01 X1.7770 Y0.1780 
G01 X1.7695 Y0.1598 
G01 X1.7695 Y0.1401 
G01 X1.7770 Y0.1220 
G01 X1.7910 Y0.1080 
G01 X1.8091 Y0.1005 
G00 Z0.1000 
G00 X1.8495 Y0.6595 
G01 Z-0.0070 F10.00 
G01 X1.8495 Y0.7005 F20.00 
G01 X1.8205 Y0.7295 
G01 X1.7795 Y0.7295 
G01 X1.7505 Y0.7005 
G01 X1.7505 Y0.6595 
G01 X1.7795 Y0.6305 
G01 X1.8205 Y0.6305 
G01 X1.8495 Y0.6595 
G00 Z0.1000 
G00 X1.8495 Y0.4595 
G01 Z-0.0070 F10.00 
G01 X1.8495 Y0.5005 F20.00 
G01 X1.8205 Y0.5295 
G01 X1.7795 Y0.5295 
G01 X1.7505 Y0.5005 
G01 X1.7505 Y0.4595 
G01 X1.7795 Y0.4305 
G01 X1.8205 Y0.4305 
G01 X1.8495 Y0.4595 
G00 Z0.1000 
G00 X1.9695 Y0.6595 
G01 Z-0.0070 F10.00 
G01 X1.9695 Y0.7005 F20.00 
G01 X1.9405 Y0.7295 
G01 X1.8995 Y0.7295 
G01 X1.8705 Y0.7005 
G01 X1.8705 Y0.6595 
G01 X1.8995 Y0.6305 
G01 X1.9405 Y0.6305 
G01 X1.9695 Y0.6595 
G00 Z0.1000 
G00 X1.9695 Y0.4595 
G01 Z-0.0070 F10.00 
G01 X1.9695 Y0.5005 F20.00 
G01 X1.9405 Y0.5295 
G01 X1.8995 Y0.5295 
G01 X1.8705 Y0.5005 
G01 X1.8705 Y0.4595 
G01 X1.8995 Y0.4305 
G01 X1.9405 Y0.4305 
G01 X1.9695 Y0.4595 
G00 Z0.1000 
G00 X2.0895 Y0.6595 
G01 Z-0.0070 F10.00 
G01 X2.0895 Y0.7005 F20.00 
G01 X2.0605 Y0.7295 
G01 X2.0195 Y0.7295 
G01 X1.9905 Y0.7005 
G01 X1.9905 Y0.6595 
G01 X2.0195 Y0.6305 
G01 X2.0605 Y0.6305 
G01 X2.0895 Y0.6595 
G00 Z0.1000 
G00 X2.0895 Y0.4595 
G01 Z-0.0070 F10.00 
G01 X2.0895 Y0.5005 F20.00 
G01 X2.0605 Y0.5295 
G01 X2.0195 Y0.5295 
G01 X1.9905 Y0.5005 
G01 X1.9905 Y0.4595 
G01 X2.0195 Y0.4305 
G01 X2.0605 Y0.4305 
G01 X2.0895 Y0.4595 
G00 Z0.1000 
G00 X1.3195 Y0.2095 
G01 Z-0.0070 F10.00 
G01 X1.3195 Y0.2505 F20.00 
G01 X1.2905 Y0.2795 
G01 X1.2495 Y0.2795 
G01 X1.2205 Y0.2505 
G01 X1.2205 Y0.2095 
G01 X1.2495 Y0.1805 
G01 X1.2905 Y0.1805 
G01 X1.3195 Y0.2095 
G00 Z0.1000 
G00 X1.4195 Y0.2095 
G01 Z-0.0070 F10.00 
G01 X1.4195 Y0.2505 F20.00 
G01 X1.3905 Y0.2795 
G01 X1.3495 Y0.2795 
G01 X1.3205 Y0.2505 
G01 X1.3205 Y0.2095 
G01 X1.3495 Y0.1805 
G01 X1.3905 Y0.1805 
G01 X1.4195 Y0.2095 
G00 Z0.1000 
G00 X2.3685 Y1.0016 
G01 Z-0.0070 F10.00 
G01 X2.3685 Y1.0584 F20.00 
G01 X2.3284 Y1.0985 
G01 X2.2716 Y1.0985 
G01 X2.2315 Y1.0584 
G01 X2.2315 Y1.0016 
G01 X2.2716 Y0.9615 
G01 X2.3284 Y0.9615 
G01 X2.3685 Y1.0016 
G00 Z0.1000 
G00 X2.0685 Y1.0016 
G01 Z-0.0070 F10.00 
G01 X2.0685 Y1.0584 F20.00 
G01 X2.0284 Y1.0985 
G01 X1.9716 Y1.0985 
G01 X1.9315 Y1.0584 
G01 X1.9315 Y1.0016 
G01 X1.9716 Y0.9615 
G01 X2.0284 Y0.9615 
G01 X2.0685 Y1.0016 
G00 Z0.1000 
G00 X0.5595 Y0.9795 
G01 Z-0.0070 F10.00 
G01 X0.5595 Y1.0205 F20.00 
G01 X0.5305 Y1.0495 
G01 X0.4895 Y1.0495 
G01 X0.4605 Y1.0205 
G01 X0.4605 Y0.9795 
G01 X0.4895 Y0.9505 
G01 X0.5305 Y0.9505 
G01 X0.5595 Y0.9795 
G00 Z0.1000 
G00 X0.4595 Y0.9795 
G01 Z-0.0070 F10.00 
G01 X0.4595 Y1.0205 F20.00 
G01 X0.4305 Y1.0495 
G01 X0.3895 Y1.0495 
G01 X0.3605 Y1.0205 
G01 X0.3605 Y0.9795 
G01 X0.3895 Y0.9505 
G01 X0.4305 Y0.9505 
G01 X0.4595 Y0.9795 
G00 Z0.1000 
G00 X1.4395 Y1.1495 
G01 Z-0.0070 F10.00 
G01 X1.4395 Y1.1905 F20.00 
G01 X1.4345 Y1.1955 
G01 X1.4455 Y1.1955 
G01 X1.4405 Y1.1905 
G01 X1.4405 Y1.1495 
G01 X1.4695 Y1.1205 
G01 X1.5105 Y1.1205 
G01 X1.5395 Y1.1495 
G01 X1.5395 Y1.1905 
G01 X1.5105 Y1.2195 
G01 X1.4845 Y1.2195 
G01 X1.4895 Y1.2245 
G01 X1.4895 Y1.2655 
G01 X1.4605 Y1.2945 
G01 X1.4195 Y1.2945 
G01 X1.3905 Y1.2655 
G01 X1.3905 Y1.2245 
G01 X1.3955 Y1.2195 
G01 X1.3695 Y1.2195 
G01 X1.3405 Y1.1905 
G01 X1.3405 Y1.1495 
G01 X1.3695 Y1.1205 
G01 X1.4105 Y1.1205 
G01 X1.4395 Y1.1495 
G00 Z0.1000 
G00 X1.1648 Y1.2321 
G01 Z-0.0070 F10.00 
G01 X1.1422 Y1.2415 F20.00 
G01 X1.1178 Y1.2415 
G01 X1.0952 Y1.2321 
G01 X1.0779 Y1.2148 
G01 X1.0685 Y1.1922 
G01 X1.0685 Y1.1678 
G01 X1.0779 Y1.1452 
G01 X1.0952 Y1.1279 
G01 X1.1178 Y1.1185 
G01 X1.1422 Y1.1185 
G01 X1.1648 Y1.1279 
G01 X1.1800 Y1.1430 
G01 X1.2045 Y1.1185 
G01 X1.2555 Y1.1185 
G01 X1.2915 Y1.1545 
G01 X1.2915 Y1.2055 
G01 X1.2555 Y1.2415 
G01 X1.2045 Y1.2415 
G01 X1.1800 Y1.2170 
G01 X1.1648 Y1.2321 
G00 Z0.1000 
G00 X0.2400 Y0.8531 
G01 Z-0.0070 F10.00 
G01 X0.2431 Y0.8500 F20.00 
G01 X0.2400 Y0.8469 
G01 X0.2369 Y0.8500 
G01 X0.2400 Y0.8531 
G00 Z0.1000 
G00 X0.2400 Y0.6531 
G01 Z-0.0070 F10.00 
G01 X0.2431 Y0.6500 F20.00 
G01 X0.2400 Y0.6469 
G01 X0.2369 Y0.6500 
G01 X0.2400 Y0.6531 
G00 Z0.1000 
G00 X0.2400 Y0.4531 
G01 Z-0.0070 F10.00 
G01 X0.2431 Y0.4500 F20.00 
G01 X0.2400 Y0.4469 
G01 X0.2369 Y0.4500 
G01 X0.2400 Y0.4531 
G00 Z0.1000 
G00 X0.2400 Y0.5531 
G01 Z-0.0070 F10.00 
G01 X0.2431 Y0.5500 F20.00 
G01 X0.2400 Y0.5469 
G01 X0.2369 Y0.5500 
G01 X0.2400 Y0.5531 
G00 Z0.1000 
G00 X0.2400 Y0.7531 
G01 Z-0.0070 F10.00 
G01 X0.2431 Y0.7500 F20.00 
G01 X0.2400 Y0.7469 
G01 X0.2369 Y0.7500 
G01 X0.2400 Y0.7531 
G00 Z0.1000 
G00 X0.2400 Y0.9531 
G01 Z-0.0070 F10.00 
G01 X0.2431 Y0.9500 F20.00 
G01 X0.2400 Y0.9469 
G01 X0.2369 Y0.9500 
G01 X0.2400 Y0.9531 
G00 Z0.1000 
G00 X0.7628 Y0.7228 
G01 Z-0.0070 F10.00 
G01 X0.7610 Y0.7246 F20.00 
G01 X0.7645 Y0.7246 
G01 X0.7628 Y0.7228 
G00 Z0.1000 
G00 X0.8039 Y0.7354 
G01 Z-0.0070 F10.00 
G01 X0.8004 Y0.7354 F20.00 
G01 X0.8021 Y0.7372 
G01 X0.8039 Y0.7354 
G00 Z0.1000 
G00 X0.8791 Y0.7354 
G01 Z-0.0070 F10.00 
G01 X0.8809 Y0.7372 F20.00 
G01 X0.8826 Y0.7354 
G01 X0.8791 Y0.7354 
G00 Z0.1000 
G00 X0.8397 Y0.7246 
G01 Z-0.0070 F10.00 
G01 X0.8433 Y0.7246 F20.00 
G01 X0.8415 Y0.7228 
G01 X0.8397 Y0.7246 
G00 Z0.1000 
G00 X1.3152 Y0.2761 
G01 Z-0.0070 F10.00 
G01 X1.3317 Y0.2829 F20.00 
G01 X1.3200 Y0.2712 
G01 X1.3152 Y0.2761 
G00 Z0.1000 
G00 X1.8265 Y1.2048 
G01 Z-0.0070 F10.00 
G01 X1.8265 Y1.2352 F20.00 
G01 X1.8149 Y1.2633 
G01 X1.7933 Y1.2849 
G01 X1.7652 Y1.2965 
G01 X1.7348 Y1.2965 
G01 X1.7067 Y1.2849 
G01 X1.6851 Y1.2633 
G01 X1.6735 Y1.2352 
G01 X1.6735 Y1.2048 
G01 X1.6851 Y1.1767 
G01 X1.6918 Y1.1700 
G01 X1.6735 Y1.1517 
G01 X1.6735 Y1.0883 
G01 X1.7183 Y1.0435 
G01 X1.7817 Y1.0435 
G01 X1.8265 Y1.0883 
G01 X1.8265 Y1.1517 
G01 X1.8082 Y1.1700 
G01 X1.8149 Y1.1767 
G01 X1.8265 Y1.2048 
G00 Z0.1000 
G00 X1.5045 Y1.2717 
G01 Z-0.0070 F10.00 
G01 X1.4667 Y1.3095 F20.00 
G01 X1.4133 Y1.3095 
G01 X1.3755 Y1.2717 
G01 X1.3755 Y1.2345 
G01 X1.3633 Y1.2345 
G01 X1.3255 Y1.1967 
G01 X1.3255 Y1.1433 
G01 X1.3633 Y1.1055 
G01 X1.4167 Y1.1055 
G01 X1.4400 Y1.1288 
G01 X1.4633 Y1.1055 
G01 X1.5167 Y1.1055 
G01 X1.5545 Y1.1433 
G01 X1.5545 Y1.1967 
G01 X1.5167 Y1.2345 
G01 X1.5045 Y1.2345 
G01 X1.5045 Y1.2717 
G00 Z0.1000 
G00 X0.8438 Y0.4345 
G01 Z-0.0070 F10.00 
G01 X0.7562 Y0.4345 F20.00 
G01 X0.7325 Y0.4247 
G01 X0.7143 Y0.4065 
G01 X0.7045 Y0.3828 
G01 X0.7045 Y0.3572 
G01 X0.7143 Y0.3335 
G01 X0.7325 Y0.3153 
G01 X0.7562 Y0.3055 
G01 X0.8438 Y0.3055 
G01 X0.8675 Y0.3153 
G01 X0.8857 Y0.3335 
G01 X0.8955 Y0.3572 
G01 X0.8955 Y0.3828 
G01 X0.8857 Y0.4065 
G01 X0.8675 Y0.4247 
G01 X0.8438 Y0.4345 
G00 Z0.1000 
G00 X0.8780 Y0.9057 
G01 Z-0.0070 F10.00 
G01 X0.8543 Y0.9156 F20.00 
G01 X0.8287 Y0.9156 
G01 X0.8050 Y0.9057 
G01 X0.8021 Y0.9029 
G01 X0.7993 Y0.9057 
G01 X0.7756 Y0.9156 
G01 X0.7499 Y0.9156 
G01 X0.7262 Y0.9057 
G01 X0.7081 Y0.8876 
G01 X0.6983 Y0.8639 
G01 X0.6983 Y0.7762 
G01 X0.7081 Y0.7525 
G01 X0.7252 Y0.7354 
G01 X0.7106 Y0.7354 
G01 X0.6868 Y0.7256 
G01 X0.6687 Y0.7075 
G01 X0.6589 Y0.6838 
G01 X0.6589 Y0.5961 
G01 X0.6687 Y0.5724 
G01 X0.6868 Y0.5543 
G01 X0.7106 Y0.5444 
G01 X0.7362 Y0.5444 
G01 X0.7599 Y0.5543 
G01 X0.7628 Y0.5571 
G01 X0.7656 Y0.5543 
G01 X0.7893 Y0.5444 
G01 X0.8150 Y0.5444 
G01 X0.8387 Y0.5543 
G01 X0.8415 Y0.5571 
G01 X0.8443 Y0.5543 
G01 X0.8680 Y0.5444 
G01 X0.8937 Y0.5444 
G01 X0.9174 Y0.5543 
G01 X0.9355 Y0.5724 
G01 X0.9454 Y0.5961 
G01 X0.9454 Y0.6838 
G01 X0.9355 Y0.7075 
G01 X0.9185 Y0.7246 
G01 X0.9331 Y0.7246 
G01 X0.9568 Y0.7344 
G01 X0.9749 Y0.7525 
G01 X0.9847 Y0.7762 
G01 X0.9847 Y0.8639 
G01 X0.9749 Y0.8876 
G01 X0.9568 Y0.9057 
G01 X0.9331 Y0.9156 
G01 X0.9074 Y0.9156 
G01 X0.8837 Y0.9057 
G01 X0.8809 Y0.9029 
G01 X0.8780 Y0.9057 
G00 Z0.1000 
G00 X1.5262 Y0.2755 
G01 Z-0.0070 F10.00 
G01 X1.6138 Y0.2755 F20.00 
G01 X1.6375 Y0.2853 
G01 X1.6557 Y0.3035 
G01 X1.6655 Y0.3272 
G01 X1.6655 Y0.3528 
G01 X1.6557 Y0.3765 
G01 X1.6422 Y0.3900 
G01 X1.6557 Y0.4035 
G01 X1.6655 Y0.4272 
G01 X1.6655 Y0.4528 
G01 X1.6557 Y0.4765 
G01 X1.6422 Y0.4900 
G01 X1.6557 Y0.5035 
G01 X1.6655 Y0.5272 
G01 X1.6655 Y0.5528 
G01 X1.6557 Y0.5765 
G01 X1.6422 Y0.5900 
G01 X1.6557 Y0.6035 
G01 X1.6655 Y0.6272 
G01 X1.6655 Y0.6528 
G01 X1.6557 Y0.6765 
G01 X1.6422 Y0.6900 
G01 X1.6557 Y0.7035 
G01 X1.6655 Y0.7272 
G01 X1.6655 Y0.7528 
G01 X1.6557 Y0.7765 
G01 X1.6422 Y0.7900 
G01 X1.6557 Y0.8035 
G01 X1.6655 Y0.8272 
G01 X1.6655 Y0.8528 
G01 X1.6557 Y0.8765 
G01 X1.6422 Y0.8900 
G01 X1.6557 Y0.9035 
G01 X1.6655 Y0.9272 
G01 X1.6655 Y0.9528 
G01 X1.6557 Y0.9765 
G01 X1.6422 Y0.9900 
G01 X1.6557 Y1.0035 
G01 X1.6655 Y1.0272 
G01 X1.6655 Y1.0528 
G01 X1.6557 Y1.0765 
G01 X1.6375 Y1.0947 
G01 X1.6138 Y1.1045 
G01 X1.5262 Y1.1045 
G01 X1.5025 Y1.0947 
G01 X1.4843 Y1.0765 
G01 X1.4745 Y1.0528 
G01 X1.4745 Y1.0272 
G01 X1.4843 Y1.0035 
G01 X1.4978 Y0.9900 
G01 X1.4843 Y0.9765 
G01 X1.4745 Y0.9528 
G01 X1.4745 Y0.9272 
G01 X1.4843 Y0.9035 
G01 X1.4978 Y0.8900 
G01 X1.4843 Y0.8765 
G01 X1.4745 Y0.8528 
G01 X1.4745 Y0.8272 
G01 X1.4843 Y0.8035 
G01 X1.4978 Y0.7900 
G01 X1.4843 Y0.7765 
G01 X1.4745 Y0.7528 
G01 X1.4745 Y0.7272 
G01 X1.4843 Y0.7035 
G01 X1.4978 Y0.6900 
G01 X1.4843 Y0.6765 
G01 X1.4745 Y0.6528 
G01 X1.4745 Y0.6272 
G01 X1.4843 Y0.6035 
G01 X1.4978 Y0.5900 
G01 X1.4843 Y0.5765 
G01 X1.4745 Y0.5528 
G01 X1.4745 Y0.5272 
G01 X1.4843 Y0.5035 
G01 X1.4978 Y0.4900 
G01 X1.4843 Y0.4765 
G01 X1.4745 Y0.4528 
G01 X1.4745 Y0.4272 
G01 X1.4843 Y0.4035 
G01 X1.4978 Y0.3900 
G01 X1.4843 Y0.3765 
G01 X1.4745 Y0.3528 
G01 X1.4745 Y0.3272 
G01 X1.4843 Y0.3035 
G01 X1.5025 Y0.2853 
G01 X1.5262 Y0.2755 
G00 Z0.1000 
G00 X0.6438 Y0.3345 
G01 Z-0.0070 F10.00 
G01 X0.5562 Y0.3345 F20.00 
G01 X0.5325 Y0.3247 
G01 X0.5143 Y0.3065 
G01 X0.5045 Y0.2828 
G01 X0.5045 Y0.2572 
G01 X0.5143 Y0.2335 
G01 X0.5325 Y0.2153 
G01 X0.5562 Y0.2055 
G01 X0.6438 Y0.2055 
G01 X0.6675 Y0.2153 
G01 X0.6857 Y0.2335 
G01 X0.6955 Y0.2572 
G01 X0.6955 Y0.2828 
G01 X0.6857 Y0.3065 
G01 X0.6675 Y0.3247 
G01 X0.6438 Y0.3345 
G00 Z0.1000 
G00 X2.1062 Y0.0855 
G01 Z-0.0070 F10.00 
G01 X2.1938 Y0.0855 F20.00 
G01 X2.2175 Y0.0953 
G01 X2.2357 Y0.1135 
G01 X2.2455 Y0.1372 
G01 X2.2455 Y0.1628 
G01 X2.2357 Y0.1865 
G01 X2.2222 Y0.2000 
G01 X2.2357 Y0.2135 
G01 X2.2455 Y0.2372 
G01 X2.2455 Y0.2628 
G01 X2.2357 Y0.2865 
G01 X2.2222 Y0.3000 
G01 X2.2357 Y0.3135 
G01 X2.2455 Y0.3372 
G01 X2.2455 Y0.3628 
G01 X2.2357 Y0.3865 
G01 X2.2175 Y0.4047 
G01 X2.1938 Y0.4145 
G01 X2.1062 Y0.4145 
G01 X2.0825 Y0.4047 
G01 X2.0643 Y0.3865 
G01 X2.0545 Y0.3628 
G01 X2.0545 Y0.3372 
G01 X2.0643 Y0.3135 
G01 X2.0778 Y0.3000 
G01 X2.0643 Y0.2865 
G01 X2.0545 Y0.2628 
G01 X2.0545 Y0.2372 
G01 X2.0643 Y0.2135 
G01 X2.0778 Y0.2000 
G01 X2.0643 Y0.1865 
G01 X2.0545 Y0.1628 
G01 X2.0545 Y0.1372 
G01 X2.0643 Y0.1135 
G01 X2.0825 Y0.0953 
G01 X2.1062 Y0.0855 
G00 Z0.1000 
G00 X1.9357 Y0.3135 
G01 Z-0.0070 F10.00 
G01 X1.9455 Y0.3372 F20.00 
G01 X1.9455 Y0.3628 
G01 X1.9357 Y0.3865 
G01 X1.9175 Y0.4047 
G01 X1.8938 Y0.4145 
G01 X1.8062 Y0.4145 
G01 X1.7825 Y0.4047 
G01 X1.7643 Y0.3865 
G01 X1.7545 Y0.3628 
G01 X1.7545 Y0.3372 
G01 X1.7643 Y0.3135 
G01 X1.7778 Y0.3000 
G01 X1.7643 Y0.2865 
G01 X1.7545 Y0.2628 
G01 X1.7545 Y0.2372 
G01 X1.7643 Y0.2135 
G01 X1.7778 Y0.2000 
G01 X1.7643 Y0.1865 
G01 X1.7545 Y0.1628 
G01 X1.7545 Y0.1372 
G01 X1.7643 Y0.1135 
G01 X1.7825 Y0.0953 
G01 X1.8062 Y0.0855 
G01 X1.8938 Y0.0855 
G01 X1.9175 Y0.0953 
G01 X1.9357 Y0.1135 
G01 X1.9455 Y0.1372 
G01 X1.9455 Y0.1628 
G01 X1.9357 Y0.1865 
G01 X1.9222 Y0.2000 
G01 X1.9357 Y0.2135 
G01 X1.9455 Y0.2372 
G01 X1.9455 Y0.2628 
G01 X1.9357 Y0.2865 
G01 X1.9222 Y0.3000 
G01 X1.9357 Y0.3135 
G00 Z0.1000 
G00 X1.8267 Y0.7445 
G01 Z-0.0070 F10.00 
G01 X1.7733 Y0.7445 F20.00 
G01 X1.7355 Y0.7067 
G01 X1.7355 Y0.6533 
G01 X1.7733 Y0.6155 
G01 X1.8267 Y0.6155 
G01 X1.8600 Y0.6488 
G01 X1.8933 Y0.6155 
G01 X1.9467 Y0.6155 
G01 X1.9800 Y0.6488 
G01 X2.0133 Y0.6155 
G01 X2.0667 Y0.6155 
G01 X2.1045 Y0.6533 
G01 X2.1045 Y0.7067 
G01 X2.0667 Y0.7445 
G01 X2.0133 Y0.7445 
G01 X1.9800 Y0.7112 
G01 X1.9467 Y0.7445 
G01 X1.8933 Y0.7445 
G01 X1.8600 Y0.7112 
G01 X1.8267 Y0.7445 
G00 Z0.1000 
G00 X1.8267 Y0.5445 
G01 Z-0.0070 F10.00 
G01 X1.7733 Y0.5445 F20.00 
G01 X1.7355 Y0.5067 
G01 X1.7355 Y0.4533 
G01 X1.7733 Y0.4155 
G01 X1.8267 Y0.4155 
G01 X1.8600 Y0.4488 
G01 X1.8933 Y0.4155 
G01 X1.9467 Y0.4155 
G01 X1.9800 Y0.4488 
G01 X2.0133 Y0.4155 
G01 X2.0667 Y0.4155 
G01 X2.1045 Y0.4533 
G01 X2.1045 Y0.5067 
G01 X2.0667 Y0.5445 
G01 X2.0133 Y0.5445 
G01 X1.9800 Y0.5112 
G01 X1.9467 Y0.5445 
G01 X1.8933 Y0.5445 
G01 X1.8600 Y0.5112 
G01 X1.8267 Y0.5445 
G00 Z0.1000 
G00 X2.3835 Y0.9954 
G01 Z-0.0070 F10.00 
G01 X2.3835 Y1.0646 F20.00 
G01 X2.3346 Y1.1135 
G01 X2.2654 Y1.1135 
G01 X2.2165 Y1.0646 
G01 X2.2165 Y0.9954 
G01 X2.2654 Y0.9465 
G01 X2.3346 Y0.9465 
G01 X2.3835 Y0.9954 
G00 Z0.1000 
G00 X2.0835 Y0.9954 
G01 Z-0.0070 F10.00 
G01 X2.0835 Y1.0646 F20.00 
G01 X2.0346 Y1.1135 
G01 X1.9654 Y1.1135 
G01 X1.9165 Y1.0646 
G01 X1.9165 Y0.9954 
G01 X1.9654 Y0.9465 
G01 X2.0346 Y0.9465 
G01 X2.0835 Y0.9954 
G00 Z0.1000 
G00 X0.5745 Y0.9733 
G01 Z-0.0070 F10.00 
G01 X0.5745 Y1.0267 F20.00 
G01 X0.5367 Y1.0645 
G01 X0.4833 Y1.0645 
G01 X0.4600 Y1.0412 
G01 X0.4367 Y1.0645 
G01 X0.3833 Y1.0645 
G01 X0.3528 Y1.0340 
G01 X0.3184 Y1.0685 
G01 X0.2616 Y1.0685 
G01 X0.2400 Y1.0469 
G01 X0.2184 Y1.0685 
G01 X0.1616 Y1.0685 
G01 X0.1215 Y1.0284 
G01 X0.1215 Y0.9716 
G01 X0.1431 Y0.9500 
G01 X0.1215 Y0.9284 
G01 X0.1215 Y0.8716 
G01 X0.1431 Y0.8500 
G01 X0.1215 Y0.8284 
G01 X0.1215 Y0.7716 
G01 X0.1431 Y0.7500 
G01 X0.1215 Y0.7284 
G01 X0.1215 Y0.6716 
G01 X0.1431 Y0.6500 
G01 X0.1215 Y0.6284 
G01 X0.1215 Y0.5716 
G01 X0.1431 Y0.5500 
G01 X0.1215 Y0.5284 
G01 X0.1215 Y0.4716 
G01 X0.1431 Y0.4500 
G01 X0.1215 Y0.4284 
G01 X0.1215 Y0.3716 
G01 X0.1616 Y0.3315 
G01 X0.2184 Y0.3315 
G01 X0.2400 Y0.3531 
G01 X0.2616 Y0.3315 
G01 X0.3184 Y0.3315 
G01 X0.3585 Y0.3716 
G01 X0.3585 Y0.4284 
G01 X0.3369 Y0.4500 
G01 X0.3585 Y0.4716 
G01 X0.3585 Y0.5284 
G01 X0.3369 Y0.5500 
G01 X0.3585 Y0.5716 
G01 X0.3585 Y0.6284 
G01 X0.3369 Y0.6500 
G01 X0.3585 Y0.6716 
G01 X0.3585 Y0.7284 
G01 X0.3369 Y0.7500 
G01 X0.3585 Y0.7716 
G01 X0.3585 Y0.8284 
G01 X0.3369 Y0.8500 
G01 X0.3585 Y0.8716 
G01 X0.3585 Y0.9284 
G01 X0.3369 Y0.9500 
G01 X0.3528 Y0.9660 
G01 X0.3833 Y0.9355 
G01 X0.4367 Y0.9355 
G01 X0.4600 Y0.9588 
G01 X0.4833 Y0.9355 
G01 X0.5367 Y0.9355 
G01 X0.5745 Y0.9733 
G00 Z0.1000 
G00 X1.1733 Y1.2449 
G01 Z-0.0070 F10.00 
G01 X1.1452 Y1.2565 F20.00 
G01 X1.1148 Y1.2565 
G01 X1.0867 Y1.2449 
G01 X1.0651 Y1.2233 
G01 X1.0535 Y1.1952 
G01 X1.0535 Y1.1648 
G01 X1.0651 Y1.1367 
G01 X1.0867 Y1.1151 
G01 X1.1148 Y1.1035 
G01 X1.1452 Y1.1035 
G01 X1.1733 Y1.1151 
G01 X1.1800 Y1.1218 
G01 X1.1983 Y1.1035 
G01 X1.2238 Y1.1035 
G01 X1.2025 Y1.0947 
G01 X1.1843 Y1.0765 
G01 X1.1745 Y1.0528 
G01 X1.1745 Y1.0272 
G01 X1.1843 Y1.0035 
G01 X1.1978 Y0.9900 
G01 X1.1843 Y0.9765 
G01 X1.1745 Y0.9528 
G01 X1.1745 Y0.9272 
G01 X1.1843 Y0.9035 
G01 X1.1978 Y0.8900 
G01 X1.1843 Y0.8765 
G01 X1.1745 Y0.8528 
G01 X1.1745 Y0.8272 
G01 X1.1843 Y0.8035 
G01 X1.1978 Y0.7900 
G01 X1.1843 Y0.7765 
G01 X1.1745 Y0.7528 
G01 X1.1745 Y0.7272 
G01 X1.1843 Y0.7035 
G01 X1.1978 Y0.6900 
G01 X1.1843 Y0.6765 
G01 X1.1745 Y0.6528 
G01 X1.1745 Y0.6272 
G01 X1.1843 Y0.6035 
G01 X1.1978 Y0.5900 
G01 X1.1843 Y0.5765 
G01 X1.1745 Y0.5528 
G01 X1.1745 Y0.5272 
G01 X1.1843 Y0.5035 
G01 X1.1978 Y0.4900 
G01 X1.1843 Y0.4765 
G01 X1.1745 Y0.4528 
G01 X1.1745 Y0.4272 
G01 X1.1843 Y0.4035 
G01 X1.1978 Y0.3900 
G01 X1.1843 Y0.3765 
G01 X1.1745 Y0.3528 
G01 X1.1745 Y0.3272 
G01 X1.1812 Y0.3110 
G01 X1.1675 Y0.3247 
G01 X1.1438 Y0.3345 
G01 X1.0562 Y0.3345 
G01 X1.0325 Y0.3247 
G01 X1.0143 Y0.3065 
G01 X1.0045 Y0.2828 
G01 X1.0045 Y0.2572 
G01 X1.0143 Y0.2335 
G01 X1.0325 Y0.2153 
G01 X1.0562 Y0.2055 
G01 X1.1438 Y0.2055 
G01 X1.1675 Y0.2153 
G01 X1.1857 Y0.2335 
G01 X1.1955 Y0.2572 
G01 X1.1955 Y0.2828 
G01 X1.1888 Y0.2990 
G01 X1.2025 Y0.2853 
G01 X1.2248 Y0.2761 
G01 X1.2055 Y0.2567 
G01 X1.2055 Y0.2033 
G01 X1.2433 Y0.1655 
G01 X1.2967 Y0.1655 
G01 X1.3200 Y0.1888 
G01 X1.3433 Y0.1655 
G01 X1.3967 Y0.1655 
G01 X1.4345 Y0.2033 
G01 X1.4345 Y0.2567 
G01 X1.3967 Y0.2945 
G01 X1.3467 Y0.2945 
G01 X1.3557 Y0.3035 
G01 X1.3655 Y0.3272 
G01 X1.3655 Y0.3528 
G01 X1.3557 Y0.3765 
G01 X1.3422 Y0.3900 
G01 X1.3557 Y0.4035 
G01 X1.3655 Y0.4272 
G01 X1.3655 Y0.4528 
G01 X1.3557 Y0.4765 
G01 X1.3422 Y0.4900 
G01 X1.3557 Y0.5035 
G01 X1.3655 Y0.5272 
G01 X1.3655 Y0.5528 
G01 X1.3557 Y0.5765 
G01 X1.3422 Y0.5900 
G01 X1.3557 Y0.6035 
G01 X1.3655 Y0.6272 
G01 X1.3655 Y0.6528 
G01 X1.3557 Y0.6765 
G01 X1.3422 Y0.6900 
G01 X1.3557 Y0.7035 
G01 X1.3655 Y0.7272 
G01 X1.3655 Y0.7528 
G01 X1.3557 Y0.7765 
G01 X1.3422 Y0.7900 
G01 X1.3557 Y0.8035 
G01 X1.3655 Y0.8272 
G01 X1.3655 Y0.8528 
G01 X1.3557 Y0.8765 
G01 X1.3422 Y0.8900 
G01 X1.3557 Y0.9035 
G01 X1.3655 Y0.9272 
G01 X1.3655 Y0.9528 
G01 X1.3557 Y0.9765 
G01 X1.3422 Y0.9900 
G01 X1.3557 Y1.0035 
G01 X1.3655 Y1.0272 
G01 X1.3655 Y1.0528 
G01 X1.3557 Y1.0765 
G01 X1.3375 Y1.0947 
G01 X1.3138 Y1.1045 
G01 X1.2627 Y1.1045 
G01 X1.3065 Y1.1483 
G01 X1.3065 Y1.2117 
G01 X1.2617 Y1.2565 
G01 X1.1983 Y1.2565 
G01 X1.1800 Y1.2382 
G01 X1.1733 Y1.2449 
G00 Z0.1000 
G00 Z0.100000
G00 X0.1500 Y1.1900 
G01 Z-0.0110 F10.00 
G01 Z0.100000
(R0.1000  P1.000000)
G00 Z0.100000
G00 X0.1500 Y1.1900 
G01 Z-0.0110 F10.00 
G01 Z0.100000
(R0.1000  P1.000000)
G00 Z0.100000
G00 X0.1500 Y1.1900 
G01 Z-0.0110 F10.00 
G01 Z0.100000
(R0.1000  P1.000000)
G00 Z0.100000
G00 X0.1500 Y1.1900 
G01 Z-0.0110 F10.00 
G01 Z0.100000
(R0.1000  P1.000000)
G00 Z0.100000
G00 X0.1500 Y1.1900 
G01 Z-0.0110 F10.00 
G01 Z0.100000
(R0.1000  P1.000000)
(G00 Z0.100000)
G00 X0.1500 Y0.1300 
G01 Z-0.032000
G01 Z0.100000
(G00 Z0.100000)
G00 X0.1500 Y0.1300 
G01 Z-0.032000
G01 Z0.100000
(G00 Z0.100000)
G00 X0.1500 Y0.1300 
G01 Z-0.032000
G01 Z0.100000
(G00 Z0.100000)
G00 X0.1500 Y0.1300 
G01 Z-0.032000
G01 Z0.100000
(G00 Z0.100000)
G00 X1.2700 Y0.2300 
G01 Z-0.032000
G01 Z0.100000
(G00 Z0.100000)
G00 X1.2700 Y0.2300 
G01 Z-0.032000
G01 Z0.100000
(G00 Z0.100000)
G00 X1.2700 Y0.2300 
G01 Z-0.032000
G01 Z0.100000
(G00 Z0.100000)
G00 X1.2700 Y0.2300 
G01 Z-0.032000
G01 Z0.100000
(G00 Z0.100000)
G00 X1.3700 Y0.2300 
G01 Z-0.032000
G01 Z0.100000
(G00 Z0.100000)
G00 X1.3700 Y0.2300 
G01 Z-0.032000
G01 Z0.100000
(G00 Z0.100000)
G00 X1.3700 Y0.2300 
G01 Z-0.032000
G01 Z0.100000
(G00 Z0.100000)
G00 X1.3700 Y0.2300 
G01 Z-0.032000
G01 Z0.100000
(G00 Z0.100000)
G00 X0.5100 Y1.0000 
G01 Z-0.032000
G01 Z0.100000
(G00 Z0.100000)
G00 X0.5100 Y1.0000 
G01 Z-0.032000
G01 Z0.100000
(G00 Z0.100000)
G00 X0.5100 Y1.0000 
G01 Z-0.032000
G01 Z0.100000
(G00 Z0.100000)
G00 X0.5100 Y1.0000 
G01 Z-0.032000
G01 Z0.100000
(G00 Z0.100000)
G00 X0.4100 Y1.0000 
G01 Z-0.032000
G01 Z0.100000
(G00 Z0.100000)
G00 X0.4100 Y1.0000 
G01 Z-0.032000
G01 Z0.100000
(G00 Z0.100000)
G00 X0.4100 Y1.0000 
G01 Z-0.032000
G01 Z0.100000
(G00 Z0.100000)
G00 X0.4100 Y1.0000 
G01 Z-0.032000
G01 Z0.100000
(G00 Z0.100000)
G00 X1.1300 Y1.1800 
G01 Z-0.032000
G01 Z0.100000
(G00 Z0.100000)
G00 X1.1300 Y1.1800 
G01 Z-0.032000
G01 Z0.100000
(G00 Z0.100000)
G00 X1.1300 Y1.1800 
G01 Z-0.032000
G01 Z0.100000
(G00 Z0.100000)
G00 X1.1300 Y1.1800 
G01 Z-0.032000
G01 Z0.100000
(G00 Z0.100000)
G00 X1.2300 Y1.1800 
G01 Z-0.032000
G01 Z0.100000
(G00 Z0.100000)
G00 X1.2300 Y1.1800 
G01 Z-0.032000
G01 Z0.100000
(G00 Z0.100000)
G00 X1.2300 Y1.1800 
G01 Z-0.032000
G01 Z0.100000
(G00 Z0.100000)
G00 X1.2300 Y1.1800 
G01 Z-0.032000
G01 Z0.100000
(G00 Z0.100000)
G00 X1.7500 Y1.2200 
G01 Z-0.032000
G01 Z0.100000
(G00 Z0.100000)
G00 X1.7500 Y1.2200 
G01 Z-0.032000
G01 Z0.100000
(G00 Z0.100000)
G00 X1.7500 Y1.2200 
G01 Z-0.032000
G01 Z0.100000
(G00 Z0.100000)
G00 X1.7500 Y1.2200 
G01 Z-0.032000
G01 Z0.100000
(G00 Z0.100000)
G00 X1.7500 Y1.1200 
G01 Z-0.032000
G01 Z0.100000
(G00 Z0.100000)
G00 X1.7500 Y1.1200 
G01 Z-0.032000
G01 Z0.100000
(G00 Z0.100000)
G00 X1.7500 Y1.1200 
G01 Z-0.032000
G01 Z0.100000
(G00 Z0.100000)
G00 X1.7500 Y1.1200 
G01 Z-0.032000
G01 Z0.100000
(G00 Z0.100000)
G00 X1.5700 Y0.3400 
G01 Z-0.032000
G01 Z0.100000
(G00 Z0.100000)
G00 X1.5700 Y0.3400 
G01 Z-0.032000
G01 Z0.100000
(G00 Z0.100000)
G00 X1.5700 Y0.3400 
G01 Z-0.032000
G01 Z0.100000
(G00 Z0.100000)
G00 X1.5700 Y0.3400 
G01 Z-0.032000
G01 Z0.100000
(G00 Z0.100000)
G00 X1.5700 Y0.4400 
G01 Z-0.032000
G01 Z0.100000
(G00 Z0.100000)
G00 X1.5700 Y0.4400 
G01 Z-0.032000
G01 Z0.100000
(G00 Z0.100000)
G00 X1.5700 Y0.4400 
G01 Z-0.032000
G01 Z0.100000
(G00 Z0.100000)
G00 X1.5700 Y0.4400 
G01 Z-0.032000
G01 Z0.100000
(G00 Z0.100000)
G00 X1.5700 Y0.5400 
G01 Z-0.032000
G01 Z0.100000
(G00 Z0.100000)
G00 X1.5700 Y0.5400 
G01 Z-0.032000
G01 Z0.100000
(G00 Z0.100000)
G00 X1.5700 Y0.5400 
G01 Z-0.032000
G01 Z0.100000
(G00 Z0.100000)
G00 X1.5700 Y0.5400 
G01 Z-0.032000
G01 Z0.100000
(G00 Z0.100000)
G00 X1.5700 Y0.6400 
G01 Z-0.032000
G01 Z0.100000
(G00 Z0.100000)
G00 X1.5700 Y0.6400 
G01 Z-0.032000
G01 Z0.100000
(G00 Z0.100000)
G00 X1.5700 Y0.6400 
G01 Z-0.032000
G01 Z0.100000
(G00 Z0.100000)
G00 X1.5700 Y0.6400 
G01 Z-0.032000
G01 Z0.100000
(G00 Z0.100000)
G00 X1.5700 Y0.7400 
G01 Z-0.032000
G01 Z0.100000
(G00 Z0.100000)
G00 X1.5700 Y0.7400 
G01 Z-0.032000
G01 Z0.100000
(G00 Z0.100000)
G00 X1.5700 Y0.7400 
G01 Z-0.032000
G01 Z0.100000
(G00 Z0.100000)
G00 X1.5700 Y0.7400 
G01 Z-0.032000
G01 Z0.100000
(G00 Z0.100000)
G00 X1.5700 Y0.8400 
G01 Z-0.032000
G01 Z0.100000
(G00 Z0.100000)
G00 X1.5700 Y0.8400 
G01 Z-0.032000
G01 Z0.100000
(G00 Z0.100000)
G00 X1.5700 Y0.8400 
G01 Z-0.032000
G01 Z0.100000
(G00 Z0.100000)
G00 X1.5700 Y0.8400 
G01 Z-0.032000
G01 Z0.100000
(G00 Z0.100000)
G00 X1.5700 Y0.9400 
G01 Z-0.032000
G01 Z0.100000
(G00 Z0.100000)
G00 X1.5700 Y0.9400 
G01 Z-0.032000
G01 Z0.100000
(G00 Z0.100000)
G00 X1.5700 Y0.9400 
G01 Z-0.032000
G01 Z0.100000
(G00 Z0.100000)
G00 X1.5700 Y0.9400 
G01 Z-0.032000
G01 Z0.100000
(G00 Z0.100000)
G00 X1.5700 Y1.0400 
G01 Z-0.032000
G01 Z0.100000
(G00 Z0.100000)
G00 X1.5700 Y1.0400 
G01 Z-0.032000
G01 Z0.100000
(G00 Z0.100000)
G00 X1.5700 Y1.0400 
G01 Z-0.032000
G01 Z0.100000
(G00 Z0.100000)
G00 X1.5700 Y1.0400 
G01 Z-0.032000
G01 Z0.100000
(G00 Z0.100000)
G00 X1.2700 Y1.0400 
G01 Z-0.032000
G01 Z0.100000
(G00 Z0.100000)
G00 X1.2700 Y1.0400 
G01 Z-0.032000
G01 Z0.100000
(G00 Z0.100000)
G00 X1.2700 Y1.0400 
G01 Z-0.032000
G01 Z0.100000
(G00 Z0.100000)
G00 X1.2700 Y1.0400 
G01 Z-0.032000
G01 Z0.100000
(G00 Z0.100000)
G00 X1.2700 Y0.9400 
G01 Z-0.032000
G01 Z0.100000
(G00 Z0.100000)
G00 X1.2700 Y0.9400 
G01 Z-0.032000
G01 Z0.100000
(G00 Z0.100000)
G00 X1.2700 Y0.9400 
G01 Z-0.032000
G01 Z0.100000
(G00 Z0.100000)
G00 X1.2700 Y0.9400 
G01 Z-0.032000
G01 Z0.100000
(G00 Z0.100000)
G00 X1.2700 Y0.8400 
G01 Z-0.032000
G01 Z0.100000
(G00 Z0.100000)
G00 X1.2700 Y0.8400 
G01 Z-0.032000
G01 Z0.100000
(G00 Z0.100000)
G00 X1.2700 Y0.8400 
G01 Z-0.032000
G01 Z0.100000
(G00 Z0.100000)
G00 X1.2700 Y0.8400 
G01 Z-0.032000
G01 Z0.100000
(G00 Z0.100000)
G00 X1.2700 Y0.7400 
G01 Z-0.032000
G01 Z0.100000
(G00 Z0.100000)
G00 X1.2700 Y0.7400 
G01 Z-0.032000
G01 Z0.100000
(G00 Z0.100000)
G00 X1.2700 Y0.7400 
G01 Z-0.032000
G01 Z0.100000
(G00 Z0.100000)
G00 X1.2700 Y0.7400 
G01 Z-0.032000
G01 Z0.100000
(G00 Z0.100000)
G00 X1.2700 Y0.6400 
G01 Z-0.032000
G01 Z0.100000
(G00 Z0.100000)
G00 X1.2700 Y0.6400 
G01 Z-0.032000
G01 Z0.100000
(G00 Z0.100000)
G00 X1.2700 Y0.6400 
G01 Z-0.032000
G01 Z0.100000
(G00 Z0.100000)
G00 X1.2700 Y0.6400 
G01 Z-0.032000
G01 Z0.100000
(G00 Z0.100000)
G00 X1.2700 Y0.5400 
G01 Z-0.032000
G01 Z0.100000
(G00 Z0.100000)
G00 X1.2700 Y0.5400 
G01 Z-0.032000
G01 Z0.100000
(G00 Z0.100000)
G00 X1.2700 Y0.5400 
G01 Z-0.032000
G01 Z0.100000
(G00 Z0.100000)
G00 X1.2700 Y0.5400 
G01 Z-0.032000
G01 Z0.100000
(G00 Z0.100000)
G00 X1.2700 Y0.4400 
G01 Z-0.032000
G01 Z0.100000
(G00 Z0.100000)
G00 X1.2700 Y0.4400 
G01 Z-0.032000
G01 Z0.100000
(G00 Z0.100000)
G00 X1.2700 Y0.4400 
G01 Z-0.032000
G01 Z0.100000
(G00 Z0.100000)
G00 X1.2700 Y0.4400 
G01 Z-0.032000
G01 Z0.100000
(G00 Z0.100000)
G00 X1.2700 Y0.3400 
G01 Z-0.032000
G01 Z0.100000
(G00 Z0.100000)
G00 X1.2700 Y0.3400 
G01 Z-0.032000
G01 Z0.100000
(G00 Z0.100000)
G00 X1.2700 Y0.3400 
G01 Z-0.032000
G01 Z0.100000
(G00 Z0.100000)
G00 X1.2700 Y0.3400 
G01 Z-0.032000
G01 Z0.100000
(G00 Z0.100000)
G00 X1.3900 Y1.1700 
G01 Z-0.032000
G01 Z0.100000
(G00 Z0.100000)
G00 X1.3900 Y1.1700 
G01 Z-0.032000
G01 Z0.100000
(G00 Z0.100000)
G00 X1.3900 Y1.1700 
G01 Z-0.032000
G01 Z0.100000
(G00 Z0.100000)
G00 X1.3900 Y1.1700 
G01 Z-0.032000
G01 Z0.100000
(G00 Z0.100000)
G00 X1.4400 Y1.2450 
G01 Z-0.032000
G01 Z0.100000
(G00 Z0.100000)
G00 X1.4400 Y1.2450 
G01 Z-0.032000
G01 Z0.100000
(G00 Z0.100000)
G00 X1.4400 Y1.2450 
G01 Z-0.032000
G01 Z0.100000
(G00 Z0.100000)
G00 X1.4400 Y1.2450 
G01 Z-0.032000
G01 Z0.100000
(G00 Z0.100000)
G00 X1.4900 Y1.1700 
G01 Z-0.032000
G01 Z0.100000
(G00 Z0.100000)
G00 X1.4900 Y1.1700 
G01 Z-0.032000
G01 Z0.100000
(G00 Z0.100000)
G00 X1.4900 Y1.1700 
G01 Z-0.032000
G01 Z0.100000
(G00 Z0.100000)
G00 X1.4900 Y1.1700 
G01 Z-0.032000
G01 Z0.100000
(G00 Z0.100000)
G00 X0.6000 Y0.2700 
G01 Z-0.032000
G01 Z0.100000
(G00 Z0.100000)
G00 X0.6000 Y0.2700 
G01 Z-0.032000
G01 Z0.100000
(G00 Z0.100000)
G00 X0.6000 Y0.2700 
G01 Z-0.032000
G01 Z0.100000
(G00 Z0.100000)
G00 X0.6000 Y0.2700 
G01 Z-0.032000
G01 Z0.100000
(G00 Z0.100000)
G00 X1.1000 Y0.2700 
G01 Z-0.032000
G01 Z0.100000
(G00 Z0.100000)
G00 X1.1000 Y0.2700 
G01 Z-0.032000
G01 Z0.100000
(G00 Z0.100000)
G00 X1.1000 Y0.2700 
G01 Z-0.032000
G01 Z0.100000
(G00 Z0.100000)
G00 X1.1000 Y0.2700 
G01 Z-0.032000
G01 Z0.100000
(G00 Z0.100000)
G00 X0.8000 Y0.3700 
G01 Z-0.032000
G01 Z0.100000
(G00 Z0.100000)
G00 X0.8000 Y0.3700 
G01 Z-0.032000
G01 Z0.100000
(G00 Z0.100000)
G00 X0.8000 Y0.3700 
G01 Z-0.032000
G01 Z0.100000
(G00 Z0.100000)
G00 X0.8000 Y0.3700 
G01 Z-0.032000
G01 Z0.100000
(G00 Z0.100000)
G00 X1.8000 Y0.6800 
G01 Z-0.032000
G01 Z0.100000
(G00 Z0.100000)
G00 X1.8000 Y0.6800 
G01 Z-0.032000
G01 Z0.100000
(G00 Z0.100000)
G00 X1.8000 Y0.6800 
G01 Z-0.032000
G01 Z0.100000
(G00 Z0.100000)
G00 X1.8000 Y0.6800 
G01 Z-0.032000
G01 Z0.100000
(G00 Z0.100000)
G00 X1.8000 Y0.4800 
G01 Z-0.032000
G01 Z0.100000
(G00 Z0.100000)
G00 X1.8000 Y0.4800 
G01 Z-0.032000
G01 Z0.100000
(G00 Z0.100000)
G00 X1.8000 Y0.4800 
G01 Z-0.032000
G01 Z0.100000
(G00 Z0.100000)
G00 X1.8000 Y0.4800 
G01 Z-0.032000
G01 Z0.100000
(G00 Z0.100000)
G00 X1.9200 Y0.6800 
G01 Z-0.032000
G01 Z0.100000
(G00 Z0.100000)
G00 X1.9200 Y0.6800 
G01 Z-0.032000
G01 Z0.100000
(G00 Z0.100000)
G00 X1.9200 Y0.6800 
G01 Z-0.032000
G01 Z0.100000
(G00 Z0.100000)
G00 X1.9200 Y0.6800 
G01 Z-0.032000
G01 Z0.100000
(G00 Z0.100000)
G00 X1.9200 Y0.4800 
G01 Z-0.032000
G01 Z0.100000
(G00 Z0.100000)
G00 X1.9200 Y0.4800 
G01 Z-0.032000
G01 Z0.100000
(G00 Z0.100000)
G00 X1.9200 Y0.4800 
G01 Z-0.032000
G01 Z0.100000
(G00 Z0.100000)
G00 X1.9200 Y0.4800 
G01 Z-0.032000
G01 Z0.100000
(G00 Z0.100000)
G00 X2.0400 Y0.6800 
G01 Z-0.032000
G01 Z0.100000
(G00 Z0.100000)
G00 X2.0400 Y0.6800 
G01 Z-0.032000
G01 Z0.100000
(G00 Z0.100000)
G00 X2.0400 Y0.6800 
G01 Z-0.032000
G01 Z0.100000
(G00 Z0.100000)
G00 X2.0400 Y0.6800 
G01 Z-0.032000
G01 Z0.100000
(G00 Z0.100000)
G00 X2.0400 Y0.4800 
G01 Z-0.032000
G01 Z0.100000
(G00 Z0.100000)
G00 X2.0400 Y0.4800 
G01 Z-0.032000
G01 Z0.100000
(G00 Z0.100000)
G00 X2.0400 Y0.4800 
G01 Z-0.032000
G01 Z0.100000
(G00 Z0.100000)
G00 X2.0400 Y0.4800 
G01 Z-0.032000
G01 Z0.100000
(G00 Z0.100000)
G00 X2.1500 Y0.1500 
G01 Z-0.032000
G01 Z0.100000
(G00 Z0.100000)
G00 X2.1500 Y0.1500 
G01 Z-0.032000
G01 Z0.100000
(G00 Z0.100000)
G00 X2.1500 Y0.1500 
G01 Z-0.032000
G01 Z0.100000
(G00 Z0.100000)
G00 X2.1500 Y0.1500 
G01 Z-0.032000
G01 Z0.100000
(G00 Z0.100000)
G00 X2.1500 Y0.2500 
G01 Z-0.032000
G01 Z0.100000
(G00 Z0.100000)
G00 X2.1500 Y0.2500 
G01 Z-0.032000
G01 Z0.100000
(G00 Z0.100000)
G00 X2.1500 Y0.2500 
G01 Z-0.032000
G01 Z0.100000
(G00 Z0.100000)
G00 X2.1500 Y0.2500 
G01 Z-0.032000
G01 Z0.100000
(G00 Z0.100000)
G00 X2.1500 Y0.3500 
G01 Z-0.032000
G01 Z0.100000
(G00 Z0.100000)
G00 X2.1500 Y0.3500 
G01 Z-0.032000
G01 Z0.100000
(G00 Z0.100000)
G00 X2.1500 Y0.3500 
G01 Z-0.032000
G01 Z0.100000
(G00 Z0.100000)
G00 X2.1500 Y0.3500 
G01 Z-0.032000
G01 Z0.100000
(G00 Z0.100000)
G00 X1.8500 Y0.3500 
G01 Z-0.032000
G01 Z0.100000
(G00 Z0.100000)
G00 X1.8500 Y0.3500 
G01 Z-0.032000
G01 Z0.100000
(G00 Z0.100000)
G00 X1.8500 Y0.3500 
G01 Z-0.032000
G01 Z0.100000
(G00 Z0.100000)
G00 X1.8500 Y0.3500 
G01 Z-0.032000
G01 Z0.100000
(G00 Z0.100000)
G00 X1.8500 Y0.2500 
G01 Z-0.032000
G01 Z0.100000
(G00 Z0.100000)
G00 X1.8500 Y0.2500 
G01 Z-0.032000
G01 Z0.100000
(G00 Z0.100000)
G00 X1.8500 Y0.2500 
G01 Z-0.032000
G01 Z0.100000
(G00 Z0.100000)
G00 X1.8500 Y0.2500 
G01 Z-0.032000
G01 Z0.100000
(G00 Z0.100000)
G00 X1.8500 Y0.1500 
G01 Z-0.032000
G01 Z0.100000
(G00 Z0.100000)
G00 X1.8500 Y0.1500 
G01 Z-0.032000
G01 Z0.100000
(G00 Z0.100000)
G00 X1.8500 Y0.1500 
G01 Z-0.032000
G01 Z0.100000
(G00 Z0.100000)
G00 X1.8500 Y0.1500 
G01 Z-0.032000
G01 Z0.100000
(G00 Z0.100000)
G00 X2.0000 Y1.0300 
G01 Z-0.032000
G01 Z0.100000
(G00 Z0.100000)
G00 X2.0000 Y1.0300 
G01 Z-0.032000
G01 Z0.100000
(G00 Z0.100000)
G00 X2.0000 Y1.0300 
G01 Z-0.032000
G01 Z0.100000
(G00 Z0.100000)
G00 X2.0000 Y1.0300 
G01 Z-0.032000
G01 Z0.100000
(G00 Z0.100000)
G00 X2.3000 Y1.0300 
G01 Z-0.032000
G01 Z0.100000
(G00 Z0.100000)
G00 X2.3000 Y1.0300 
G01 Z-0.032000
G01 Z0.100000
(G00 Z0.100000)
G00 X2.3000 Y1.0300 
G01 Z-0.032000
G01 Z0.100000
(G00 Z0.100000)
G00 X2.3000 Y1.0300 
G01 Z-0.032000
G01 Z0.100000
(G00 Z0.100000)
G00 X0.7234 Y0.6709 
G01 Z-0.032000
G01 Z0.100000
(G00 Z0.100000)
G00 X0.7234 Y0.6709 
G01 Z-0.032000
G01 Z0.100000
(G00 Z0.100000)
G00 X0.7234 Y0.6709 
G01 Z-0.032000
G01 Z0.100000
(G00 Z0.100000)
G00 X0.7234 Y0.6709 
G01 Z-0.032000
G01 Z0.100000
(G00 Z0.100000)
G00 X0.7628 Y0.7891 
G01 Z-0.032000
G01 Z0.100000
(G00 Z0.100000)
G00 X0.7628 Y0.7891 
G01 Z-0.032000
G01 Z0.100000
(G00 Z0.100000)
G00 X0.7628 Y0.7891 
G01 Z-0.032000
G01 Z0.100000
(G00 Z0.100000)
G00 X0.7628 Y0.7891 
G01 Z-0.032000
G01 Z0.100000
(G00 Z0.100000)
G00 X0.8021 Y0.6709 
G01 Z-0.032000
G01 Z0.100000
(G00 Z0.100000)
G00 X0.8021 Y0.6709 
G01 Z-0.032000
G01 Z0.100000
(G00 Z0.100000)
G00 X0.8021 Y0.6709 
G01 Z-0.032000
G01 Z0.100000
(G00 Z0.100000)
G00 X0.8021 Y0.6709 
G01 Z-0.032000
G01 Z0.100000
(G00 Z0.100000)
G00 X0.8415 Y0.7891 
G01 Z-0.032000
G01 Z0.100000
(G00 Z0.100000)
G00 X0.8415 Y0.7891 
G01 Z-0.032000
G01 Z0.100000
(G00 Z0.100000)
G00 X0.8415 Y0.7891 
G01 Z-0.032000
G01 Z0.100000
(G00 Z0.100000)
G00 X0.8415 Y0.7891 
G01 Z-0.032000
G01 Z0.100000
(G00 Z0.100000)
G00 X0.8809 Y0.6709 
G01 Z-0.032000
G01 Z0.100000
(G00 Z0.100000)
G00 X0.8809 Y0.6709 
G01 Z-0.032000
G01 Z0.100000
(G00 Z0.100000)
G00 X0.8809 Y0.6709 
G01 Z-0.032000
G01 Z0.100000
(G00 Z0.100000)
G00 X0.8809 Y0.6709 
G01 Z-0.032000
G01 Z0.100000
(G00 Z0.100000)
G00 X0.9202 Y0.7891 
G01 Z-0.032000
G01 Z0.100000
(G00 Z0.100000)
G00 X0.9202 Y0.7891 
G01 Z-0.032000
G01 Z0.100000
(G00 Z0.100000)
G00 X0.9202 Y0.7891 
G01 Z-0.032000
G01 Z0.100000
(G00 Z0.100000)
G00 X0.9202 Y0.7891 
G01 Z-0.032000
G01 Z0.100000
(G00 Z0.100000)
G00 X1.1171 Y0.7576 
G01 Z-0.032000
G01 Z0.100000
(G00 Z0.100000)
G00 X1.1171 Y0.7576 
G01 Z-0.032000
G01 Z0.100000
(G00 Z0.100000)
G00 X1.1171 Y0.7576 
G01 Z-0.032000
G01 Z0.100000
(G00 Z0.100000)
G00 X1.1171 Y0.7576 
G01 Z-0.032000
G01 Z0.100000
(G00 Z0.100000)
G00 X0.5029 Y0.7576 
G01 Z-0.032000
G01 Z0.100000
(G00 Z0.100000)
G00 X0.5029 Y0.7576 
G01 Z-0.032000
G01 Z0.100000
(G00 Z0.100000)
G00 X0.5029 Y0.7576 
G01 Z-0.032000
G01 Z0.100000
(G00 Z0.100000)
G00 X0.5029 Y0.7576 
G01 Z-0.032000
G01 Z0.100000
(G00 Z0.100000)
G00 X0.2900 Y1.0000 
G01 Z-0.032000
G01 Z0.100000
(G00 Z0.100000)
G00 X0.2900 Y1.0000 
G01 Z-0.032000
G01 Z0.100000
(G00 Z0.100000)
G00 X0.2900 Y1.0000 
G01 Z-0.032000
G01 Z0.100000
(G00 Z0.100000)
G00 X0.2900 Y1.0000 
G01 Z-0.032000
G01 Z0.100000
(G00 Z0.100000)
G00 X0.1900 Y1.0000 
G01 Z-0.032000
G01 Z0.100000
(G00 Z0.100000)
G00 X0.1900 Y1.0000 
G01 Z-0.032000
G01 Z0.100000
(G00 Z0.100000)
G00 X0.1900 Y1.0000 
G01 Z-0.032000
G01 Z0.100000
(G00 Z0.100000)
G00 X0.1900 Y1.0000 
G01 Z-0.032000
G01 Z0.100000
(G00 Z0.100000)
G00 X0.2900 Y0.9000 
G01 Z-0.032000
G01 Z0.100000
(G00 Z0.100000)
G00 X0.2900 Y0.9000 
G01 Z-0.032000
G01 Z0.100000
(G00 Z0.100000)
G00 X0.2900 Y0.9000 
G01 Z-0.032000
G01 Z0.100000
(G00 Z0.100000)
G00 X0.2900 Y0.9000 
G01 Z-0.032000
G01 Z0.100000
(G00 Z0.100000)
G00 X0.1900 Y0.9000 
G01 Z-0.032000
G01 Z0.100000
(G00 Z0.100000)
G00 X0.1900 Y0.9000 
G01 Z-0.032000
G01 Z0.100000
(G00 Z0.100000)
G00 X0.1900 Y0.9000 
G01 Z-0.032000
G01 Z0.100000
(G00 Z0.100000)
G00 X0.1900 Y0.9000 
G01 Z-0.032000
G01 Z0.100000
(G00 Z0.100000)
G00 X0.2900 Y0.8000 
G01 Z-0.032000
G01 Z0.100000
(G00 Z0.100000)
G00 X0.2900 Y0.8000 
G01 Z-0.032000
G01 Z0.100000
(G00 Z0.100000)
G00 X0.2900 Y0.8000 
G01 Z-0.032000
G01 Z0.100000
(G00 Z0.100000)
G00 X0.2900 Y0.8000 
G01 Z-0.032000
G01 Z0.100000
(G00 Z0.100000)
G00 X0.1900 Y0.8000 
G01 Z-0.032000
G01 Z0.100000
(G00 Z0.100000)
G00 X0.1900 Y0.8000 
G01 Z-0.032000
G01 Z0.100000
(G00 Z0.100000)
G00 X0.1900 Y0.8000 
G01 Z-0.032000
G01 Z0.100000
(G00 Z0.100000)
G00 X0.1900 Y0.8000 
G01 Z-0.032000
G01 Z0.100000
(G00 Z0.100000)
G00 X0.2900 Y0.7000 
G01 Z-0.032000
G01 Z0.100000
(G00 Z0.100000)
G00 X0.2900 Y0.7000 
G01 Z-0.032000
G01 Z0.100000
(G00 Z0.100000)
G00 X0.2900 Y0.7000 
G01 Z-0.032000
G01 Z0.100000
(G00 Z0.100000)
G00 X0.2900 Y0.7000 
G01 Z-0.032000
G01 Z0.100000
(G00 Z0.100000)
G00 X0.1900 Y0.7000 
G01 Z-0.032000
G01 Z0.100000
(G00 Z0.100000)
G00 X0.1900 Y0.7000 
G01 Z-0.032000
G01 Z0.100000
(G00 Z0.100000)
G00 X0.1900 Y0.7000 
G01 Z-0.032000
G01 Z0.100000
(G00 Z0.100000)
G00 X0.1900 Y0.7000 
G01 Z-0.032000
G01 Z0.100000
(G00 Z0.100000)
G00 X0.2900 Y0.6000 
G01 Z-0.032000
G01 Z0.100000
(G00 Z0.100000)
G00 X0.2900 Y0.6000 
G01 Z-0.032000
G01 Z0.100000
(G00 Z0.100000)
G00 X0.2900 Y0.6000 
G01 Z-0.032000
G01 Z0.100000
(G00 Z0.100000)
G00 X0.2900 Y0.6000 
G01 Z-0.032000
G01 Z0.100000
(G00 Z0.100000)
G00 X0.1900 Y0.6000 
G01 Z-0.032000
G01 Z0.100000
(G00 Z0.100000)
G00 X0.1900 Y0.6000 
G01 Z-0.032000
G01 Z0.100000
(G00 Z0.100000)
G00 X0.1900 Y0.6000 
G01 Z-0.032000
G01 Z0.100000
(G00 Z0.100000)
G00 X0.1900 Y0.6000 
G01 Z-0.032000
G01 Z0.100000
(G00 Z0.100000)
G00 X0.2900 Y0.5000 
G01 Z-0.032000
G01 Z0.100000
(G00 Z0.100000)
G00 X0.2900 Y0.5000 
G01 Z-0.032000
G01 Z0.100000
(G00 Z0.100000)
G00 X0.2900 Y0.5000 
G01 Z-0.032000
G01 Z0.100000
(G00 Z0.100000)
G00 X0.2900 Y0.5000 
G01 Z-0.032000
G01 Z0.100000
(G00 Z0.100000)
G00 X0.1900 Y0.5000 
G01 Z-0.032000
G01 Z0.100000
(G00 Z0.100000)
G00 X0.1900 Y0.5000 
G01 Z-0.032000
G01 Z0.100000
(G00 Z0.100000)
G00 X0.1900 Y0.5000 
G01 Z-0.032000
G01 Z0.100000
(G00 Z0.100000)
G00 X0.1900 Y0.5000 
G01 Z-0.032000
G01 Z0.100000
(G00 Z0.100000)
G00 X0.2900 Y0.4000 
G01 Z-0.032000
G01 Z0.100000
(G00 Z0.100000)
G00 X0.2900 Y0.4000 
G01 Z-0.032000
G01 Z0.100000
(G00 Z0.100000)
G00 X0.2900 Y0.4000 
G01 Z-0.032000
G01 Z0.100000
(G00 Z0.100000)
G00 X0.2900 Y0.4000 
G01 Z-0.032000
G01 Z0.100000
(G00 Z0.100000)
G00 X0.1900 Y0.4000 
G01 Z-0.032000
G01 Z0.100000
(G00 Z0.100000)
G00 X0.1900 Y0.4000 
G01 Z-0.032000
G01 Z0.100000
(G00 Z0.100000)
G00 X0.1900 Y0.4000 
G01 Z-0.032000
G01 Z0.100000
(G00 Z0.100000)
G00 X0.1900 Y0.4000 
G01 Z-0.032000
G01 Z0.100000
G00 Z0.5000 
M05
M02
