(.../Documents/src/pcbgcode/pcb-gcode.ulp)
(Copyright 2005 - 2009 by John Johnson)
(See readme.txt for licensing terms.)
(This file generated from the board:)
(.../pcbgcode/docs/examples/enabtmr.brd)
(Current profile is .../pcbgcode/profiles/generic.pp  )
(This file generated 2/7/09 10:25 AM)
(Settings from pcb-machine.h)
(  Tool Size)
(0.0070 )
(Z Axis Settings)
(  High     Up        Down     Drill)
(0.5000 	0.1000 	-0.0070 	-0.0320 )
(spindle on time = 3.0000)
(milling depth = -0.0100)
(text depth = -0.0050)
(tool change at 0.0000 0.0000 0.0000 )
(feed rate xy = F20.00 )
(feed rate z  = F10.00 )
(Settings from pcb-defaults.h)
(Default isolate = 0.0010)
(isolate max = 0.0200)
(isolate step = 0.0050)
(Generated top outlines, top drill, bottom outlines, bottom drill, )
(Unit of measure: inch)
(Inch Mode)
G20
(Inch Mode)
G20
(Absolute Coordinates)
G90
(Absolute Coordinates)
G90
G00 X0.0000 Y0.0000 
M03
G04 P3.000000
M03
G04 P3.000000
G00 Z0.1000 
G00 X1.4070 Y1.8405 
G01 Z-0.0070 F10.00 
G01 X1.4070 Y1.8795 F20.00 
G01 X1.3795 Y1.9070 
G01 X1.3405 Y1.9070 
G01 X1.3130 Y1.8795 
G01 X1.3130 Y1.8405 
G01 X1.3405 Y1.8130 
G01 X1.3795 Y1.8130 
G01 X1.4070 Y1.8405 
G00 Z0.1000 
G00 X0.8070 Y1.8506 
G01 Z-0.0070 F10.00 
G01 X0.8070 Y1.8693 F20.00 
G01 X0.7998 Y1.8866 
G01 X0.7866 Y1.8998 
G01 X0.7693 Y1.9070 
G01 X0.7506 Y1.9070 
G01 X0.7334 Y1.8998 
G01 X0.7202 Y1.8866 
G01 X0.7130 Y1.8693 
G01 X0.7130 Y1.8506 
G01 X0.7202 Y1.8334 
G01 X0.7334 Y1.8202 
G01 X0.7506 Y1.8130 
G01 X0.7693 Y1.8130 
G01 X0.7866 Y1.8202 
G01 X0.7998 Y1.8334 
G01 X0.8070 Y1.8506 
G00 Z0.1000 
G00 X2.3470 Y1.4205 
G01 Z-0.0070 F10.00 
G01 X2.3470 Y1.4595 F20.00 
G01 X2.3195 Y1.4870 
G01 X2.2805 Y1.4870 
G01 X2.2563 Y1.4628 
G01 X2.2563 Y1.4892 
G01 X2.2395 Y1.5060 
G01 X2.2395 Y1.7040 
G01 X2.2563 Y1.7208 
G01 X2.2563 Y1.7592 
G01 X2.2292 Y1.7863 
G01 X2.1908 Y1.7863 
G01 X2.1637 Y1.7592 
G01 X2.1637 Y1.7208 
G01 X2.1805 Y1.7040 
G01 X2.1805 Y1.5060 
G01 X2.1637 Y1.4892 
G01 X2.1637 Y1.4508 
G01 X2.1908 Y1.4237 
G01 X2.2292 Y1.4237 
G01 X2.2530 Y1.4475 
G01 X2.2530 Y1.4205 
G01 X2.2805 Y1.3930 
G01 X2.3195 Y1.3930 
G01 X2.3470 Y1.4205 
G00 Z0.1000 
G00 X2.9470 Y1.4306 
G01 Z-0.0070 F10.00 
G01 X2.9470 Y1.4493 F20.00 
G01 X2.9398 Y1.4666 
G01 X2.9266 Y1.4798 
G01 X2.9093 Y1.4870 
G01 X2.8906 Y1.4870 
G01 X2.8734 Y1.4798 
G01 X2.8602 Y1.4666 
G01 X2.8530 Y1.4493 
G01 X2.8530 Y1.4306 
G01 X2.8602 Y1.4134 
G01 X2.8734 Y1.4002 
G01 X2.8906 Y1.3930 
G01 X2.9093 Y1.3930 
G01 X2.9266 Y1.4002 
G01 X2.9398 Y1.4134 
G01 X2.9470 Y1.4306 
G00 Z0.1000 
G00 X2.4825 Y1.7224 
G01 Z-0.0070 F10.00 
G01 X2.4825 Y1.7576 F20.00 
G01 X2.4576 Y1.7825 
G01 X2.4224 Y1.7825 
G01 X2.3975 Y1.7576 
G01 X2.3975 Y1.7224 
G01 X2.4224 Y1.6975 
G01 X2.4576 Y1.6975 
G01 X2.4825 Y1.7224 
G00 Z0.1000 
G00 X2.3825 Y1.7224 
G01 Z-0.0070 F10.00 
G01 X2.3825 Y1.7576 F20.00 
G01 X2.3576 Y1.7825 
G01 X2.3224 Y1.7825 
G01 X2.2975 Y1.7576 
G01 X2.2975 Y1.7224 
G01 X2.3224 Y1.6975 
G01 X2.3576 Y1.6975 
G01 X2.3825 Y1.7224 
G00 Z0.1000 
G00 X2.1825 Y0.2424 
G01 Z-0.0070 F10.00 
G01 X2.1825 Y0.2776 F20.00 
G01 X2.1576 Y0.3025 
G01 X2.1224 Y0.3025 
G01 X2.0975 Y0.2776 
G01 X2.0975 Y0.2424 
G01 X2.1224 Y0.2175 
G01 X2.1576 Y0.2175 
G01 X2.1825 Y0.2424 
G00 Z0.1000 
G00 X2.6825 Y0.2424 
G01 Z-0.0070 F10.00 
G01 X2.6825 Y0.2776 F20.00 
G01 X2.6576 Y0.3025 
G01 X2.6224 Y0.3025 
G01 X2.5975 Y0.2776 
G01 X2.5975 Y0.2424 
G01 X2.6224 Y0.2175 
G01 X2.6576 Y0.2175 
G01 X2.6825 Y0.2424 
G00 Z0.1000 
G00 X1.3625 Y0.1824 
G01 Z-0.0070 F10.00 
G01 X1.3625 Y0.2176 F20.00 
G01 X1.3376 Y0.2425 
G01 X1.3024 Y0.2425 
G01 X1.2775 Y0.2176 
G01 X1.2775 Y0.1824 
G01 X1.3024 Y0.1575 
G01 X1.3376 Y0.1575 
G01 X1.3625 Y0.1824 
G00 Z0.1000 
G00 X1.8625 Y0.1824 
G01 Z-0.0070 F10.00 
G01 X1.8625 Y0.2176 F20.00 
G01 X1.8376 Y0.2425 
G01 X1.8024 Y0.2425 
G01 X1.7775 Y0.2176 
G01 X1.7775 Y0.1824 
G01 X1.8024 Y0.1575 
G01 X1.8376 Y0.1575 
G01 X1.8625 Y0.1824 
G00 Z0.1000 
G00 X1.4725 Y0.6924 
G01 Z-0.0070 F10.00 
G01 X1.4725 Y0.7276 F20.00 
G01 X1.4476 Y0.7525 
G01 X1.4124 Y0.7525 
G01 X1.3875 Y0.7276 
G01 X1.3875 Y0.6924 
G01 X1.4124 Y0.6675 
G01 X1.4476 Y0.6675 
G01 X1.4725 Y0.6924 
G00 Z0.1000 
G00 X1.4725 Y1.1924 
G01 Z-0.0070 F10.00 
G01 X1.4725 Y1.2276 F20.00 
G01 X1.4476 Y1.2525 
G01 X1.4124 Y1.2525 
G01 X1.3875 Y1.2276 
G01 X1.3875 Y1.1924 
G01 X1.4124 Y1.1675 
G01 X1.4476 Y1.1675 
G01 X1.4725 Y1.1924 
G00 Z0.1000 
G00 X1.5425 Y1.8924 
G01 Z-0.0070 F10.00 
G01 X1.5425 Y1.9276 F20.00 
G01 X1.5176 Y1.9525 
G01 X1.4824 Y1.9525 
G01 X1.4575 Y1.9276 
G01 X1.4575 Y1.8924 
G01 X1.4824 Y1.8675 
G01 X1.5176 Y1.8675 
G01 X1.5425 Y1.8924 
G00 Z0.1000 
G00 X2.0425 Y1.8924 
G01 Z-0.0070 F10.00 
G01 X2.0425 Y1.9276 F20.00 
G01 X2.0176 Y1.9525 
G01 X1.9824 Y1.9525 
G01 X1.9575 Y1.9276 
G01 X1.9575 Y1.8924 
G01 X1.9824 Y1.8675 
G01 X2.0176 Y1.8675 
G01 X2.0425 Y1.8924 
G00 Z0.1000 
G00 X1.8125 Y1.6824 
G01 Z-0.0070 F10.00 
G01 X1.8125 Y1.7176 F20.00 
G01 X1.7876 Y1.7425 
G01 X1.7524 Y1.7425 
G01 X1.7275 Y1.7176 
G01 X1.7275 Y1.6824 
G01 X1.7524 Y1.6575 
G01 X1.7876 Y1.6575 
G01 X1.8125 Y1.6824 
G00 Z0.1000 
G00 X1.8125 Y1.1824 
G01 Z-0.0070 F10.00 
G01 X1.8125 Y1.2176 F20.00 
G01 X1.7876 Y1.2425 
G01 X1.7524 Y1.2425 
G01 X1.7275 Y1.2176 
G01 X1.7275 Y1.1824 
G01 X1.7524 Y1.1575 
G01 X1.7876 Y1.1575 
G01 X1.8125 Y1.1824 
G00 Z0.1000 
G00 X2.9925 Y1.3124 
G01 Z-0.0070 F10.00 
G01 X2.9925 Y1.3476 F20.00 
G01 X2.9676 Y1.3725 
G01 X2.9324 Y1.3725 
G01 X2.9075 Y1.3476 
G01 X2.9075 Y1.3124 
G01 X2.9324 Y1.2875 
G01 X2.9676 Y1.2875 
G01 X2.9925 Y1.3124 
G00 Z0.1000 
G00 X2.9925 Y1.1124 
G01 Z-0.0070 F10.00 
G01 X2.9925 Y1.1476 F20.00 
G01 X2.9676 Y1.1725 
G01 X2.9324 Y1.1725 
G01 X2.9075 Y1.1476 
G01 X2.9075 Y1.1124 
G01 X2.9324 Y1.0875 
G01 X2.9676 Y1.0875 
G01 X2.9925 Y1.1124 
G00 Z0.1000 
G00 X2.7125 Y1.7024 
G01 Z-0.0070 F10.00 
G01 X2.7125 Y1.7376 F20.00 
G01 X2.6876 Y1.7625 
G01 X2.6524 Y1.7625 
G01 X2.6275 Y1.7376 
G01 X2.6275 Y1.7024 
G01 X2.6524 Y1.6775 
G01 X2.6876 Y1.6775 
G01 X2.7125 Y1.7024 
G00 Z0.1000 
G00 X2.7125 Y1.8024 
G01 Z-0.0070 F10.00 
G01 X2.7125 Y1.8376 F20.00 
G01 X2.6876 Y1.8625 
G01 X2.6524 Y1.8625 
G01 X2.6275 Y1.8376 
G01 X2.6275 Y1.8024 
G01 X2.6524 Y1.7775 
G01 X2.6876 Y1.7775 
G01 X2.7125 Y1.8024 
G00 Z0.1000 
G00 X2.7125 Y1.2324 
G01 Z-0.0070 F10.00 
G01 X2.7125 Y1.2676 F20.00 
G01 X2.6876 Y1.2925 
G01 X2.6524 Y1.2925 
G01 X2.6275 Y1.2676 
G01 X2.6275 Y1.2324 
G01 X2.6524 Y1.2075 
G01 X2.6876 Y1.2075 
G01 X2.7125 Y1.2324 
G00 Z0.1000 
G00 X2.7125 Y0.7324 
G01 Z-0.0070 F10.00 
G01 X2.7125 Y0.7676 F20.00 
G01 X2.6876 Y0.7925 
G01 X2.6524 Y0.7925 
G01 X2.6275 Y0.7676 
G01 X2.6275 Y0.7324 
G01 X2.6524 Y0.7075 
G01 X2.6876 Y0.7075 
G01 X2.7125 Y0.7324 
G00 Z0.1000 
G00 X1.7925 Y0.6424 
G01 Z-0.0070 F10.00 
G01 X1.7925 Y0.6776 F20.00 
G01 X1.7676 Y0.7025 
G01 X1.7324 Y0.7025 
G01 X1.7075 Y0.6776 
G01 X1.7075 Y0.6424 
G01 X1.7324 Y0.6175 
G01 X1.7676 Y0.6175 
G01 X1.7925 Y0.6424 
G00 Z0.1000 
G00 X1.5925 Y0.6424 
G01 Z-0.0070 F10.00 
G01 X1.5925 Y0.6776 F20.00 
G01 X1.5676 Y0.7025 
G01 X1.5324 Y0.7025 
G01 X1.5075 Y0.6776 
G01 X1.5075 Y0.6424 
G01 X1.5324 Y0.6175 
G01 X1.5676 Y0.6175 
G01 X1.5925 Y0.6424 
G00 Z0.1000 
G00 X0.8225 Y0.3224 
G01 Z-0.0070 F10.00 
G01 X0.8225 Y0.3576 F20.00 
G01 X0.7976 Y0.3825 
G01 X0.7624 Y0.3825 
G01 X0.7375 Y0.3576 
G01 X0.7375 Y0.3224 
G01 X0.7624 Y0.2975 
G01 X0.7976 Y0.2975 
G01 X0.8225 Y0.3224 
G00 Z0.1000 
G00 X0.8225 Y0.5224 
G01 Z-0.0070 F10.00 
G01 X0.8225 Y0.5576 F20.00 
G01 X0.7976 Y0.5825 
G01 X0.7624 Y0.5825 
G01 X0.7375 Y0.5576 
G01 X0.7375 Y0.5224 
G01 X0.7624 Y0.4975 
G01 X0.7976 Y0.4975 
G01 X0.8225 Y0.5224 
G00 Z0.1000 
G00 X0.6025 Y0.8924 
G01 Z-0.0070 F10.00 
G01 X0.6025 Y0.9276 F20.00 
G01 X0.5776 Y0.9525 
G01 X0.5424 Y0.9525 
G01 X0.5175 Y0.9276 
G01 X0.5175 Y0.8924 
G01 X0.5424 Y0.8675 
G01 X0.5776 Y0.8675 
G01 X0.6025 Y0.8924 
G00 Z0.1000 
G00 X0.6025 Y1.0924 
G01 Z-0.0070 F10.00 
G01 X0.6025 Y1.1276 F20.00 
G01 X0.5776 Y1.1525 
G01 X0.5424 Y1.1525 
G01 X0.5175 Y1.1276 
G01 X0.5175 Y1.0924 
G01 X0.5424 Y1.0675 
G01 X0.5776 Y1.0675 
G01 X0.6025 Y1.0924 
G00 Z0.1000 
G00 X0.7625 Y1.4924 
G01 Z-0.0070 F10.00 
G01 X0.7625 Y1.5276 F20.00 
G01 X0.7376 Y1.5525 
G01 X0.7024 Y1.5525 
G01 X0.6775 Y1.5276 
G01 X0.6775 Y1.4924 
G01 X0.7024 Y1.4675 
G01 X0.7376 Y1.4675 
G01 X0.7625 Y1.4924 
G00 Z0.1000 
G00 X0.7625 Y1.2924 
G01 Z-0.0070 F10.00 
G01 X0.7625 Y1.3276 F20.00 
G01 X0.7376 Y1.3525 
G01 X0.7024 Y1.3525 
G01 X0.6775 Y1.3276 
G01 X0.6775 Y1.2924 
G01 X0.7024 Y1.2675 
G01 X0.7376 Y1.2675 
G01 X0.7625 Y1.2924 
G00 Z0.1000 
G00 X0.2782 Y1.6416 
G01 Z-0.0070 F10.00 
G01 X0.1218 Y1.6416 F20.00 
G01 X0.1034 Y1.6340 
G01 X0.0894 Y1.6199 
G01 X0.0818 Y1.6015 
G01 X0.0818 Y1.5816 
G01 X0.0894 Y1.5633 
G01 X0.1034 Y1.5492 
G01 X0.1218 Y1.5416 
G01 X0.2782 Y1.5416 
G01 X0.2966 Y1.5492 
G01 X0.3106 Y1.5633 
G01 X0.3182 Y1.5816 
G01 X0.3182 Y1.6015 
G01 X0.3106 Y1.6199 
G01 X0.2966 Y1.6340 
G01 X0.2782 Y1.6416 
G00 Z0.1000 
G00 X0.2782 Y1.8384 
G01 Z-0.0070 F10.00 
G01 X0.1218 Y1.8384 F20.00 
G01 X0.1034 Y1.8308 
G01 X0.0894 Y1.8167 
G01 X0.0818 Y1.7984 
G01 X0.0818 Y1.7785 
G01 X0.0894 Y1.7601 
G01 X0.1034 Y1.7460 
G01 X0.1218 Y1.7384 
G01 X0.2782 Y1.7384 
G01 X0.2966 Y1.7460 
G01 X0.3106 Y1.7601 
G01 X0.3182 Y1.7785 
G01 X0.3182 Y1.7984 
G01 X0.3106 Y1.8167 
G01 X0.2966 Y1.8308 
G01 X0.2782 Y1.8384 
G00 Z0.1000 
G00 X2.8418 Y0.6984 
G01 Z-0.0070 F10.00 
G01 X2.9982 Y0.6984 F20.00 
G01 X3.0166 Y0.7060 
G01 X3.0306 Y0.7201 
G01 X3.0382 Y0.7385 
G01 X3.0382 Y0.7584 
G01 X3.0306 Y0.7767 
G01 X3.0166 Y0.7908 
G01 X2.9982 Y0.7984 
G01 X2.8418 Y0.7984 
G01 X2.8234 Y0.7908 
G01 X2.8094 Y0.7767 
G01 X2.8018 Y0.7584 
G01 X2.8018 Y0.7385 
G01 X2.8094 Y0.7201 
G01 X2.8234 Y0.7060 
G01 X2.8418 Y0.6984 
G00 Z0.1000 
G00 X2.8418 Y0.5016 
G01 Z-0.0070 F10.00 
G01 X2.9982 Y0.5016 F20.00 
G01 X3.0166 Y0.5092 
G01 X3.0306 Y0.5233 
G01 X3.0382 Y0.5416 
G01 X3.0382 Y0.5615 
G01 X3.0306 Y0.5799 
G01 X3.0166 Y0.5940 
G01 X2.9982 Y0.6016 
G01 X2.8418 Y0.6016 
G01 X2.8234 Y0.5940 
G01 X2.8094 Y0.5799 
G01 X2.8018 Y0.5615 
G01 X2.8018 Y0.5416 
G01 X2.8094 Y0.5233 
G01 X2.8234 Y0.5092 
G01 X2.8418 Y0.5016 
G00 Z0.1000 
G00 X0.2782 Y0.7616 
G01 Z-0.0070 F10.00 
G01 X0.1218 Y0.7616 F20.00 
G01 X0.1034 Y0.7540 
G01 X0.0894 Y0.7399 
G01 X0.0818 Y0.7215 
G01 X0.0818 Y0.7016 
G01 X0.0894 Y0.6833 
G01 X0.1034 Y0.6692 
G01 X0.1218 Y0.6616 
G01 X0.2782 Y0.6616 
G01 X0.2966 Y0.6692 
G01 X0.3106 Y0.6833 
G01 X0.3182 Y0.7016 
G01 X0.3182 Y0.7215 
G01 X0.3106 Y0.7399 
G01 X0.2966 Y0.7540 
G01 X0.2782 Y0.7616 
G00 Z0.1000 
G00 X0.2782 Y0.9584 
G01 Z-0.0070 F10.00 
G01 X0.1218 Y0.9584 F20.00 
G01 X0.1034 Y0.9508 
G01 X0.0894 Y0.9367 
G01 X0.0818 Y0.9184 
G01 X0.0818 Y0.8985 
G01 X0.0894 Y0.8801 
G01 X0.1034 Y0.8660 
G01 X0.1218 Y0.8584 
G01 X0.2782 Y0.8584 
G01 X0.2966 Y0.8660 
G01 X0.3106 Y0.8801 
G01 X0.3182 Y0.8985 
G01 X0.3182 Y0.9184 
G01 X0.3106 Y0.9367 
G01 X0.2966 Y0.9508 
G01 X0.2782 Y0.9584 
G00 Z0.1000 
G00 X0.2782 Y1.1616 
G01 Z-0.0070 F10.00 
G01 X0.1218 Y1.1616 F20.00 
G01 X0.1034 Y1.1540 
G01 X0.0894 Y1.1399 
G01 X0.0818 Y1.1215 
G01 X0.0818 Y1.1016 
G01 X0.0894 Y1.0833 
G01 X0.1034 Y1.0692 
G01 X0.1218 Y1.0616 
G01 X0.2782 Y1.0616 
G01 X0.2966 Y1.0692 
G01 X0.3106 Y1.0833 
G01 X0.3182 Y1.1016 
G01 X0.3182 Y1.1215 
G01 X0.3106 Y1.1399 
G01 X0.2966 Y1.1540 
G01 X0.2782 Y1.1616 
G00 Z0.1000 
G00 X0.2782 Y1.3584 
G01 Z-0.0070 F10.00 
G01 X0.1218 Y1.3584 F20.00 
G01 X0.1034 Y1.3508 
G01 X0.0894 Y1.3367 
G01 X0.0818 Y1.3184 
G01 X0.0818 Y1.2985 
G01 X0.0894 Y1.2801 
G01 X0.1034 Y1.2660 
G01 X0.1218 Y1.2584 
G01 X0.2782 Y1.2584 
G01 X0.2966 Y1.2660 
G01 X0.3106 Y1.2801 
G01 X0.3182 Y1.2985 
G01 X0.3182 Y1.3184 
G01 X0.3106 Y1.3367 
G01 X0.2966 Y1.3508 
G01 X0.2782 Y1.3584 
G00 Z0.1000 
G00 X1.3155 Y1.4525 
G01 Z-0.0070 F10.00 
G01 X1.1845 Y1.4525 F20.00 
G01 X1.1689 Y1.4460 
G01 X1.1570 Y1.4341 
G01 X1.1505 Y1.4185 
G01 X1.1505 Y1.4015 
G01 X1.1570 Y1.3859 
G01 X1.1689 Y1.3740 
G01 X1.1845 Y1.3675 
G01 X1.3155 Y1.3675 
G01 X1.3311 Y1.3740 
G01 X1.3430 Y1.3859 
G01 X1.3495 Y1.4015 
G01 X1.3495 Y1.4185 
G01 X1.3430 Y1.4341 
G01 X1.3311 Y1.4460 
G01 X1.3155 Y1.4525 
G00 Z0.1000 
G00 X1.3155 Y1.3525 
G01 Z-0.0070 F10.00 
G01 X1.1845 Y1.3525 F20.00 
G01 X1.1689 Y1.3460 
G01 X1.1570 Y1.3341 
G01 X1.1505 Y1.3185 
G01 X1.1505 Y1.3015 
G01 X1.1570 Y1.2859 
G01 X1.1689 Y1.2740 
G01 X1.1845 Y1.2675 
G01 X1.3155 Y1.2675 
G01 X1.3311 Y1.2740 
G01 X1.3430 Y1.2859 
G01 X1.3495 Y1.3015 
G01 X1.3495 Y1.3185 
G01 X1.3430 Y1.3341 
G01 X1.3311 Y1.3460 
G01 X1.3155 Y1.3525 
G00 Z0.1000 
G00 X1.3155 Y1.2525 
G01 Z-0.0070 F10.00 
G01 X1.1845 Y1.2525 F20.00 
G01 X1.1689 Y1.2460 
G01 X1.1570 Y1.2341 
G01 X1.1505 Y1.2185 
G01 X1.1505 Y1.2015 
G01 X1.1570 Y1.1859 
G01 X1.1689 Y1.1740 
G01 X1.1845 Y1.1675 
G01 X1.3155 Y1.1675 
G01 X1.3311 Y1.1740 
G01 X1.3430 Y1.1859 
G01 X1.3495 Y1.2015 
G01 X1.3495 Y1.2185 
G01 X1.3430 Y1.2341 
G01 X1.3311 Y1.2460 
G01 X1.3155 Y1.2525 
G00 Z0.1000 
G00 X1.3155 Y1.1525 
G01 Z-0.0070 F10.00 
G01 X1.1845 Y1.1525 F20.00 
G01 X1.1689 Y1.1460 
G01 X1.1570 Y1.1341 
G01 X1.1505 Y1.1185 
G01 X1.1505 Y1.1015 
G01 X1.1570 Y1.0859 
G01 X1.1689 Y1.0740 
G01 X1.1845 Y1.0675 
G01 X1.3155 Y1.0675 
G01 X1.3311 Y1.0740 
G01 X1.3430 Y1.0859 
G01 X1.3495 Y1.1015 
G01 X1.3495 Y1.1185 
G01 X1.3430 Y1.1341 
G01 X1.3311 Y1.1460 
G01 X1.3155 Y1.1525 
G00 Z0.1000 
G00 X1.3155 Y1.0525 
G01 Z-0.0070 F10.00 
G01 X1.1845 Y1.0525 F20.00 
G01 X1.1689 Y1.0460 
G01 X1.1570 Y1.0341 
G01 X1.1505 Y1.0185 
G01 X1.1505 Y1.0015 
G01 X1.1570 Y0.9859 
G01 X1.1689 Y0.9740 
G01 X1.1845 Y0.9675 
G01 X1.3155 Y0.9675 
G01 X1.3311 Y0.9740 
G01 X1.3430 Y0.9859 
G01 X1.3495 Y1.0015 
G01 X1.3495 Y1.0185 
G01 X1.3430 Y1.0341 
G01 X1.3311 Y1.0460 
G01 X1.3155 Y1.0525 
G00 Z0.1000 
G00 X1.3155 Y0.9525 
G01 Z-0.0070 F10.00 
G01 X1.1845 Y0.9525 F20.00 
G01 X1.1689 Y0.9460 
G01 X1.1570 Y0.9341 
G01 X1.1505 Y0.9185 
G01 X1.1505 Y0.9015 
G01 X1.1570 Y0.8859 
G01 X1.1689 Y0.8740 
G01 X1.1845 Y0.8675 
G01 X1.3155 Y0.8675 
G01 X1.3311 Y0.8740 
G01 X1.3430 Y0.8859 
G01 X1.3495 Y0.9015 
G01 X1.3495 Y0.9185 
G01 X1.3430 Y0.9341 
G01 X1.3311 Y0.9460 
G01 X1.3155 Y0.9525 
G00 Z0.1000 
G00 X1.0155 Y1.0525 
G01 Z-0.0070 F10.00 
G01 X0.8845 Y1.0525 F20.00 
G01 X0.8689 Y1.0460 
G01 X0.8570 Y1.0341 
G01 X0.8505 Y1.0185 
G01 X0.8505 Y1.0015 
G01 X0.8570 Y0.9859 
G01 X0.8689 Y0.9740 
G01 X0.8845 Y0.9675 
G01 X1.0155 Y0.9675 
G01 X1.0311 Y0.9740 
G01 X1.0430 Y0.9859 
G01 X1.0495 Y1.0015 
G01 X1.0495 Y1.0185 
G01 X1.0430 Y1.0341 
G01 X1.0311 Y1.0460 
G01 X1.0155 Y1.0525 
G00 Z0.1000 
G00 X1.0155 Y0.9525 
G01 Z-0.0070 F10.00 
G01 X0.8845 Y0.9525 F20.00 
G01 X0.8689 Y0.9460 
G01 X0.8570 Y0.9341 
G01 X0.8505 Y0.9185 
G01 X0.8505 Y0.9015 
G01 X0.8570 Y0.8859 
G01 X0.8689 Y0.8740 
G01 X0.8845 Y0.8675 
G01 X1.0155 Y0.8675 
G01 X1.0311 Y0.8740 
G01 X1.0430 Y0.8859 
G01 X1.0495 Y0.9015 
G01 X1.0495 Y0.9185 
G01 X1.0430 Y0.9341 
G01 X1.0311 Y0.9460 
G01 X1.0155 Y0.9525 
G00 Z0.1000 
G00 X1.0155 Y1.1525 
G01 Z-0.0070 F10.00 
G01 X0.8845 Y1.1525 F20.00 
G01 X0.8689 Y1.1460 
G01 X0.8570 Y1.1341 
G01 X0.8505 Y1.1185 
G01 X0.8505 Y1.1015 
G01 X0.8570 Y1.0859 
G01 X0.8689 Y1.0740 
G01 X0.8845 Y1.0675 
G01 X1.0155 Y1.0675 
G01 X1.0311 Y1.0740 
G01 X1.0430 Y1.0859 
G01 X1.0495 Y1.1015 
G01 X1.0495 Y1.1185 
G01 X1.0430 Y1.1341 
G01 X1.0311 Y1.1460 
G01 X1.0155 Y1.1525 
G00 Z0.1000 
G00 X1.0155 Y1.2525 
G01 Z-0.0070 F10.00 
G01 X0.8845 Y1.2525 F20.00 
G01 X0.8689 Y1.2460 
G01 X0.8570 Y1.2341 
G01 X0.8505 Y1.2185 
G01 X0.8505 Y1.2015 
G01 X0.8570 Y1.1859 
G01 X0.8689 Y1.1740 
G01 X0.8845 Y1.1675 
G01 X1.0155 Y1.1675 
G01 X1.0311 Y1.1740 
G01 X1.0430 Y1.1859 
G01 X1.0495 Y1.2015 
G01 X1.0495 Y1.2185 
G01 X1.0430 Y1.2341 
G01 X1.0311 Y1.2460 
G01 X1.0155 Y1.2525 
G00 Z0.1000 
G00 X1.3155 Y0.8525 
G01 Z-0.0070 F10.00 
G01 X1.1845 Y0.8525 F20.00 
G01 X1.1689 Y0.8460 
G01 X1.1570 Y0.8341 
G01 X1.1505 Y0.8185 
G01 X1.1505 Y0.8015 
G01 X1.1570 Y0.7859 
G01 X1.1689 Y0.7740 
G01 X1.1845 Y0.7675 
G01 X1.3155 Y0.7675 
G01 X1.3311 Y0.7740 
G01 X1.3430 Y0.7859 
G01 X1.3495 Y0.8015 
G01 X1.3495 Y0.8185 
G01 X1.3430 Y0.8341 
G01 X1.3311 Y0.8460 
G01 X1.3155 Y0.8525 
G00 Z0.1000 
G00 X1.0155 Y0.8525 
G01 Z-0.0070 F10.00 
G01 X0.8845 Y0.8525 F20.00 
G01 X0.8689 Y0.8460 
G01 X0.8570 Y0.8341 
G01 X0.8505 Y0.8185 
G01 X0.8505 Y0.8015 
G01 X0.8570 Y0.7859 
G01 X0.8689 Y0.7740 
G01 X0.8845 Y0.7675 
G01 X1.0155 Y0.7675 
G01 X1.0311 Y0.7740 
G01 X1.0430 Y0.7859 
G01 X1.0495 Y0.8015 
G01 X1.0495 Y0.8185 
G01 X1.0430 Y0.8341 
G01 X1.0311 Y0.8460 
G01 X1.0155 Y0.8525 
G00 Z0.1000 
G00 X1.0155 Y1.3525 
G01 Z-0.0070 F10.00 
G01 X0.8845 Y1.3525 F20.00 
G01 X0.8689 Y1.3460 
G01 X0.8570 Y1.3341 
G01 X0.8505 Y1.3185 
G01 X0.8505 Y1.3015 
G01 X0.8570 Y1.2859 
G01 X0.8689 Y1.2740 
G01 X0.8845 Y1.2675 
G01 X1.0155 Y1.2675 
G01 X1.0311 Y1.2740 
G01 X1.0430 Y1.2859 
G01 X1.0495 Y1.3015 
G01 X1.0495 Y1.3185 
G01 X1.0430 Y1.3341 
G01 X1.0311 Y1.3460 
G01 X1.0155 Y1.3525 
G00 Z0.1000 
G00 X1.0155 Y1.4525 
G01 Z-0.0070 F10.00 
G01 X0.8845 Y1.4525 F20.00 
G01 X0.8689 Y1.4460 
G01 X0.8570 Y1.4341 
G01 X0.8505 Y1.4185 
G01 X0.8505 Y1.4015 
G01 X0.8570 Y1.3859 
G01 X0.8689 Y1.3740 
G01 X0.8845 Y1.3675 
G01 X1.0155 Y1.3675 
G01 X1.0311 Y1.3740 
G01 X1.0430 Y1.3859 
G01 X1.0495 Y1.4015 
G01 X1.0495 Y1.4185 
G01 X1.0430 Y1.4341 
G01 X1.0311 Y1.4460 
G01 X1.0155 Y1.4525 
G00 Z0.1000 
G00 X2.7025 Y1.5924 
G01 Z-0.0070 F10.00 
G01 X2.7025 Y1.6276 F20.00 
G01 X2.6776 Y1.6525 
G01 X2.6424 Y1.6525 
G01 X2.6175 Y1.6276 
G01 X2.6175 Y1.5924 
G01 X2.6424 Y1.5675 
G01 X2.6776 Y1.5675 
G01 X2.7025 Y1.5924 
G00 Z0.1000 
G00 X3.2025 Y1.5924 
G01 Z-0.0070 F10.00 
G01 X3.2025 Y1.6276 F20.00 
G01 X3.1776 Y1.6525 
G01 X3.1424 Y1.6525 
G01 X3.1175 Y1.6276 
G01 X3.1175 Y1.5924 
G01 X3.1424 Y1.5675 
G01 X3.1776 Y1.5675 
G01 X3.2025 Y1.5924 
G00 Z0.1000 
G00 X2.0585 Y0.6504 
G01 Z-0.0070 F10.00 
G01 X2.0585 Y0.6696 F20.00 
G01 X2.0511 Y0.6875 
G01 X2.0375 Y0.7011 
G01 X2.0196 Y0.7085 
G01 X2.0004 Y0.7085 
G01 X1.9825 Y0.7011 
G01 X1.9689 Y0.6875 
G01 X1.9615 Y0.6696 
G01 X1.9615 Y0.6504 
G01 X1.9689 Y0.6325 
G01 X1.9825 Y0.6189 
G01 X2.0004 Y0.6115 
G01 X2.0196 Y0.6115 
G01 X2.0375 Y0.6189 
G01 X2.0511 Y0.6325 
G01 X2.0585 Y0.6504 
G00 Z0.1000 
G00 X2.0585 Y0.2504 
G01 Z-0.0070 F10.00 
G01 X2.0585 Y0.2696 F20.00 
G01 X2.0511 Y0.2875 
G01 X2.0375 Y0.3011 
G01 X2.0196 Y0.3085 
G01 X2.0004 Y0.3085 
G01 X1.9825 Y0.3011 
G01 X1.9689 Y0.2875 
G01 X1.9615 Y0.2696 
G01 X1.9615 Y0.2504 
G01 X1.9689 Y0.2325 
G01 X1.9825 Y0.2189 
G01 X2.0004 Y0.2115 
G01 X2.0196 Y0.2115 
G01 X2.0375 Y0.2189 
G01 X2.0511 Y0.2325 
G01 X2.0585 Y0.2504 
G00 Z0.1000 
G00 X1.4685 Y0.3304 
G01 Z-0.0070 F10.00 
G01 X1.4685 Y0.3496 F20.00 
G01 X1.4611 Y0.3675 
G01 X1.4475 Y0.3811 
G01 X1.4296 Y0.3885 
G01 X1.4104 Y0.3885 
G01 X1.3925 Y0.3811 
G01 X1.3789 Y0.3675 
G01 X1.3715 Y0.3496 
G01 X1.3715 Y0.3304 
G01 X1.3789 Y0.3125 
G01 X1.3925 Y0.2989 
G01 X1.4104 Y0.2915 
G01 X1.4296 Y0.2915 
G01 X1.4475 Y0.2989 
G01 X1.4611 Y0.3125 
G01 X1.4685 Y0.3304 
G00 Z0.1000 
G00 X1.8685 Y0.3304 
G01 Z-0.0070 F10.00 
G01 X1.8685 Y0.3496 F20.00 
G01 X1.8611 Y0.3675 
G01 X1.8475 Y0.3811 
G01 X1.8296 Y0.3885 
G01 X1.8104 Y0.3885 
G01 X1.7925 Y0.3811 
G01 X1.7789 Y0.3675 
G01 X1.7715 Y0.3496 
G01 X1.7715 Y0.3304 
G01 X1.7789 Y0.3125 
G01 X1.7925 Y0.2989 
G01 X1.8104 Y0.2915 
G01 X1.8296 Y0.2915 
G01 X1.8475 Y0.2989 
G01 X1.8611 Y0.3125 
G01 X1.8685 Y0.3304 
G00 Z0.1000 
G00 X1.4685 Y0.4904 
G01 Z-0.0070 F10.00 
G01 X1.4685 Y0.5096 F20.00 
G01 X1.4611 Y0.5275 
G01 X1.4475 Y0.5411 
G01 X1.4296 Y0.5485 
G01 X1.4104 Y0.5485 
G01 X1.3925 Y0.5411 
G01 X1.3789 Y0.5275 
G01 X1.3715 Y0.5096 
G01 X1.3715 Y0.4904 
G01 X1.3789 Y0.4725 
G01 X1.3925 Y0.4589 
G01 X1.4104 Y0.4515 
G01 X1.4296 Y0.4515 
G01 X1.4475 Y0.4589 
G01 X1.4611 Y0.4725 
G01 X1.4685 Y0.4904 
G00 Z0.1000 
G00 X1.8685 Y0.4904 
G01 Z-0.0070 F10.00 
G01 X1.8685 Y0.5096 F20.00 
G01 X1.8611 Y0.5275 
G01 X1.8475 Y0.5411 
G01 X1.8296 Y0.5485 
G01 X1.8104 Y0.5485 
G01 X1.7925 Y0.5411 
G01 X1.7789 Y0.5275 
G01 X1.7715 Y0.5096 
G01 X1.7715 Y0.4904 
G01 X1.7789 Y0.4725 
G01 X1.7925 Y0.4589 
G01 X1.8104 Y0.4515 
G01 X1.8296 Y0.4515 
G01 X1.8475 Y0.4589 
G01 X1.8611 Y0.4725 
G01 X1.8685 Y0.4904 
G00 Z0.1000 
G00 X1.5485 Y1.7004 
G01 Z-0.0070 F10.00 
G01 X1.5485 Y1.7196 F20.00 
G01 X1.5411 Y1.7375 
G01 X1.5275 Y1.7511 
G01 X1.5096 Y1.7585 
G01 X1.4904 Y1.7585 
G01 X1.4725 Y1.7511 
G01 X1.4589 Y1.7375 
G01 X1.4515 Y1.7196 
G01 X1.4515 Y1.7004 
G01 X1.4589 Y1.6825 
G01 X1.4725 Y1.6689 
G01 X1.4904 Y1.6615 
G01 X1.5096 Y1.6615 
G01 X1.5275 Y1.6689 
G01 X1.5411 Y1.6825 
G01 X1.5485 Y1.7004 
G00 Z0.1000 
G00 X1.5485 Y1.3004 
G01 Z-0.0070 F10.00 
G01 X1.5485 Y1.3196 F20.00 
G01 X1.5411 Y1.3375 
G01 X1.5275 Y1.3511 
G01 X1.5096 Y1.3585 
G01 X1.4904 Y1.3585 
G01 X1.4725 Y1.3511 
G01 X1.4589 Y1.3375 
G01 X1.4515 Y1.3196 
G01 X1.4515 Y1.3004 
G01 X1.4589 Y1.2825 
G01 X1.4725 Y1.2689 
G01 X1.4904 Y1.2615 
G01 X1.5096 Y1.2615 
G01 X1.5275 Y1.2689 
G01 X1.5411 Y1.2825 
G01 X1.5485 Y1.3004 
G00 Z0.1000 
G00 X2.3255 Y1.0525 
G01 Z-0.0070 F10.00 
G01 X2.1945 Y1.0525 F20.00 
G01 X2.1789 Y1.0460 
G01 X2.1670 Y1.0341 
G01 X2.1605 Y1.0185 
G01 X2.1605 Y1.0015 
G01 X2.1670 Y0.9859 
G01 X2.1789 Y0.9740 
G01 X2.1945 Y0.9675 
G01 X2.3255 Y0.9675 
G01 X2.3411 Y0.9740 
G01 X2.3530 Y0.9859 
G01 X2.3595 Y1.0015 
G01 X2.3595 Y1.0185 
G01 X2.3530 Y1.0341 
G01 X2.3411 Y1.0460 
G01 X2.3255 Y1.0525 
G00 Z0.1000 
G00 X2.3255 Y1.1525 
G01 Z-0.0070 F10.00 
G01 X2.1945 Y1.1525 F20.00 
G01 X2.1789 Y1.1460 
G01 X2.1670 Y1.1341 
G01 X2.1605 Y1.1185 
G01 X2.1605 Y1.1015 
G01 X2.1670 Y1.0859 
G01 X2.1789 Y1.0740 
G01 X2.1945 Y1.0675 
G01 X2.3255 Y1.0675 
G01 X2.3411 Y1.0740 
G01 X2.3530 Y1.0859 
G01 X2.3595 Y1.1015 
G01 X2.3595 Y1.1185 
G01 X2.3530 Y1.1341 
G01 X2.3411 Y1.1460 
G01 X2.3255 Y1.1525 
G00 Z0.1000 
G00 X2.0255 Y1.0525 
G01 Z-0.0070 F10.00 
G01 X1.8945 Y1.0525 F20.00 
G01 X1.8789 Y1.0460 
G01 X1.8670 Y1.0341 
G01 X1.8605 Y1.0185 
G01 X1.8605 Y1.0015 
G01 X1.8670 Y0.9859 
G01 X1.8789 Y0.9740 
G01 X1.8945 Y0.9675 
G01 X2.0255 Y0.9675 
G01 X2.0411 Y0.9740 
G01 X2.0530 Y0.9859 
G01 X2.0595 Y1.0015 
G01 X2.0595 Y1.0185 
G01 X2.0530 Y1.0341 
G01 X2.0411 Y1.0460 
G01 X2.0255 Y1.0525 
G00 Z0.1000 
G00 X2.0255 Y1.1525 
G01 Z-0.0070 F10.00 
G01 X1.8945 Y1.1525 F20.00 
G01 X1.8789 Y1.1460 
G01 X1.8670 Y1.1341 
G01 X1.8605 Y1.1185 
G01 X1.8605 Y1.1015 
G01 X1.8670 Y1.0859 
G01 X1.8789 Y1.0740 
G01 X1.8945 Y1.0675 
G01 X2.0255 Y1.0675 
G01 X2.0411 Y1.0740 
G01 X2.0530 Y1.0859 
G01 X2.0595 Y1.1015 
G01 X2.0595 Y1.1185 
G01 X2.0530 Y1.1341 
G01 X2.0411 Y1.1460 
G01 X2.0255 Y1.1525 
G00 Z0.1000 
G00 X2.3255 Y1.3525 
G01 Z-0.0070 F10.00 
G01 X2.1945 Y1.3525 F20.00 
G01 X2.1789 Y1.3460 
G01 X2.1670 Y1.3341 
G01 X2.1605 Y1.3185 
G01 X2.1605 Y1.3015 
G01 X2.1670 Y1.2859 
G01 X2.1789 Y1.2740 
G01 X2.1945 Y1.2675 
G01 X2.3255 Y1.2675 
G01 X2.3411 Y1.2740 
G01 X2.3530 Y1.2859 
G01 X2.3595 Y1.3015 
G01 X2.3595 Y1.3185 
G01 X2.3530 Y1.3341 
G01 X2.3411 Y1.3460 
G01 X2.3255 Y1.3525 
G00 Z0.1000 
G00 X2.3255 Y1.2525 
G01 Z-0.0070 F10.00 
G01 X2.1945 Y1.2525 F20.00 
G01 X2.1789 Y1.2460 
G01 X2.1670 Y1.2341 
G01 X2.1605 Y1.2185 
G01 X2.1605 Y1.2015 
G01 X2.1670 Y1.1859 
G01 X2.1789 Y1.1740 
G01 X2.1945 Y1.1675 
G01 X2.3255 Y1.1675 
G01 X2.3411 Y1.1740 
G01 X2.3530 Y1.1859 
G01 X2.3595 Y1.2015 
G01 X2.3595 Y1.2185 
G01 X2.3530 Y1.2341 
G01 X2.3411 Y1.2460 
G01 X2.3255 Y1.2525 
G00 Z0.1000 
G00 X2.0255 Y1.2525 
G01 Z-0.0070 F10.00 
G01 X1.8945 Y1.2525 F20.00 
G01 X1.8789 Y1.2460 
G01 X1.8670 Y1.2341 
G01 X1.8605 Y1.2185 
G01 X1.8605 Y1.2015 
G01 X1.8670 Y1.1859 
G01 X1.8789 Y1.1740 
G01 X1.8945 Y1.1675 
G01 X2.0255 Y1.1675 
G01 X2.0411 Y1.1740 
G01 X2.0530 Y1.1859 
G01 X2.0595 Y1.2015 
G01 X2.0595 Y1.2185 
G01 X2.0530 Y1.2341 
G01 X2.0411 Y1.2460 
G01 X2.0255 Y1.2525 
G00 Z0.1000 
G00 X2.0255 Y1.3525 
G01 Z-0.0070 F10.00 
G01 X1.8945 Y1.3525 F20.00 
G01 X1.8789 Y1.3460 
G01 X1.8670 Y1.3341 
G01 X1.8605 Y1.3185 
G01 X1.8605 Y1.3015 
G01 X1.8670 Y1.2859 
G01 X1.8789 Y1.2740 
G01 X1.8945 Y1.2675 
G01 X2.0255 Y1.2675 
G01 X2.0411 Y1.2740 
G01 X2.0530 Y1.2859 
G01 X2.0595 Y1.3015 
G01 X2.0595 Y1.3185 
G01 X2.0530 Y1.3341 
G01 X2.0411 Y1.3460 
G01 X2.0255 Y1.3525 
G00 Z0.1000 
G00 X2.4325 Y1.6474 
G01 Z-0.0070 F10.00 
G01 X2.4325 Y1.6826 F20.00 
G01 X2.4076 Y1.7075 
G01 X2.3724 Y1.7075 
G01 X2.3475 Y1.6826 
G01 X2.3475 Y1.6474 
G01 X2.3724 Y1.6225 
G01 X2.4076 Y1.6225 
G01 X2.4325 Y1.6474 
G00 Z0.1000 
G00 X2.0163 Y1.4508 
G01 Z-0.0070 F10.00 
G01 X2.0163 Y1.4892 F20.00 
G01 X1.9995 Y1.5060 
G01 X1.9995 Y1.7540 
G01 X2.0163 Y1.7708 
G01 X2.0163 Y1.8092 
G01 X1.9892 Y1.8363 
G01 X1.9508 Y1.8363 
G01 X1.9237 Y1.8092 
G01 X1.9237 Y1.7708 
G01 X1.9405 Y1.7540 
G01 X1.9405 Y1.5060 
G01 X1.9237 Y1.4892 
G01 X1.9237 Y1.4508 
G01 X1.9508 Y1.4237 
G01 X1.9892 Y1.4237 
G01 X2.0163 Y1.4508 
G00 Z0.1000 
G00 X2.5563 Y0.8908 
G01 Z-0.0070 F10.00 
G01 X2.5563 Y0.9292 F20.00 
G01 X2.5292 Y0.9563 
G01 X2.4908 Y0.9563 
G01 X2.4637 Y0.9292 
G01 X2.4637 Y0.8908 
G01 X2.4805 Y0.8740 
G01 X2.4805 Y0.4960 
G01 X2.4637 Y0.4792 
G01 X2.4637 Y0.4408 
G01 X2.4908 Y0.4137 
G01 X2.5292 Y0.4137 
G01 X2.5563 Y0.4408 
G01 X2.5563 Y0.4792 
G01 X2.5395 Y0.4960 
G01 X2.5395 Y0.8740 
G01 X2.5563 Y0.8908 
G00 Z0.1000 
G00 X1.6105 Y0.9242 
G01 Z-0.0070 F10.00 
G01 X1.6105 Y0.9242 F20.00 
G01 X1.6226 Y0.8950 
G01 X1.6226 Y0.8950 
G01 X1.6450 Y0.8726 
G01 X1.6450 Y0.8726 
G01 X1.6742 Y0.8605 
G01 X1.6742 Y0.8605 
G01 X1.6841 Y0.8605 
G01 X1.6841 Y0.8605 
G01 X1.6900 Y0.8605 
G01 X1.6959 Y0.8605 
G01 X1.8500 Y0.8605 
G01 X1.8540 Y0.8601 
G01 X1.8614 Y0.8570 
G01 X1.8670 Y0.8514 
G01 X1.8701 Y0.8440 
G01 X1.8705 Y0.8400 
G01 X1.8705 Y0.8366 
G01 X1.8705 Y0.8341 
G01 X1.8705 Y0.6060 
G01 X1.8537 Y0.5892 
G01 X1.8537 Y0.5508 
G01 X1.8808 Y0.5237 
G01 X1.9192 Y0.5237 
G01 X1.9463 Y0.5508 
G01 X1.9463 Y0.5892 
G01 X1.9295 Y0.6060 
G01 X1.9295 Y0.8341 
G01 X1.9295 Y0.8366 
G01 X1.9295 Y0.8459 
G01 X1.9295 Y0.8459 
G01 X1.9295 Y0.8558 
G01 X1.9295 Y0.8558 
G01 X1.9174 Y0.8850 
G01 X1.9174 Y0.8850 
G01 X1.8950 Y0.9074 
G01 X1.8950 Y0.9074 
G01 X1.8658 Y0.9195 
G01 X1.8658 Y0.9195 
G01 X1.8559 Y0.9195 
G01 X1.8559 Y0.9195 
G01 X1.6959 Y0.9195 
G01 X1.6900 Y0.9195 
G01 X1.6860 Y0.9199 
G01 X1.6786 Y0.9230 
G01 X1.6730 Y0.9286 
G01 X1.6699 Y0.9360 
G01 X1.6695 Y0.9400 
G01 X1.6695 Y1.2340 
G01 X1.6863 Y1.2508 
G01 X1.6863 Y1.2892 
G01 X1.6592 Y1.3163 
G01 X1.6208 Y1.3163 
G01 X1.5937 Y1.2892 
G01 X1.5937 Y1.2508 
G01 X1.6105 Y1.2340 
G01 X1.6105 Y0.9341 
G01 X1.6105 Y0.9341 
G01 X1.6105 Y0.9242 
G00 Z0.1000 
G00 X1.4120 Y1.8385 
G01 Z-0.0070 F10.00 
G01 X1.4120 Y1.8815 F20.00 
G01 X1.3815 Y1.9120 
G01 X1.3385 Y1.9120 
G01 X1.3080 Y1.8815 
G01 X1.3080 Y1.8385 
G01 X1.3385 Y1.8080 
G01 X1.3815 Y1.8080 
G01 X1.4120 Y1.8385 
G00 Z0.1000 
G00 X0.8120 Y1.8497 
G01 Z-0.0070 F10.00 
G01 X0.8120 Y1.8703 F20.00 
G01 X0.8041 Y1.8895 
G01 X0.7895 Y1.9041 
G01 X0.7703 Y1.9120 
G01 X0.7497 Y1.9120 
G01 X0.7305 Y1.9041 
G01 X0.7159 Y1.8895 
G01 X0.7080 Y1.8703 
G01 X0.7080 Y1.8497 
G01 X0.7159 Y1.8305 
G01 X0.7305 Y1.8159 
G01 X0.7497 Y1.8080 
G01 X0.7703 Y1.8080 
G01 X0.7895 Y1.8159 
G01 X0.8041 Y1.8305 
G01 X0.8120 Y1.8497 
G00 Z0.1000 
G00 X2.3520 Y1.4185 
G01 Z-0.0070 F10.00 
G01 X2.3520 Y1.4615 F20.00 
G01 X2.3215 Y1.4920 
G01 X2.2785 Y1.4920 
G01 X2.2613 Y1.4748 
G01 X2.2613 Y1.4913 
G01 X2.2445 Y1.5081 
G01 X2.2445 Y1.7019 
G01 X2.2613 Y1.7187 
G01 X2.2613 Y1.7613 
G01 X2.2313 Y1.7913 
G01 X2.1887 Y1.7913 
G01 X2.1587 Y1.7613 
G01 X2.1587 Y1.7187 
G01 X2.1755 Y1.7019 
G01 X2.1755 Y1.5081 
G01 X2.1587 Y1.4913 
G01 X2.1587 Y1.4487 
G01 X2.1887 Y1.4187 
G01 X2.2313 Y1.4187 
G01 X2.2480 Y1.4354 
G01 X2.2480 Y1.4185 
G01 X2.2785 Y1.3880 
G01 X2.3215 Y1.3880 
G01 X2.3520 Y1.4185 
G00 Z0.1000 
G00 X2.9520 Y1.4297 
G01 Z-0.0070 F10.00 
G01 X2.9520 Y1.4503 F20.00 
G01 X2.9441 Y1.4695 
G01 X2.9295 Y1.4841 
G01 X2.9103 Y1.4920 
G01 X2.8897 Y1.4920 
G01 X2.8705 Y1.4841 
G01 X2.8559 Y1.4695 
G01 X2.8480 Y1.4503 
G01 X2.8480 Y1.4297 
G01 X2.8559 Y1.4105 
G01 X2.8705 Y1.3959 
G01 X2.8897 Y1.3880 
G01 X2.9103 Y1.3880 
G01 X2.9295 Y1.3959 
G01 X2.9441 Y1.4105 
G01 X2.9520 Y1.4297 
G00 Z0.1000 
G00 X2.3875 Y1.7203 
G01 Z-0.0070 F10.00 
G01 X2.3875 Y1.7597 F20.00 
G01 X2.3597 Y1.7875 
G01 X2.3203 Y1.7875 
G01 X2.2925 Y1.7597 
G01 X2.2925 Y1.7203 
G01 X2.3203 Y1.6925 
G01 X2.3503 Y1.6925 
G01 X2.3425 Y1.6847 
G01 X2.3425 Y1.6453 
G01 X2.3703 Y1.6175 
G01 X2.4097 Y1.6175 
G01 X2.4375 Y1.6453 
G01 X2.4375 Y1.6847 
G01 X2.4297 Y1.6925 
G01 X2.4597 Y1.6925 
G01 X2.4875 Y1.7203 
G01 X2.4875 Y1.7597 
G01 X2.4597 Y1.7875 
G01 X2.4203 Y1.7875 
G01 X2.3925 Y1.7597 
G01 X2.3925 Y1.7203 
G01 X2.4003 Y1.7125 
G01 X2.3797 Y1.7125 
G01 X2.3875 Y1.7203 
G00 Z0.1000 
G00 X2.1875 Y0.2403 
G01 Z-0.0070 F10.00 
G01 X2.1875 Y0.2797 F20.00 
G01 X2.1597 Y0.3075 
G01 X2.1203 Y0.3075 
G01 X2.0925 Y0.2797 
G01 X2.0925 Y0.2403 
G01 X2.1203 Y0.2125 
G01 X2.1597 Y0.2125 
G01 X2.1875 Y0.2403 
G00 Z0.1000 
G00 X2.6875 Y0.2403 
G01 Z-0.0070 F10.00 
G01 X2.6875 Y0.2797 F20.00 
G01 X2.6597 Y0.3075 
G01 X2.6203 Y0.3075 
G01 X2.5925 Y0.2797 
G01 X2.5925 Y0.2403 
G01 X2.6203 Y0.2125 
G01 X2.6597 Y0.2125 
G01 X2.6875 Y0.2403 
G00 Z0.1000 
G00 X1.3675 Y0.1803 
G01 Z-0.0070 F10.00 
G01 X1.3675 Y0.2197 F20.00 
G01 X1.3397 Y0.2475 
G01 X1.3003 Y0.2475 
G01 X1.2725 Y0.2197 
G01 X1.2725 Y0.1803 
G01 X1.3003 Y0.1525 
G01 X1.3397 Y0.1525 
G01 X1.3675 Y0.1803 
G00 Z0.1000 
G00 X1.8675 Y0.1803 
G01 Z-0.0070 F10.00 
G01 X1.8675 Y0.2197 F20.00 
G01 X1.8397 Y0.2475 
G01 X1.8003 Y0.2475 
G01 X1.7725 Y0.2197 
G01 X1.7725 Y0.1803 
G01 X1.8003 Y0.1525 
G01 X1.8397 Y0.1525 
G01 X1.8675 Y0.1803 
G00 Z0.1000 
G00 X1.4775 Y0.6903 
G01 Z-0.0070 F10.00 
G01 X1.4775 Y0.7297 F20.00 
G01 X1.4497 Y0.7575 
G01 X1.4103 Y0.7575 
G01 X1.3825 Y0.7297 
G01 X1.3825 Y0.6903 
G01 X1.4103 Y0.6625 
G01 X1.4497 Y0.6625 
G01 X1.4775 Y0.6903 
G00 Z0.1000 
G00 X1.4775 Y1.1903 
G01 Z-0.0070 F10.00 
G01 X1.4775 Y1.2297 F20.00 
G01 X1.4497 Y1.2575 
G01 X1.4103 Y1.2575 
G01 X1.3825 Y1.2297 
G01 X1.3825 Y1.1903 
G01 X1.4103 Y1.1625 
G01 X1.4497 Y1.1625 
G01 X1.4775 Y1.1903 
G00 Z0.1000 
G00 X2.0264 Y1.3575 
G01 Z-0.0070 F10.00 
G01 X1.8935 Y1.3575 F20.00 
G01 X1.8761 Y1.3503 
G01 X1.8627 Y1.3369 
G01 X1.8555 Y1.3194 
G01 X1.8555 Y1.3005 
G01 X1.8627 Y1.2831 
G01 X1.8761 Y1.2697 
G01 X1.8935 Y1.2625 
G01 X2.0264 Y1.2625 
G01 X2.0439 Y1.2697 
G01 X2.0573 Y1.2831 
G01 X2.0645 Y1.3005 
G01 X2.0645 Y1.3194 
G01 X2.0573 Y1.3369 
G01 X2.0439 Y1.3503 
G01 X2.0264 Y1.3575 
G00 Z0.1000 
G00 X2.0264 Y1.2575 
G01 Z-0.0070 F10.00 
G01 X1.8935 Y1.2575 F20.00 
G01 X1.8761 Y1.2503 
G01 X1.8627 Y1.2369 
G01 X1.8555 Y1.2194 
G01 X1.8555 Y1.2005 
G01 X1.8627 Y1.1831 
G01 X1.8761 Y1.1697 
G01 X1.8935 Y1.1625 
G01 X2.0264 Y1.1625 
G01 X2.0439 Y1.1697 
G01 X2.0573 Y1.1831 
G01 X2.0645 Y1.2005 
G01 X2.0645 Y1.2194 
G01 X2.0573 Y1.2369 
G01 X2.0439 Y1.2503 
G01 X2.0264 Y1.2575 
G00 Z0.1000 
G00 X2.3264 Y1.2575 
G01 Z-0.0070 F10.00 
G01 X2.1935 Y1.2575 F20.00 
G01 X2.1761 Y1.2503 
G01 X2.1627 Y1.2369 
G01 X2.1555 Y1.2194 
G01 X2.1555 Y1.2005 
G01 X2.1627 Y1.1831 
G01 X2.1761 Y1.1697 
G01 X2.1935 Y1.1625 
G01 X2.3264 Y1.1625 
G01 X2.3439 Y1.1697 
G01 X2.3573 Y1.1831 
G01 X2.3645 Y1.2005 
G01 X2.3645 Y1.2194 
G01 X2.3573 Y1.2369 
G01 X2.3439 Y1.2503 
G01 X2.3264 Y1.2575 
G00 Z0.1000 
G00 X2.3264 Y1.3575 
G01 Z-0.0070 F10.00 
G01 X2.1935 Y1.3575 F20.00 
G01 X2.1761 Y1.3503 
G01 X2.1627 Y1.3369 
G01 X2.1555 Y1.3194 
G01 X2.1555 Y1.3005 
G01 X2.1627 Y1.2831 
G01 X2.1761 Y1.2697 
G01 X2.1935 Y1.2625 
G01 X2.3264 Y1.2625 
G01 X2.3439 Y1.2697 
G01 X2.3573 Y1.2831 
G01 X2.3645 Y1.3005 
G01 X2.3645 Y1.3194 
G01 X2.3573 Y1.3369 
G01 X2.3439 Y1.3503 
G01 X2.3264 Y1.3575 
G00 Z0.1000 
G00 X2.0264 Y1.1575 
G01 Z-0.0070 F10.00 
G01 X1.8935 Y1.1575 F20.00 
G01 X1.8761 Y1.1503 
G01 X1.8627 Y1.1369 
G01 X1.8555 Y1.1194 
G01 X1.8555 Y1.1005 
G01 X1.8627 Y1.0831 
G01 X1.8761 Y1.0697 
G01 X1.8935 Y1.0625 
G01 X2.0264 Y1.0625 
G01 X2.0439 Y1.0697 
G01 X2.0573 Y1.0831 
G01 X2.0645 Y1.1005 
G01 X2.0645 Y1.1194 
G01 X2.0573 Y1.1369 
G01 X2.0439 Y1.1503 
G01 X2.0264 Y1.1575 
G00 Z0.1000 
G00 X2.0264 Y1.0575 
G01 Z-0.0070 F10.00 
G01 X1.8935 Y1.0575 F20.00 
G01 X1.8761 Y1.0503 
G01 X1.8627 Y1.0369 
G01 X1.8555 Y1.0194 
G01 X1.8555 Y1.0005 
G01 X1.8627 Y0.9831 
G01 X1.8761 Y0.9697 
G01 X1.8935 Y0.9625 
G01 X2.0264 Y0.9625 
G01 X2.0439 Y0.9697 
G01 X2.0573 Y0.9831 
G01 X2.0645 Y1.0005 
G01 X2.0645 Y1.0194 
G01 X2.0573 Y1.0369 
G01 X2.0439 Y1.0503 
G01 X2.0264 Y1.0575 
G00 Z0.1000 
G00 X2.3264 Y1.1575 
G01 Z-0.0070 F10.00 
G01 X2.1935 Y1.1575 F20.00 
G01 X2.1761 Y1.1503 
G01 X2.1627 Y1.1369 
G01 X2.1555 Y1.1194 
G01 X2.1555 Y1.1005 
G01 X2.1627 Y1.0831 
G01 X2.1761 Y1.0697 
G01 X2.1935 Y1.0625 
G01 X2.3264 Y1.0625 
G01 X2.3439 Y1.0697 
G01 X2.3573 Y1.0831 
G01 X2.3645 Y1.1005 
G01 X2.3645 Y1.1194 
G01 X2.3573 Y1.1369 
G01 X2.3439 Y1.1503 
G01 X2.3264 Y1.1575 
G00 Z0.1000 
G00 X2.3264 Y1.0575 
G01 Z-0.0070 F10.00 
G01 X2.1935 Y1.0575 F20.00 
G01 X2.1761 Y1.0503 
G01 X2.1627 Y1.0369 
G01 X2.1555 Y1.0194 
G01 X2.1555 Y1.0005 
G01 X2.1627 Y0.9831 
G01 X2.1761 Y0.9697 
G01 X2.1935 Y0.9625 
G01 X2.3264 Y0.9625 
G01 X2.3439 Y0.9697 
G01 X2.3573 Y0.9831 
G01 X2.3645 Y1.0005 
G01 X2.3645 Y1.0194 
G01 X2.3573 Y1.0369 
G01 X2.3439 Y1.0503 
G01 X2.3264 Y1.0575 
G00 Z0.1000 
G00 X1.5535 Y1.2994 
G01 Z-0.0070 F10.00 
G01 X1.5535 Y1.3206 F20.00 
G01 X1.5454 Y1.3403 
G01 X1.5303 Y1.3554 
G01 X1.5106 Y1.3635 
G01 X1.4894 Y1.3635 
G01 X1.4697 Y1.3554 
G01 X1.4546 Y1.3403 
G01 X1.4465 Y1.3206 
G01 X1.4465 Y1.2994 
G01 X1.4546 Y1.2797 
G01 X1.4697 Y1.2646 
G01 X1.4894 Y1.2565 
G01 X1.5106 Y1.2565 
G01 X1.5303 Y1.2646 
G01 X1.5454 Y1.2797 
G01 X1.5535 Y1.2994 
G00 Z0.1000 
G00 X1.5535 Y1.6994 
G01 Z-0.0070 F10.00 
G01 X1.5535 Y1.7206 F20.00 
G01 X1.5454 Y1.7403 
G01 X1.5303 Y1.7554 
G01 X1.5106 Y1.7635 
G01 X1.4894 Y1.7635 
G01 X1.4697 Y1.7554 
G01 X1.4546 Y1.7403 
G01 X1.4465 Y1.7206 
G01 X1.4465 Y1.6994 
G01 X1.4546 Y1.6797 
G01 X1.4697 Y1.6646 
G01 X1.4894 Y1.6565 
G01 X1.5106 Y1.6565 
G01 X1.5303 Y1.6646 
G01 X1.5454 Y1.6797 
G01 X1.5535 Y1.6994 
G00 Z0.1000 
G00 X1.8735 Y0.4894 
G01 Z-0.0070 F10.00 
G01 X1.8735 Y0.5106 F20.00 
G01 X1.8654 Y0.5303 
G01 X1.8503 Y0.5454 
G01 X1.8306 Y0.5535 
G01 X1.8094 Y0.5535 
G01 X1.7897 Y0.5454 
G01 X1.7746 Y0.5303 
G01 X1.7665 Y0.5106 
G01 X1.7665 Y0.4894 
G01 X1.7746 Y0.4697 
G01 X1.7897 Y0.4546 
G01 X1.8094 Y0.4465 
G01 X1.8306 Y0.4465 
G01 X1.8503 Y0.4546 
G01 X1.8654 Y0.4697 
G01 X1.8735 Y0.4894 
G00 Z0.1000 
G00 X1.4735 Y0.4894 
G01 Z-0.0070 F10.00 
G01 X1.4735 Y0.5106 F20.00 
G01 X1.4654 Y0.5303 
G01 X1.4503 Y0.5454 
G01 X1.4306 Y0.5535 
G01 X1.4094 Y0.5535 
G01 X1.3897 Y0.5454 
G01 X1.3746 Y0.5303 
G01 X1.3665 Y0.5106 
G01 X1.3665 Y0.4894 
G01 X1.3746 Y0.4697 
G01 X1.3897 Y0.4546 
G01 X1.4094 Y0.4465 
G01 X1.4306 Y0.4465 
G01 X1.4503 Y0.4546 
G01 X1.4654 Y0.4697 
G01 X1.4735 Y0.4894 
G00 Z0.1000 
G00 X1.8735 Y0.3294 
G01 Z-0.0070 F10.00 
G01 X1.8735 Y0.3506 F20.00 
G01 X1.8654 Y0.3703 
G01 X1.8503 Y0.3854 
G01 X1.8306 Y0.3935 
G01 X1.8094 Y0.3935 
G01 X1.7897 Y0.3854 
G01 X1.7746 Y0.3703 
G01 X1.7665 Y0.3506 
G01 X1.7665 Y0.3294 
G01 X1.7746 Y0.3097 
G01 X1.7897 Y0.2946 
G01 X1.8094 Y0.2865 
G01 X1.8306 Y0.2865 
G01 X1.8503 Y0.2946 
G01 X1.8654 Y0.3097 
G01 X1.8735 Y0.3294 
G00 Z0.1000 
G00 X1.4735 Y0.3294 
G01 Z-0.0070 F10.00 
G01 X1.4735 Y0.3506 F20.00 
G01 X1.4654 Y0.3703 
G01 X1.4503 Y0.3854 
G01 X1.4306 Y0.3935 
G01 X1.4094 Y0.3935 
G01 X1.3897 Y0.3854 
G01 X1.3746 Y0.3703 
G01 X1.3665 Y0.3506 
G01 X1.3665 Y0.3294 
G01 X1.3746 Y0.3097 
G01 X1.3897 Y0.2946 
G01 X1.4094 Y0.2865 
G01 X1.4306 Y0.2865 
G01 X1.4503 Y0.2946 
G01 X1.4654 Y0.3097 
G01 X1.4735 Y0.3294 
G00 Z0.1000 
G00 X2.0635 Y0.2494 
G01 Z-0.0070 F10.00 
G01 X2.0635 Y0.2706 F20.00 
G01 X2.0554 Y0.2903 
G01 X2.0403 Y0.3054 
G01 X2.0206 Y0.3135 
G01 X1.9994 Y0.3135 
G01 X1.9797 Y0.3054 
G01 X1.9646 Y0.2903 
G01 X1.9565 Y0.2706 
G01 X1.9565 Y0.2494 
G01 X1.9646 Y0.2297 
G01 X1.9797 Y0.2146 
G01 X1.9994 Y0.2065 
G01 X2.0206 Y0.2065 
G01 X2.0403 Y0.2146 
G01 X2.0554 Y0.2297 
G01 X2.0635 Y0.2494 
G00 Z0.1000 
G00 X2.0635 Y0.6494 
G01 Z-0.0070 F10.00 
G01 X2.0635 Y0.6706 F20.00 
G01 X2.0554 Y0.6903 
G01 X2.0403 Y0.7054 
G01 X2.0206 Y0.7135 
G01 X1.9994 Y0.7135 
G01 X1.9797 Y0.7054 
G01 X1.9646 Y0.6903 
G01 X1.9565 Y0.6706 
G01 X1.9565 Y0.6494 
G01 X1.9646 Y0.6297 
G01 X1.9797 Y0.6146 
G01 X1.9994 Y0.6065 
G01 X2.0206 Y0.6065 
G01 X2.0403 Y0.6146 
G01 X2.0554 Y0.6297 
G01 X2.0635 Y0.6494 
G00 Z0.1000 
G00 X3.2075 Y1.5903 
G01 Z-0.0070 F10.00 
G01 X3.2075 Y1.6297 F20.00 
G01 X3.1797 Y1.6575 
G01 X3.1403 Y1.6575 
G01 X3.1125 Y1.6297 
G01 X3.1125 Y1.5903 
G01 X3.1403 Y1.5625 
G01 X3.1797 Y1.5625 
G01 X3.2075 Y1.5903 
G00 Z0.1000 
G00 X2.7075 Y1.5903 
G01 Z-0.0070 F10.00 
G01 X2.7075 Y1.6297 F20.00 
G01 X2.6797 Y1.6575 
G01 X2.6403 Y1.6575 
G01 X2.6125 Y1.6297 
G01 X2.6125 Y1.5903 
G01 X2.6403 Y1.5625 
G01 X2.6797 Y1.5625 
G01 X2.7075 Y1.5903 
G00 Z0.1000 
G00 X1.0164 Y1.4575 
G01 Z-0.0070 F10.00 
G01 X0.8835 Y1.4575 F20.00 
G01 X0.8661 Y1.4503 
G01 X0.8527 Y1.4369 
G01 X0.8455 Y1.4194 
G01 X0.8455 Y1.4005 
G01 X0.8527 Y1.3831 
G01 X0.8661 Y1.3697 
G01 X0.8835 Y1.3625 
G01 X1.0164 Y1.3625 
G01 X1.0339 Y1.3697 
G01 X1.0473 Y1.3831 
G01 X1.0545 Y1.4005 
G01 X1.0545 Y1.4194 
G01 X1.0473 Y1.4369 
G01 X1.0339 Y1.4503 
G01 X1.0164 Y1.4575 
G00 Z0.1000 
G00 X1.0164 Y1.3575 
G01 Z-0.0070 F10.00 
G01 X0.8835 Y1.3575 F20.00 
G01 X0.8661 Y1.3503 
G01 X0.8527 Y1.3369 
G01 X0.8455 Y1.3194 
G01 X0.8455 Y1.3005 
G01 X0.8527 Y1.2831 
G01 X0.8661 Y1.2697 
G01 X0.8835 Y1.2625 
G01 X1.0164 Y1.2625 
G01 X1.0339 Y1.2697 
G01 X1.0473 Y1.2831 
G01 X1.0545 Y1.3005 
G01 X1.0545 Y1.3194 
G01 X1.0473 Y1.3369 
G01 X1.0339 Y1.3503 
G01 X1.0164 Y1.3575 
G00 Z0.1000 
G00 X1.0164 Y0.8575 
G01 Z-0.0070 F10.00 
G01 X0.8835 Y0.8575 F20.00 
G01 X0.8661 Y0.8503 
G01 X0.8527 Y0.8369 
G01 X0.8455 Y0.8194 
G01 X0.8455 Y0.8005 
G01 X0.8527 Y0.7831 
G01 X0.8661 Y0.7697 
G01 X0.8835 Y0.7625 
G01 X1.0164 Y0.7625 
G01 X1.0339 Y0.7697 
G01 X1.0473 Y0.7831 
G01 X1.0545 Y0.8005 
G01 X1.0545 Y0.8194 
G01 X1.0473 Y0.8369 
G01 X1.0339 Y0.8503 
G01 X1.0164 Y0.8575 
G00 Z0.1000 
G00 X1.3164 Y0.8575 
G01 Z-0.0070 F10.00 
G01 X1.1835 Y0.8575 F20.00 
G01 X1.1661 Y0.8503 
G01 X1.1527 Y0.8369 
G01 X1.1455 Y0.8194 
G01 X1.1455 Y0.8005 
G01 X1.1527 Y0.7831 
G01 X1.1661 Y0.7697 
G01 X1.1835 Y0.7625 
G01 X1.3164 Y0.7625 
G01 X1.3339 Y0.7697 
G01 X1.3473 Y0.7831 
G01 X1.3545 Y0.8005 
G01 X1.3545 Y0.8194 
G01 X1.3473 Y0.8369 
G01 X1.3339 Y0.8503 
G01 X1.3164 Y0.8575 
G00 Z0.1000 
G00 X1.0164 Y1.2575 
G01 Z-0.0070 F10.00 
G01 X0.8835 Y1.2575 F20.00 
G01 X0.8661 Y1.2503 
G01 X0.8527 Y1.2369 
G01 X0.8455 Y1.2194 
G01 X0.8455 Y1.2005 
G01 X0.8527 Y1.1831 
G01 X0.8661 Y1.1697 
G01 X0.8835 Y1.1625 
G01 X1.0164 Y1.1625 
G01 X1.0339 Y1.1697 
G01 X1.0473 Y1.1831 
G01 X1.0545 Y1.2005 
G01 X1.0545 Y1.2194 
G01 X1.0473 Y1.2369 
G01 X1.0339 Y1.2503 
G01 X1.0164 Y1.2575 
G00 Z0.1000 
G00 X1.0164 Y1.1575 
G01 Z-0.0070 F10.00 
G01 X0.8835 Y1.1575 F20.00 
G01 X0.8661 Y1.1503 
G01 X0.8527 Y1.1369 
G01 X0.8455 Y1.1194 
G01 X0.8455 Y1.1005 
G01 X0.8527 Y1.0831 
G01 X0.8661 Y1.0697 
G01 X0.8835 Y1.0625 
G01 X1.0164 Y1.0625 
G01 X1.0339 Y1.0697 
G01 X1.0473 Y1.0831 
G01 X1.0545 Y1.1005 
G01 X1.0545 Y1.1194 
G01 X1.0473 Y1.1369 
G01 X1.0339 Y1.1503 
G01 X1.0164 Y1.1575 
G00 Z0.1000 
G00 X1.0164 Y0.9575 
G01 Z-0.0070 F10.00 
G01 X0.8835 Y0.9575 F20.00 
G01 X0.8661 Y0.9503 
G01 X0.8527 Y0.9369 
G01 X0.8455 Y0.9194 
G01 X0.8455 Y0.9005 
G01 X0.8527 Y0.8831 
G01 X0.8661 Y0.8697 
G01 X0.8835 Y0.8625 
G01 X1.0164 Y0.8625 
G01 X1.0339 Y0.8697 
G01 X1.0473 Y0.8831 
G01 X1.0545 Y0.9005 
G01 X1.0545 Y0.9194 
G01 X1.0473 Y0.9369 
G01 X1.0339 Y0.9503 
G01 X1.0164 Y0.9575 
G00 Z0.1000 
G00 X1.0164 Y1.0575 
G01 Z-0.0070 F10.00 
G01 X0.8835 Y1.0575 F20.00 
G01 X0.8661 Y1.0503 
G01 X0.8527 Y1.0369 
G01 X0.8455 Y1.0194 
G01 X0.8455 Y1.0005 
G01 X0.8527 Y0.9831 
G01 X0.8661 Y0.9697 
G01 X0.8835 Y0.9625 
G01 X1.0164 Y0.9625 
G01 X1.0339 Y0.9697 
G01 X1.0473 Y0.9831 
G01 X1.0545 Y1.0005 
G01 X1.0545 Y1.0194 
G01 X1.0473 Y1.0369 
G01 X1.0339 Y1.0503 
G01 X1.0164 Y1.0575 
G00 Z0.1000 
G00 X1.3164 Y0.9575 
G01 Z-0.0070 F10.00 
G01 X1.1835 Y0.9575 F20.00 
G01 X1.1661 Y0.9503 
G01 X1.1527 Y0.9369 
G01 X1.1455 Y0.9194 
G01 X1.1455 Y0.9005 
G01 X1.1527 Y0.8831 
G01 X1.1661 Y0.8697 
G01 X1.1835 Y0.8625 
G01 X1.3164 Y0.8625 
G01 X1.3339 Y0.8697 
G01 X1.3473 Y0.8831 
G01 X1.3545 Y0.9005 
G01 X1.3545 Y0.9194 
G01 X1.3473 Y0.9369 
G01 X1.3339 Y0.9503 
G01 X1.3164 Y0.9575 
G00 Z0.1000 
G00 X1.3164 Y1.0575 
G01 Z-0.0070 F10.00 
G01 X1.1835 Y1.0575 F20.00 
G01 X1.1661 Y1.0503 
G01 X1.1527 Y1.0369 
G01 X1.1455 Y1.0194 
G01 X1.1455 Y1.0005 
G01 X1.1527 Y0.9831 
G01 X1.1661 Y0.9697 
G01 X1.1835 Y0.9625 
G01 X1.3164 Y0.9625 
G01 X1.3339 Y0.9697 
G01 X1.3473 Y0.9831 
G01 X1.3545 Y1.0005 
G01 X1.3545 Y1.0194 
G01 X1.3473 Y1.0369 
G01 X1.3339 Y1.0503 
G01 X1.3164 Y1.0575 
G00 Z0.1000 
G00 X1.3164 Y1.1575 
G01 Z-0.0070 F10.00 
G01 X1.1835 Y1.1575 F20.00 
G01 X1.1661 Y1.1503 
G01 X1.1527 Y1.1369 
G01 X1.1455 Y1.1194 
G01 X1.1455 Y1.1005 
G01 X1.1527 Y1.0831 
G01 X1.1661 Y1.0697 
G01 X1.1835 Y1.0625 
G01 X1.3164 Y1.0625 
G01 X1.3339 Y1.0697 
G01 X1.3473 Y1.0831 
G01 X1.3545 Y1.1005 
G01 X1.3545 Y1.1194 
G01 X1.3473 Y1.1369 
G01 X1.3339 Y1.1503 
G01 X1.3164 Y1.1575 
G00 Z0.1000 
G00 X1.3164 Y1.2575 
G01 Z-0.0070 F10.00 
G01 X1.1835 Y1.2575 F20.00 
G01 X1.1661 Y1.2503 
G01 X1.1527 Y1.2369 
G01 X1.1455 Y1.2194 
G01 X1.1455 Y1.2005 
G01 X1.1527 Y1.1831 
G01 X1.1661 Y1.1697 
G01 X1.1835 Y1.1625 
G01 X1.3164 Y1.1625 
G01 X1.3339 Y1.1697 
G01 X1.3473 Y1.1831 
G01 X1.3545 Y1.2005 
G01 X1.3545 Y1.2194 
G01 X1.3473 Y1.2369 
G01 X1.3339 Y1.2503 
G01 X1.3164 Y1.2575 
G00 Z0.1000 
G00 X1.3164 Y1.3575 
G01 Z-0.0070 F10.00 
G01 X1.1835 Y1.3575 F20.00 
G01 X1.1661 Y1.3503 
G01 X1.1527 Y1.3369 
G01 X1.1455 Y1.3194 
G01 X1.1455 Y1.3005 
G01 X1.1527 Y1.2831 
G01 X1.1661 Y1.2697 
G01 X1.1835 Y1.2625 
G01 X1.3164 Y1.2625 
G01 X1.3339 Y1.2697 
G01 X1.3473 Y1.2831 
G01 X1.3545 Y1.3005 
G01 X1.3545 Y1.3194 
G01 X1.3473 Y1.3369 
G01 X1.3339 Y1.3503 
G01 X1.3164 Y1.3575 
G00 Z0.1000 
G00 X1.3164 Y1.4575 
G01 Z-0.0070 F10.00 
G01 X1.1835 Y1.4575 F20.00 
G01 X1.1661 Y1.4503 
G01 X1.1527 Y1.4369 
G01 X1.1455 Y1.4194 
G01 X1.1455 Y1.4005 
G01 X1.1527 Y1.3831 
G01 X1.1661 Y1.3697 
G01 X1.1835 Y1.3625 
G01 X1.3164 Y1.3625 
G01 X1.3339 Y1.3697 
G01 X1.3473 Y1.3831 
G01 X1.3545 Y1.4005 
G01 X1.3545 Y1.4194 
G01 X1.3473 Y1.4369 
G01 X1.3339 Y1.4503 
G01 X1.3164 Y1.4575 
G00 Z0.1000 
G00 X0.2792 Y1.3634 
G01 Z-0.0070 F10.00 
G01 X0.1208 Y1.3634 F20.00 
G01 X0.1006 Y1.3550 
G01 X0.0851 Y1.3396 
G01 X0.0768 Y1.3194 
G01 X0.0768 Y1.2975 
G01 X0.0851 Y1.2773 
G01 X0.1006 Y1.2618 
G01 X0.1208 Y1.2534 
G01 X0.2792 Y1.2534 
G01 X0.2994 Y1.2618 
G01 X0.3149 Y1.2773 
G01 X0.3232 Y1.2975 
G01 X0.3232 Y1.3194 
G01 X0.3149 Y1.3396 
G01 X0.2994 Y1.3550 
G01 X0.2792 Y1.3634 
G00 Z0.1000 
G00 X0.2792 Y1.1666 
G01 Z-0.0070 F10.00 
G01 X0.1208 Y1.1666 F20.00 
G01 X0.1006 Y1.1582 
G01 X0.0851 Y1.1427 
G01 X0.0768 Y1.1225 
G01 X0.0768 Y1.1006 
G01 X0.0851 Y1.0804 
G01 X0.1006 Y1.0649 
G01 X0.1208 Y1.0566 
G01 X0.2792 Y1.0566 
G01 X0.2994 Y1.0649 
G01 X0.3149 Y1.0804 
G01 X0.3232 Y1.1006 
G01 X0.3232 Y1.1225 
G01 X0.3149 Y1.1427 
G01 X0.2994 Y1.1582 
G01 X0.2792 Y1.1666 
G00 Z0.1000 
G00 X0.2792 Y0.9634 
G01 Z-0.0070 F10.00 
G01 X0.1208 Y0.9634 F20.00 
G01 X0.1006 Y0.9550 
G01 X0.0851 Y0.9396 
G01 X0.0768 Y0.9194 
G01 X0.0768 Y0.8975 
G01 X0.0851 Y0.8773 
G01 X0.1006 Y0.8618 
G01 X0.1208 Y0.8534 
G01 X0.2792 Y0.8534 
G01 X0.2994 Y0.8618 
G01 X0.3149 Y0.8773 
G01 X0.3232 Y0.8975 
G01 X0.3232 Y0.9194 
G01 X0.3149 Y0.9396 
G01 X0.2994 Y0.9550 
G01 X0.2792 Y0.9634 
G00 Z0.1000 
G00 X0.2792 Y0.7666 
G01 Z-0.0070 F10.00 
G01 X0.1208 Y0.7666 F20.00 
G01 X0.1006 Y0.7582 
G01 X0.0851 Y0.7427 
G01 X0.0768 Y0.7225 
G01 X0.0768 Y0.7006 
G01 X0.0851 Y0.6804 
G01 X0.1006 Y0.6649 
G01 X0.1208 Y0.6566 
G01 X0.2792 Y0.6566 
G01 X0.2994 Y0.6649 
G01 X0.3149 Y0.6804 
G01 X0.3232 Y0.7006 
G01 X0.3232 Y0.7225 
G01 X0.3149 Y0.7427 
G01 X0.2994 Y0.7582 
G01 X0.2792 Y0.7666 
G00 Z0.1000 
G00 X2.8408 Y0.4966 
G01 Z-0.0070 F10.00 
G01 X2.9992 Y0.4966 F20.00 
G01 X3.0194 Y0.5049 
G01 X3.0349 Y0.5204 
G01 X3.0432 Y0.5406 
G01 X3.0432 Y0.5625 
G01 X3.0349 Y0.5827 
G01 X3.0194 Y0.5982 
G01 X2.9992 Y0.6066 
G01 X2.8408 Y0.6066 
G01 X2.8206 Y0.5982 
G01 X2.8051 Y0.5827 
G01 X2.7968 Y0.5625 
G01 X2.7968 Y0.5406 
G01 X2.8051 Y0.5204 
G01 X2.8206 Y0.5049 
G01 X2.8408 Y0.4966 
G00 Z0.1000 
G00 X2.8408 Y0.6934 
G01 Z-0.0070 F10.00 
G01 X2.9992 Y0.6934 F20.00 
G01 X3.0194 Y0.7018 
G01 X3.0349 Y0.7173 
G01 X3.0432 Y0.7375 
G01 X3.0432 Y0.7594 
G01 X3.0349 Y0.7796 
G01 X3.0194 Y0.7950 
G01 X2.9992 Y0.8034 
G01 X2.8408 Y0.8034 
G01 X2.8206 Y0.7950 
G01 X2.8051 Y0.7796 
G01 X2.7968 Y0.7594 
G01 X2.7968 Y0.7375 
G01 X2.8051 Y0.7173 
G01 X2.8206 Y0.7018 
G01 X2.8408 Y0.6934 
G00 Z0.1000 
G00 X0.2792 Y1.8434 
G01 Z-0.0070 F10.00 
G01 X0.1208 Y1.8434 F20.00 
G01 X0.1006 Y1.8350 
G01 X0.0851 Y1.8196 
G01 X0.0768 Y1.7994 
G01 X0.0768 Y1.7775 
G01 X0.0851 Y1.7573 
G01 X0.1006 Y1.7418 
G01 X0.1208 Y1.7334 
G01 X0.2792 Y1.7334 
G01 X0.2994 Y1.7418 
G01 X0.3149 Y1.7573 
G01 X0.3232 Y1.7775 
G01 X0.3232 Y1.7994 
G01 X0.3149 Y1.8196 
G01 X0.2994 Y1.8350 
G01 X0.2792 Y1.8434 
G00 Z0.1000 
G00 X0.2792 Y1.6466 
G01 Z-0.0070 F10.00 
G01 X0.1208 Y1.6466 F20.00 
G01 X0.1006 Y1.6382 
G01 X0.0851 Y1.6227 
G01 X0.0768 Y1.6025 
G01 X0.0768 Y1.5806 
G01 X0.0851 Y1.5604 
G01 X0.1006 Y1.5449 
G01 X0.1208 Y1.5366 
G01 X0.2792 Y1.5366 
G01 X0.2994 Y1.5449 
G01 X0.3149 Y1.5604 
G01 X0.3232 Y1.5806 
G01 X0.3232 Y1.6025 
G01 X0.3149 Y1.6227 
G01 X0.2994 Y1.6382 
G01 X0.2792 Y1.6466 
G00 Z0.1000 
G00 X0.7675 Y1.2903 
G01 Z-0.0070 F10.00 
G01 X0.7675 Y1.3297 F20.00 
G01 X0.7397 Y1.3575 
G01 X0.7003 Y1.3575 
G01 X0.6725 Y1.3297 
G01 X0.6725 Y1.2903 
G01 X0.7003 Y1.2625 
G01 X0.7397 Y1.2625 
G01 X0.7675 Y1.2903 
G00 Z0.1000 
G00 X0.7675 Y1.4903 
G01 Z-0.0070 F10.00 
G01 X0.7675 Y1.5297 F20.00 
G01 X0.7397 Y1.5575 
G01 X0.7003 Y1.5575 
G01 X0.6725 Y1.5297 
G01 X0.6725 Y1.4903 
G01 X0.7003 Y1.4625 
G01 X0.7397 Y1.4625 
G01 X0.7675 Y1.4903 
G00 Z0.1000 
G00 X0.6075 Y1.0903 
G01 Z-0.0070 F10.00 
G01 X0.6075 Y1.1297 F20.00 
G01 X0.5797 Y1.1575 
G01 X0.5403 Y1.1575 
G01 X0.5125 Y1.1297 
G01 X0.5125 Y1.0903 
G01 X0.5403 Y1.0625 
G01 X0.5797 Y1.0625 
G01 X0.6075 Y1.0903 
G00 Z0.1000 
G00 X0.6075 Y0.8903 
G01 Z-0.0070 F10.00 
G01 X0.6075 Y0.9297 F20.00 
G01 X0.5797 Y0.9575 
G01 X0.5403 Y0.9575 
G01 X0.5125 Y0.9297 
G01 X0.5125 Y0.8903 
G01 X0.5403 Y0.8625 
G01 X0.5797 Y0.8625 
G01 X0.6075 Y0.8903 
G00 Z0.1000 
G00 X0.8275 Y0.5203 
G01 Z-0.0070 F10.00 
G01 X0.8275 Y0.5597 F20.00 
G01 X0.7997 Y0.5875 
G01 X0.7603 Y0.5875 
G01 X0.7325 Y0.5597 
G01 X0.7325 Y0.5203 
G01 X0.7603 Y0.4925 
G01 X0.7997 Y0.4925 
G01 X0.8275 Y0.5203 
G00 Z0.1000 
G00 X0.8275 Y0.3203 
G01 Z-0.0070 F10.00 
G01 X0.8275 Y0.3597 F20.00 
G01 X0.7997 Y0.3875 
G01 X0.7603 Y0.3875 
G01 X0.7325 Y0.3597 
G01 X0.7325 Y0.3203 
G01 X0.7603 Y0.2925 
G01 X0.7997 Y0.2925 
G01 X0.8275 Y0.3203 
G00 Z0.1000 
G00 X1.5975 Y0.6403 
G01 Z-0.0070 F10.00 
G01 X1.5975 Y0.6797 F20.00 
G01 X1.5697 Y0.7075 
G01 X1.5303 Y0.7075 
G01 X1.5025 Y0.6797 
G01 X1.5025 Y0.6403 
G01 X1.5303 Y0.6125 
G01 X1.5697 Y0.6125 
G01 X1.5975 Y0.6403 
G00 Z0.1000 
G00 X1.7975 Y0.6403 
G01 Z-0.0070 F10.00 
G01 X1.7975 Y0.6797 F20.00 
G01 X1.7697 Y0.7075 
G01 X1.7303 Y0.7075 
G01 X1.7025 Y0.6797 
G01 X1.7025 Y0.6403 
G01 X1.7303 Y0.6125 
G01 X1.7697 Y0.6125 
G01 X1.7975 Y0.6403 
G00 Z0.1000 
G00 X2.7175 Y0.7303 
G01 Z-0.0070 F10.00 
G01 X2.7175 Y0.7697 F20.00 
G01 X2.6897 Y0.7975 
G01 X2.6503 Y0.7975 
G01 X2.6225 Y0.7697 
G01 X2.6225 Y0.7303 
G01 X2.6503 Y0.7025 
G01 X2.6897 Y0.7025 
G01 X2.7175 Y0.7303 
G00 Z0.1000 
G00 X2.7175 Y1.2303 
G01 Z-0.0070 F10.00 
G01 X2.7175 Y1.2697 F20.00 
G01 X2.6897 Y1.2975 
G01 X2.6503 Y1.2975 
G01 X2.6225 Y1.2697 
G01 X2.6225 Y1.2303 
G01 X2.6503 Y1.2025 
G01 X2.6897 Y1.2025 
G01 X2.7175 Y1.2303 
G00 Z0.1000 
G00 X2.7175 Y1.8003 
G01 Z-0.0070 F10.00 
G01 X2.7175 Y1.8397 F20.00 
G01 X2.6897 Y1.8675 
G01 X2.6503 Y1.8675 
G01 X2.6225 Y1.8397 
G01 X2.6225 Y1.8003 
G01 X2.6503 Y1.7725 
G01 X2.6897 Y1.7725 
G01 X2.7175 Y1.8003 
G00 Z0.1000 
G00 X2.7175 Y1.7003 
G01 Z-0.0070 F10.00 
G01 X2.7175 Y1.7397 F20.00 
G01 X2.6897 Y1.7675 
G01 X2.6503 Y1.7675 
G01 X2.6225 Y1.7397 
G01 X2.6225 Y1.7003 
G01 X2.6503 Y1.6725 
G01 X2.6897 Y1.6725 
G01 X2.7175 Y1.7003 
G00 Z0.1000 
G00 X2.9975 Y1.1103 
G01 Z-0.0070 F10.00 
G01 X2.9975 Y1.1497 F20.00 
G01 X2.9697 Y1.1775 
G01 X2.9303 Y1.1775 
G01 X2.9025 Y1.1497 
G01 X2.9025 Y1.1103 
G01 X2.9303 Y1.0825 
G01 X2.9697 Y1.0825 
G01 X2.9975 Y1.1103 
G00 Z0.1000 
G00 X2.9975 Y1.3103 
G01 Z-0.0070 F10.00 
G01 X2.9975 Y1.3497 F20.00 
G01 X2.9697 Y1.3775 
G01 X2.9303 Y1.3775 
G01 X2.9025 Y1.3497 
G01 X2.9025 Y1.3103 
G01 X2.9303 Y1.2825 
G01 X2.9697 Y1.2825 
G01 X2.9975 Y1.3103 
G00 Z0.1000 
G00 X1.8175 Y1.1803 
G01 Z-0.0070 F10.00 
G01 X1.8175 Y1.2197 F20.00 
G01 X1.7897 Y1.2475 
G01 X1.7503 Y1.2475 
G01 X1.7225 Y1.2197 
G01 X1.7225 Y1.1803 
G01 X1.7503 Y1.1525 
G01 X1.7897 Y1.1525 
G01 X1.8175 Y1.1803 
G00 Z0.1000 
G00 X1.8175 Y1.6803 
G01 Z-0.0070 F10.00 
G01 X1.8175 Y1.7197 F20.00 
G01 X1.7897 Y1.7475 
G01 X1.7503 Y1.7475 
G01 X1.7225 Y1.7197 
G01 X1.7225 Y1.6803 
G01 X1.7503 Y1.6525 
G01 X1.7897 Y1.6525 
G01 X1.8175 Y1.6803 
G00 Z0.1000 
G00 X2.0475 Y1.8903 
G01 Z-0.0070 F10.00 
G01 X2.0475 Y1.9297 F20.00 
G01 X2.0197 Y1.9575 
G01 X1.9803 Y1.9575 
G01 X1.9525 Y1.9297 
G01 X1.9525 Y1.8903 
G01 X1.9803 Y1.8625 
G01 X2.0197 Y1.8625 
G01 X2.0475 Y1.8903 
G00 Z0.1000 
G00 X1.5475 Y1.8903 
G01 Z-0.0070 F10.00 
G01 X1.5475 Y1.9297 F20.00 
G01 X1.5197 Y1.9575 
G01 X1.4803 Y1.9575 
G01 X1.4525 Y1.9297 
G01 X1.4525 Y1.8903 
G01 X1.4803 Y1.8625 
G01 X1.5197 Y1.8625 
G01 X1.5475 Y1.8903 
G00 Z0.1000 
G00 X2.0213 Y1.4487 
G01 Z-0.0070 F10.00 
G01 X2.0213 Y1.4913 F20.00 
G01 X2.0045 Y1.5081 
G01 X2.0045 Y1.7519 
G01 X2.0213 Y1.7687 
G01 X2.0213 Y1.8113 
G01 X1.9913 Y1.8413 
G01 X1.9487 Y1.8413 
G01 X1.9187 Y1.8113 
G01 X1.9187 Y1.7687 
G01 X1.9355 Y1.7519 
G01 X1.9355 Y1.5081 
G01 X1.9187 Y1.4913 
G01 X1.9187 Y1.4487 
G01 X1.9487 Y1.4187 
G01 X1.9913 Y1.4187 
G01 X2.0213 Y1.4487 
G00 Z0.1000 
G00 X2.5613 Y0.8887 
G01 Z-0.0070 F10.00 
G01 X2.5613 Y0.9313 F20.00 
G01 X2.5313 Y0.9613 
G01 X2.4887 Y0.9613 
G01 X2.4587 Y0.9313 
G01 X2.4587 Y0.8887 
G01 X2.4755 Y0.8719 
G01 X2.4755 Y0.4981 
G01 X2.4587 Y0.4813 
G01 X2.4587 Y0.4387 
G01 X2.4887 Y0.4087 
G01 X2.5313 Y0.4087 
G01 X2.5613 Y0.4387 
G01 X2.5613 Y0.4813 
G01 X2.5445 Y0.4981 
G01 X2.5445 Y0.8719 
G01 X2.5613 Y0.8887 
G00 Z0.1000 
G00 X1.6055 Y0.9232 
G01 Z-0.0070 F10.00 
G01 X1.6055 Y0.9232 F20.00 
G01 X1.6184 Y0.8921 
G01 X1.6184 Y0.8921 
G01 X1.6421 Y0.8684 
G01 X1.6421 Y0.8684 
G01 X1.6732 Y0.8555 
G01 X1.6732 Y0.8555 
G01 X1.6831 Y0.8555 
G01 X1.6900 Y0.8555 
G01 X1.6969 Y0.8555 
G01 X1.8500 Y0.8555 
G01 X1.8530 Y0.8552 
G01 X1.8586 Y0.8529 
G01 X1.8629 Y0.8486 
G01 X1.8652 Y0.8430 
G01 X1.8655 Y0.8400 
G01 X1.8655 Y0.8360 
G01 X1.8655 Y0.8331 
G01 X1.8655 Y0.6081 
G01 X1.8487 Y0.5913 
G01 X1.8487 Y0.5487 
G01 X1.8787 Y0.5187 
G01 X1.9213 Y0.5187 
G01 X1.9513 Y0.5487 
G01 X1.9513 Y0.5913 
G01 X1.9345 Y0.6081 
G01 X1.9345 Y0.8331 
G01 X1.9345 Y0.8361 
G01 X1.9345 Y0.8469 
G01 X1.9345 Y0.8568 
G01 X1.9345 Y0.8568 
G01 X1.9216 Y0.8879 
G01 X1.9216 Y0.8879 
G01 X1.8979 Y0.9116 
G01 X1.8979 Y0.9116 
G01 X1.8668 Y0.9245 
G01 X1.8668 Y0.9245 
G01 X1.8569 Y0.9245 
G01 X1.6969 Y0.9245 
G01 X1.6900 Y0.9245 
G01 X1.6870 Y0.9248 
G01 X1.6814 Y0.9271 
G01 X1.6771 Y0.9314 
G01 X1.6748 Y0.9370 
G01 X1.6745 Y0.9400 
G01 X1.6745 Y1.2319 
G01 X1.6913 Y1.2487 
G01 X1.6913 Y1.2913 
G01 X1.6613 Y1.3213 
G01 X1.6187 Y1.3213 
G01 X1.5887 Y1.2913 
G01 X1.5887 Y1.2487 
G01 X1.6055 Y1.2319 
G01 X1.6055 Y0.9331 
G01 X1.6055 Y0.9232 
G00 Z0.1000 
G00 X1.6005 Y0.9258 
G01 Z-0.0070 F10.00 
G01 X1.6005 Y0.9258 F20.00 
G01 X1.6093 Y0.8989 
G01 X1.6093 Y0.8989 
G01 X1.6259 Y0.8759 
G01 X1.6259 Y0.8759 
G01 X1.6259 Y0.8759 
G01 X1.6489 Y0.8593 
G01 X1.6489 Y0.8593 
G01 X1.6758 Y0.8505 
G01 X1.6758 Y0.8505 
G01 X1.6821 Y0.8505 
G01 X1.6898 Y0.8505 
G01 X1.6900 Y0.8505 
G01 X1.6979 Y0.8505 
G01 X1.8500 Y0.8505 
G01 X1.8516 Y0.8504 
G01 X1.8548 Y0.8494 
G01 X1.8574 Y0.8474 
G01 X1.8594 Y0.8448 
G01 X1.8604 Y0.8416 
G01 X1.8605 Y0.8400 
G01 X1.8605 Y0.8355 
G01 X1.8605 Y0.8321 
G01 X1.8605 Y0.6101 
G01 X1.8437 Y0.5933 
G01 X1.8437 Y0.5535 
G01 X1.8316 Y0.5585 
G01 X1.8084 Y0.5585 
G01 X1.7869 Y0.5496 
G01 X1.7704 Y0.5331 
G01 X1.7615 Y0.5116 
G01 X1.7615 Y0.4884 
G01 X1.7704 Y0.4669 
G01 X1.7869 Y0.4504 
G01 X1.8084 Y0.4415 
G01 X1.8316 Y0.4415 
G01 X1.8531 Y0.4504 
G01 X1.8696 Y0.4669 
G01 X1.8785 Y0.4884 
G01 X1.8785 Y0.5116 
G01 X1.8776 Y0.5137 
G01 X1.9233 Y0.5137 
G01 X1.9563 Y0.5467 
G01 X1.9563 Y0.5933 
G01 X1.9395 Y0.6101 
G01 X1.9395 Y0.8321 
G01 X1.9395 Y0.8355 
G01 X1.9395 Y0.8479 
G01 X1.9395 Y0.8542 
G01 X1.9395 Y0.8542 
G01 X1.9307 Y0.8811 
G01 X1.9307 Y0.8811 
G01 X1.9141 Y0.9041 
G01 X1.9141 Y0.9041 
G01 X1.9141 Y0.9041 
G01 X1.8911 Y0.9207 
G01 X1.8911 Y0.9207 
G01 X1.8642 Y0.9295 
G01 X1.8642 Y0.9295 
G01 X1.8579 Y0.9295 
G01 X1.6979 Y0.9295 
G01 X1.6900 Y0.9295 
G01 X1.6884 Y0.9296 
G01 X1.6852 Y0.9306 
G01 X1.6826 Y0.9326 
G01 X1.6806 Y0.9352 
G01 X1.6796 Y0.9384 
G01 X1.6795 Y0.9400 
G01 X1.6795 Y1.2299 
G01 X1.6963 Y1.2467 
G01 X1.6963 Y1.2933 
G01 X1.6633 Y1.3263 
G01 X1.6167 Y1.3263 
G01 X1.5837 Y1.2933 
G01 X1.5837 Y1.2467 
G01 X1.6005 Y1.2299 
G01 X1.6005 Y0.9321 
G01 X1.6005 Y0.9258 
G00 Z0.1000 
G00 X1.4170 Y1.8364 
G01 Z-0.0070 F10.00 
G01 X1.4170 Y1.8836 F20.00 
G01 X1.3836 Y1.9170 
G01 X1.3364 Y1.9170 
G01 X1.3030 Y1.8836 
G01 X1.3030 Y1.8364 
G01 X1.3364 Y1.8030 
G01 X1.3836 Y1.8030 
G01 X1.4170 Y1.8364 
G00 Z0.1000 
G00 X0.8170 Y1.8487 
G01 Z-0.0070 F10.00 
G01 X0.8170 Y1.8713 F20.00 
G01 X0.8083 Y1.8923 
G01 X0.7923 Y1.9083 
G01 X0.7713 Y1.9170 
G01 X0.7487 Y1.9170 
G01 X0.7277 Y1.9083 
G01 X0.7117 Y1.8923 
G01 X0.7030 Y1.8713 
G01 X0.7030 Y1.8487 
G01 X0.7117 Y1.8277 
G01 X0.7277 Y1.8117 
G01 X0.7487 Y1.8030 
G01 X0.7713 Y1.8030 
G01 X0.7923 Y1.8117 
G01 X0.8083 Y1.8277 
G01 X0.8170 Y1.8487 
G00 Z0.1000 
G00 X2.3570 Y1.4164 
G01 Z-0.0070 F10.00 
G01 X2.3570 Y1.4636 F20.00 
G01 X2.3236 Y1.4970 
G01 X2.2764 Y1.4970 
G01 X2.2663 Y1.4869 
G01 X2.2663 Y1.4933 
G01 X2.2495 Y1.5101 
G01 X2.2495 Y1.6999 
G01 X2.2663 Y1.7167 
G01 X2.2663 Y1.7633 
G01 X2.2333 Y1.7963 
G01 X2.1867 Y1.7963 
G01 X2.1537 Y1.7633 
G01 X2.1537 Y1.7167 
G01 X2.1705 Y1.6999 
G01 X2.1705 Y1.5101 
G01 X2.1537 Y1.4933 
G01 X2.1537 Y1.4467 
G01 X2.1867 Y1.4137 
G01 X2.2333 Y1.4137 
G01 X2.2430 Y1.4234 
G01 X2.2430 Y1.4164 
G01 X2.2764 Y1.3830 
G01 X2.3236 Y1.3830 
G01 X2.3570 Y1.4164 
G00 Z0.1000 
G00 X2.9570 Y1.4287 
G01 Z-0.0070 F10.00 
G01 X2.9570 Y1.4513 F20.00 
G01 X2.9483 Y1.4723 
G01 X2.9323 Y1.4883 
G01 X2.9113 Y1.4970 
G01 X2.8887 Y1.4970 
G01 X2.8677 Y1.4883 
G01 X2.8517 Y1.4723 
G01 X2.8430 Y1.4513 
G01 X2.8430 Y1.4287 
G01 X2.8517 Y1.4077 
G01 X2.8677 Y1.3917 
G01 X2.8887 Y1.3830 
G01 X2.9113 Y1.3830 
G01 X2.9323 Y1.3917 
G01 X2.9483 Y1.4077 
G01 X2.9570 Y1.4287 
G00 Z0.1000 
G00 X2.3617 Y1.7925 
G01 Z-0.0070 F10.00 
G01 X2.3183 Y1.7925 F20.00 
G01 X2.2875 Y1.7617 
G01 X2.2875 Y1.7183 
G01 X2.3183 Y1.6875 
G01 X2.3383 Y1.6875 
G01 X2.3375 Y1.6867 
G01 X2.3375 Y1.6433 
G01 X2.3683 Y1.6125 
G01 X2.4117 Y1.6125 
G01 X2.4425 Y1.6433 
G01 X2.4425 Y1.6867 
G01 X2.4417 Y1.6875 
G01 X2.4617 Y1.6875 
G01 X2.4925 Y1.7183 
G01 X2.4925 Y1.7617 
G01 X2.4617 Y1.7925 
G01 X2.4183 Y1.7925 
G01 X2.3900 Y1.7642 
G01 X2.3617 Y1.7925 
G00 Z0.1000 
G00 X2.1925 Y0.2383 
G01 Z-0.0070 F10.00 
G01 X2.1925 Y0.2817 F20.00 
G01 X2.1617 Y0.3125 
G01 X2.1183 Y0.3125 
G01 X2.0875 Y0.2817 
G01 X2.0875 Y0.2383 
G01 X2.1183 Y0.2075 
G01 X2.1617 Y0.2075 
G01 X2.1925 Y0.2383 
G00 Z0.1000 
G00 X2.6925 Y0.2383 
G01 Z-0.0070 F10.00 
G01 X2.6925 Y0.2817 F20.00 
G01 X2.6617 Y0.3125 
G01 X2.6183 Y0.3125 
G01 X2.5875 Y0.2817 
G01 X2.5875 Y0.2383 
G01 X2.6183 Y0.2075 
G01 X2.6617 Y0.2075 
G01 X2.6925 Y0.2383 
G00 Z0.1000 
G00 X1.3725 Y0.1783 
G01 Z-0.0070 F10.00 
G01 X1.3725 Y0.2217 F20.00 
G01 X1.3417 Y0.2525 
G01 X1.2983 Y0.2525 
G01 X1.2675 Y0.2217 
G01 X1.2675 Y0.1783 
G01 X1.2983 Y0.1475 
G01 X1.3417 Y0.1475 
G01 X1.3725 Y0.1783 
G00 Z0.1000 
G00 X1.8725 Y0.1783 
G01 Z-0.0070 F10.00 
G01 X1.8725 Y0.2217 F20.00 
G01 X1.8417 Y0.2525 
G01 X1.7983 Y0.2525 
G01 X1.7675 Y0.2217 
G01 X1.7675 Y0.1783 
G01 X1.7983 Y0.1475 
G01 X1.8417 Y0.1475 
G01 X1.8725 Y0.1783 
G00 Z0.1000 
G00 X1.4825 Y0.6883 
G01 Z-0.0070 F10.00 
G01 X1.4825 Y0.7317 F20.00 
G01 X1.4517 Y0.7625 
G01 X1.4083 Y0.7625 
G01 X1.3775 Y0.7317 
G01 X1.3775 Y0.6883 
G01 X1.4083 Y0.6575 
G01 X1.4517 Y0.6575 
G01 X1.4825 Y0.6883 
G00 Z0.1000 
G00 X1.4825 Y1.1883 
G01 Z-0.0070 F10.00 
G01 X1.4825 Y1.2317 F20.00 
G01 X1.4517 Y1.2625 
G01 X1.4083 Y1.2625 
G01 X1.3775 Y1.2317 
G01 X1.3775 Y1.1883 
G01 X1.4083 Y1.1575 
G01 X1.4517 Y1.1575 
G01 X1.4825 Y1.1883 
G00 Z0.1000 
G00 X2.7225 Y1.7983 
G01 Z-0.0070 F10.00 
G01 X2.7225 Y1.8417 F20.00 
G01 X2.6917 Y1.8725 
G01 X2.6483 Y1.8725 
G01 X2.6175 Y1.8417 
G01 X2.6175 Y1.7983 
G01 X2.6458 Y1.7700 
G01 X2.6175 Y1.7417 
G01 X2.6175 Y1.6983 
G01 X2.6483 Y1.6675 
G01 X2.6917 Y1.6675 
G01 X2.7225 Y1.6983 
G01 X2.7225 Y1.7417 
G01 X2.6942 Y1.7700 
G01 X2.7225 Y1.7983 
G00 Z0.1000 
G00 X2.7225 Y1.2283 
G01 Z-0.0070 F10.00 
G01 X2.7225 Y1.2717 F20.00 
G01 X2.6917 Y1.3025 
G01 X2.6483 Y1.3025 
G01 X2.6175 Y1.2717 
G01 X2.6175 Y1.2283 
G01 X2.6483 Y1.1975 
G01 X2.6917 Y1.1975 
G01 X2.7225 Y1.2283 
G00 Z0.1000 
G00 X2.7225 Y0.7283 
G01 Z-0.0070 F10.00 
G01 X2.7225 Y0.7717 F20.00 
G01 X2.6917 Y0.8025 
G01 X2.6483 Y0.8025 
G01 X2.6175 Y0.7717 
G01 X2.6175 Y0.7283 
G01 X2.6483 Y0.6975 
G01 X2.6917 Y0.6975 
G01 X2.7225 Y0.7283 
G00 Z0.1000 
G00 X1.8025 Y0.6383 
G01 Z-0.0070 F10.00 
G01 X1.8025 Y0.6817 F20.00 
G01 X1.7717 Y0.7125 
G01 X1.7283 Y0.7125 
G01 X1.6975 Y0.6817 
G01 X1.6975 Y0.6383 
G01 X1.7283 Y0.6075 
G01 X1.7717 Y0.6075 
G01 X1.8025 Y0.6383 
G00 Z0.1000 
G00 X1.6025 Y0.6383 
G01 Z-0.0070 F10.00 
G01 X1.6025 Y0.6817 F20.00 
G01 X1.5717 Y0.7125 
G01 X1.5283 Y0.7125 
G01 X1.4975 Y0.6817 
G01 X1.4975 Y0.6383 
G01 X1.5283 Y0.6075 
G01 X1.5717 Y0.6075 
G01 X1.6025 Y0.6383 
G00 Z0.1000 
G00 X0.8325 Y0.3183 
G01 Z-0.0070 F10.00 
G01 X0.8325 Y0.3617 F20.00 
G01 X0.8017 Y0.3925 
G01 X0.7583 Y0.3925 
G01 X0.7275 Y0.3617 
G01 X0.7275 Y0.3183 
G01 X0.7583 Y0.2875 
G01 X0.8017 Y0.2875 
G01 X0.8325 Y0.3183 
G00 Z0.1000 
G00 X0.8325 Y0.5183 
G01 Z-0.0070 F10.00 
G01 X0.8325 Y0.5617 F20.00 
G01 X0.8017 Y0.5925 
G01 X0.7583 Y0.5925 
G01 X0.7275 Y0.5617 
G01 X0.7275 Y0.5183 
G01 X0.7583 Y0.4875 
G01 X0.8017 Y0.4875 
G01 X0.8325 Y0.5183 
G00 Z0.1000 
G00 X0.6125 Y0.8883 
G01 Z-0.0070 F10.00 
G01 X0.6125 Y0.9317 F20.00 
G01 X0.5817 Y0.9625 
G01 X0.5383 Y0.9625 
G01 X0.5075 Y0.9317 
G01 X0.5075 Y0.8883 
G01 X0.5383 Y0.8575 
G01 X0.5817 Y0.8575 
G01 X0.6125 Y0.8883 
G00 Z0.1000 
G00 X0.6125 Y1.0883 
G01 Z-0.0070 F10.00 
G01 X0.6125 Y1.1317 F20.00 
G01 X0.5817 Y1.1625 
G01 X0.5383 Y1.1625 
G01 X0.5075 Y1.1317 
G01 X0.5075 Y1.0883 
G01 X0.5383 Y1.0575 
G01 X0.5817 Y1.0575 
G01 X0.6125 Y1.0883 
G00 Z0.1000 
G00 X0.7725 Y1.4883 
G01 Z-0.0070 F10.00 
G01 X0.7725 Y1.5317 F20.00 
G01 X0.7417 Y1.5625 
G01 X0.6983 Y1.5625 
G01 X0.6675 Y1.5317 
G01 X0.6675 Y1.4883 
G01 X0.6983 Y1.4575 
G01 X0.7417 Y1.4575 
G01 X0.7725 Y1.4883 
G00 Z0.1000 
G00 X0.7725 Y1.2883 
G01 Z-0.0070 F10.00 
G01 X0.7725 Y1.3317 F20.00 
G01 X0.7417 Y1.3625 
G01 X0.6983 Y1.3625 
G01 X0.6675 Y1.3317 
G01 X0.6675 Y1.2883 
G01 X0.6983 Y1.2575 
G01 X0.7417 Y1.2575 
G01 X0.7725 Y1.2883 
G00 Z0.1000 
G00 X0.2802 Y1.6516 
G01 Z-0.0070 F10.00 
G01 X0.1198 Y1.6516 F20.00 
G01 X0.0978 Y1.6424 
G01 X0.0809 Y1.6256 
G01 X0.0718 Y1.6035 
G01 X0.0718 Y1.5796 
G01 X0.0809 Y1.5576 
G01 X0.0978 Y1.5407 
G01 X0.1198 Y1.5316 
G01 X0.2802 Y1.5316 
G01 X0.3022 Y1.5407 
G01 X0.3191 Y1.5576 
G01 X0.3282 Y1.5796 
G01 X0.3282 Y1.6035 
G01 X0.3191 Y1.6256 
G01 X0.3022 Y1.6424 
G01 X0.2802 Y1.6516 
G00 Z0.1000 
G00 X0.2802 Y1.8484 
G01 Z-0.0070 F10.00 
G01 X0.1198 Y1.8484 F20.00 
G01 X0.0978 Y1.8393 
G01 X0.0809 Y1.8224 
G01 X0.0718 Y1.8004 
G01 X0.0718 Y1.7765 
G01 X0.0809 Y1.7544 
G01 X0.0978 Y1.7376 
G01 X0.1198 Y1.7284 
G01 X0.2802 Y1.7284 
G01 X0.3022 Y1.7376 
G01 X0.3191 Y1.7544 
G01 X0.3282 Y1.7765 
G01 X0.3282 Y1.8004 
G01 X0.3191 Y1.8224 
G01 X0.3022 Y1.8393 
G01 X0.2802 Y1.8484 
G00 Z0.1000 
G00 X2.8398 Y0.6884 
G01 Z-0.0070 F10.00 
G01 X3.0002 Y0.6884 F20.00 
G01 X3.0222 Y0.6976 
G01 X3.0391 Y0.7144 
G01 X3.0482 Y0.7365 
G01 X3.0482 Y0.7604 
G01 X3.0391 Y0.7824 
G01 X3.0222 Y0.7993 
G01 X3.0002 Y0.8084 
G01 X2.8398 Y0.8084 
G01 X2.8178 Y0.7993 
G01 X2.8009 Y0.7824 
G01 X2.7918 Y0.7604 
G01 X2.7918 Y0.7365 
G01 X2.8009 Y0.7144 
G01 X2.8178 Y0.6976 
G01 X2.8398 Y0.6884 
G00 Z0.1000 
G00 X2.8398 Y0.4916 
G01 Z-0.0070 F10.00 
G01 X3.0002 Y0.4916 F20.00 
G01 X3.0222 Y0.5007 
G01 X3.0391 Y0.5176 
G01 X3.0482 Y0.5396 
G01 X3.0482 Y0.5635 
G01 X3.0391 Y0.5856 
G01 X3.0222 Y0.6024 
G01 X3.0002 Y0.6116 
G01 X2.8398 Y0.6116 
G01 X2.8178 Y0.6024 
G01 X2.8009 Y0.5856 
G01 X2.7918 Y0.5635 
G01 X2.7918 Y0.5396 
G01 X2.8009 Y0.5176 
G01 X2.8178 Y0.5007 
G01 X2.8398 Y0.4916 
G00 Z0.1000 
G00 X0.2802 Y0.7716 
G01 Z-0.0070 F10.00 
G01 X0.1198 Y0.7716 F20.00 
G01 X0.0978 Y0.7624 
G01 X0.0809 Y0.7456 
G01 X0.0718 Y0.7235 
G01 X0.0718 Y0.6996 
G01 X0.0809 Y0.6776 
G01 X0.0978 Y0.6607 
G01 X0.1198 Y0.6516 
G01 X0.2802 Y0.6516 
G01 X0.3022 Y0.6607 
G01 X0.3191 Y0.6776 
G01 X0.3282 Y0.6996 
G01 X0.3282 Y0.7235 
G01 X0.3191 Y0.7456 
G01 X0.3022 Y0.7624 
G01 X0.2802 Y0.7716 
G00 Z0.1000 
G00 X0.2802 Y0.9684 
G01 Z-0.0070 F10.00 
G01 X0.1198 Y0.9684 F20.00 
G01 X0.0978 Y0.9593 
G01 X0.0809 Y0.9424 
G01 X0.0718 Y0.9204 
G01 X0.0718 Y0.8965 
G01 X0.0809 Y0.8744 
G01 X0.0978 Y0.8576 
G01 X0.1198 Y0.8484 
G01 X0.2802 Y0.8484 
G01 X0.3022 Y0.8576 
G01 X0.3191 Y0.8744 
G01 X0.3282 Y0.8965 
G01 X0.3282 Y0.9204 
G01 X0.3191 Y0.9424 
G01 X0.3022 Y0.9593 
G01 X0.2802 Y0.9684 
G00 Z0.1000 
G00 X0.2802 Y1.1716 
G01 Z-0.0070 F10.00 
G01 X0.1198 Y1.1716 F20.00 
G01 X0.0978 Y1.1624 
G01 X0.0809 Y1.1456 
G01 X0.0718 Y1.1235 
G01 X0.0718 Y1.0996 
G01 X0.0809 Y1.0776 
G01 X0.0978 Y1.0607 
G01 X0.1198 Y1.0516 
G01 X0.2802 Y1.0516 
G01 X0.3022 Y1.0607 
G01 X0.3191 Y1.0776 
G01 X0.3282 Y1.0996 
G01 X0.3282 Y1.1235 
G01 X0.3191 Y1.1456 
G01 X0.3022 Y1.1624 
G01 X0.2802 Y1.1716 
G00 Z0.1000 
G00 X0.2802 Y1.3684 
G01 Z-0.0070 F10.00 
G01 X0.1198 Y1.3684 F20.00 
G01 X0.0978 Y1.3593 
G01 X0.0809 Y1.3424 
G01 X0.0718 Y1.3204 
G01 X0.0718 Y1.2965 
G01 X0.0809 Y1.2744 
G01 X0.0978 Y1.2576 
G01 X0.1198 Y1.2484 
G01 X0.2802 Y1.2484 
G01 X0.3022 Y1.2576 
G01 X0.3191 Y1.2744 
G01 X0.3282 Y1.2965 
G01 X0.3282 Y1.3204 
G01 X0.3191 Y1.3424 
G01 X0.3022 Y1.3593 
G01 X0.2802 Y1.3684 
G00 Z0.1000 
G00 X1.1633 Y0.8545 
G01 Z-0.0070 F10.00 
G01 X1.1485 Y0.8397 F20.00 
G01 X1.1405 Y0.8204 
G01 X1.1405 Y0.7996 
G01 X1.1485 Y0.7803 
G01 X1.1633 Y0.7655 
G01 X1.1826 Y0.7575 
G01 X1.3174 Y0.7575 
G01 X1.3367 Y0.7655 
G01 X1.3515 Y0.7803 
G01 X1.3595 Y0.7996 
G01 X1.3595 Y0.8204 
G01 X1.3515 Y0.8397 
G01 X1.3367 Y0.8545 
G01 X1.3235 Y0.8600 
G01 X1.3367 Y0.8655 
G01 X1.3515 Y0.8803 
G01 X1.3595 Y0.8996 
G01 X1.3595 Y0.9204 
G01 X1.3515 Y0.9397 
G01 X1.3367 Y0.9545 
G01 X1.3235 Y0.9600 
G01 X1.3367 Y0.9655 
G01 X1.3515 Y0.9803 
G01 X1.3595 Y0.9996 
G01 X1.3595 Y1.0204 
G01 X1.3515 Y1.0397 
G01 X1.3367 Y1.0545 
G01 X1.3235 Y1.0600 
G01 X1.3367 Y1.0655 
G01 X1.3515 Y1.0803 
G01 X1.3595 Y1.0996 
G01 X1.3595 Y1.1204 
G01 X1.3515 Y1.1397 
G01 X1.3367 Y1.1545 
G01 X1.3235 Y1.1600 
G01 X1.3367 Y1.1655 
G01 X1.3515 Y1.1803 
G01 X1.3595 Y1.1996 
G01 X1.3595 Y1.2204 
G01 X1.3515 Y1.2397 
G01 X1.3367 Y1.2545 
G01 X1.3235 Y1.2600 
G01 X1.3367 Y1.2655 
G01 X1.3515 Y1.2803 
G01 X1.3595 Y1.2996 
G01 X1.3595 Y1.3204 
G01 X1.3515 Y1.3397 
G01 X1.3367 Y1.3545 
G01 X1.3235 Y1.3600 
G01 X1.3367 Y1.3655 
G01 X1.3515 Y1.3803 
G01 X1.3595 Y1.3996 
G01 X1.3595 Y1.4204 
G01 X1.3515 Y1.4397 
G01 X1.3367 Y1.4545 
G01 X1.3174 Y1.4625 
G01 X1.1826 Y1.4625 
G01 X1.1633 Y1.4545 
G01 X1.1485 Y1.4397 
G01 X1.1405 Y1.4204 
G01 X1.1405 Y1.3996 
G01 X1.1485 Y1.3803 
G01 X1.1633 Y1.3655 
G01 X1.1765 Y1.3600 
G01 X1.1633 Y1.3545 
G01 X1.1485 Y1.3397 
G01 X1.1405 Y1.3204 
G01 X1.1405 Y1.2996 
G01 X1.1485 Y1.2803 
G01 X1.1633 Y1.2655 
G01 X1.1765 Y1.2600 
G01 X1.1633 Y1.2545 
G01 X1.1485 Y1.2397 
G01 X1.1405 Y1.2204 
G01 X1.1405 Y1.1996 
G01 X1.1485 Y1.1803 
G01 X1.1633 Y1.1655 
G01 X1.1765 Y1.1600 
G01 X1.1633 Y1.1545 
G01 X1.1485 Y1.1397 
G01 X1.1405 Y1.1204 
G01 X1.1405 Y1.0996 
G01 X1.1485 Y1.0803 
G01 X1.1633 Y1.0655 
G01 X1.1765 Y1.0600 
G01 X1.1633 Y1.0545 
G01 X1.1485 Y1.0397 
G01 X1.1405 Y1.0204 
G01 X1.1405 Y0.9996 
G01 X1.1485 Y0.9803 
G01 X1.1633 Y0.9655 
G01 X1.1765 Y0.9600 
G01 X1.1633 Y0.9545 
G01 X1.1485 Y0.9397 
G01 X1.1405 Y0.9204 
G01 X1.1405 Y0.8996 
G01 X1.1485 Y0.8803 
G01 X1.1633 Y0.8655 
G01 X1.1765 Y0.8600 
G01 X1.1633 Y0.8545 
G00 Z0.1000 
G00 X2.1733 Y1.2545 
G01 Z-0.0070 F10.00 
G01 X2.1585 Y1.2397 F20.00 
G01 X2.1505 Y1.2204 
G01 X2.1505 Y1.1996 
G01 X2.1585 Y1.1803 
G01 X2.1733 Y1.1655 
G01 X2.1865 Y1.1600 
G01 X2.1733 Y1.1545 
G01 X2.1585 Y1.1397 
G01 X2.1505 Y1.1204 
G01 X2.1505 Y1.0996 
G01 X2.1585 Y1.0803 
G01 X2.1733 Y1.0655 
G01 X2.1865 Y1.0600 
G01 X2.1733 Y1.0545 
G01 X2.1585 Y1.0397 
G01 X2.1505 Y1.0204 
G01 X2.1505 Y0.9996 
G01 X2.1585 Y0.9803 
G01 X2.1733 Y0.9655 
G01 X2.1926 Y0.9575 
G01 X2.3274 Y0.9575 
G01 X2.3467 Y0.9655 
G01 X2.3615 Y0.9803 
G01 X2.3695 Y0.9996 
G01 X2.3695 Y1.0204 
G01 X2.3615 Y1.0397 
G01 X2.3467 Y1.0545 
G01 X2.3335 Y1.0600 
G01 X2.3467 Y1.0655 
G01 X2.3615 Y1.0803 
G01 X2.3695 Y1.0996 
G01 X2.3695 Y1.1204 
G01 X2.3615 Y1.1397 
G01 X2.3467 Y1.1545 
G01 X2.3335 Y1.1600 
G01 X2.3467 Y1.1655 
G01 X2.3615 Y1.1803 
G01 X2.3695 Y1.1996 
G01 X2.3695 Y1.2204 
G01 X2.3615 Y1.2397 
G01 X2.3467 Y1.2545 
G01 X2.3335 Y1.2600 
G01 X2.3467 Y1.2655 
G01 X2.3615 Y1.2803 
G01 X2.3695 Y1.2996 
G01 X2.3695 Y1.3204 
G01 X2.3615 Y1.3397 
G01 X2.3467 Y1.3545 
G01 X2.3274 Y1.3625 
G01 X2.1926 Y1.3625 
G01 X2.1733 Y1.3545 
G01 X2.1585 Y1.3397 
G01 X2.1505 Y1.3204 
G01 X2.1505 Y1.2996 
G01 X2.1585 Y1.2803 
G01 X2.1733 Y1.2655 
G01 X2.1865 Y1.2600 
G01 X2.1733 Y1.2545 
G00 Z0.1000 
G00 X2.0274 Y1.3625 
G01 Z-0.0070 F10.00 
G01 X1.8926 Y1.3625 F20.00 
G01 X1.8733 Y1.3545 
G01 X1.8585 Y1.3397 
G01 X1.8505 Y1.3204 
G01 X1.8505 Y1.2996 
G01 X1.8585 Y1.2803 
G01 X1.8733 Y1.2655 
G01 X1.8865 Y1.2600 
G01 X1.8733 Y1.2545 
G01 X1.8585 Y1.2397 
G01 X1.8505 Y1.2204 
G01 X1.8505 Y1.1996 
G01 X1.8585 Y1.1803 
G01 X1.8733 Y1.1655 
G01 X1.8865 Y1.1600 
G01 X1.8733 Y1.1545 
G01 X1.8585 Y1.1397 
G01 X1.8505 Y1.1204 
G01 X1.8505 Y1.0996 
G01 X1.8585 Y1.0803 
G01 X1.8733 Y1.0655 
G01 X1.8865 Y1.0600 
G01 X1.8733 Y1.0545 
G01 X1.8585 Y1.0397 
G01 X1.8505 Y1.0204 
G01 X1.8505 Y0.9996 
G01 X1.8585 Y0.9803 
G01 X1.8733 Y0.9655 
G01 X1.8926 Y0.9575 
G01 X2.0274 Y0.9575 
G01 X2.0467 Y0.9655 
G01 X2.0615 Y0.9803 
G01 X2.0695 Y0.9996 
G01 X2.0695 Y1.0204 
G01 X2.0615 Y1.0397 
G01 X2.0467 Y1.0545 
G01 X2.0335 Y1.0600 
G01 X2.0467 Y1.0655 
G01 X2.0615 Y1.0803 
G01 X2.0695 Y1.0996 
G01 X2.0695 Y1.1204 
G01 X2.0615 Y1.1397 
G01 X2.0467 Y1.1545 
G01 X2.0335 Y1.1600 
G01 X2.0467 Y1.1655 
G01 X2.0615 Y1.1803 
G01 X2.0695 Y1.1996 
G01 X2.0695 Y1.2204 
G01 X2.0615 Y1.2397 
G01 X2.0467 Y1.2545 
G01 X2.0335 Y1.2600 
G01 X2.0467 Y1.2655 
G01 X2.0615 Y1.2803 
G01 X2.0695 Y1.2996 
G01 X2.0695 Y1.3204 
G01 X2.0615 Y1.3397 
G01 X2.0467 Y1.3545 
G01 X2.0274 Y1.3625 
G00 Z0.1000 
G00 X1.5585 Y1.2984 
G01 Z-0.0070 F10.00 
G01 X1.5585 Y1.3216 F20.00 
G01 X1.5496 Y1.3431 
G01 X1.5331 Y1.3596 
G01 X1.5116 Y1.3685 
G01 X1.4884 Y1.3685 
G01 X1.4669 Y1.3596 
G01 X1.4504 Y1.3431 
G01 X1.4415 Y1.3216 
G01 X1.4415 Y1.2984 
G01 X1.4504 Y1.2769 
G01 X1.4669 Y1.2604 
G01 X1.4884 Y1.2515 
G01 X1.5116 Y1.2515 
G01 X1.5331 Y1.2604 
G01 X1.5496 Y1.2769 
G01 X1.5585 Y1.2984 
G00 Z0.1000 
G00 X1.5585 Y1.6984 
G01 Z-0.0070 F10.00 
G01 X1.5585 Y1.7216 F20.00 
G01 X1.5496 Y1.7431 
G01 X1.5331 Y1.7596 
G01 X1.5116 Y1.7685 
G01 X1.4884 Y1.7685 
G01 X1.4669 Y1.7596 
G01 X1.4504 Y1.7431 
G01 X1.4415 Y1.7216 
G01 X1.4415 Y1.6984 
G01 X1.4504 Y1.6769 
G01 X1.4669 Y1.6604 
G01 X1.4884 Y1.6515 
G01 X1.5116 Y1.6515 
G01 X1.5331 Y1.6604 
G01 X1.5496 Y1.6769 
G01 X1.5585 Y1.6984 
G00 Z0.1000 
G00 X1.4785 Y0.4884 
G01 Z-0.0070 F10.00 
G01 X1.4785 Y0.5116 F20.00 
G01 X1.4696 Y0.5331 
G01 X1.4531 Y0.5496 
G01 X1.4316 Y0.5585 
G01 X1.4084 Y0.5585 
G01 X1.3869 Y0.5496 
G01 X1.3704 Y0.5331 
G01 X1.3615 Y0.5116 
G01 X1.3615 Y0.4884 
G01 X1.3704 Y0.4669 
G01 X1.3869 Y0.4504 
G01 X1.4084 Y0.4415 
G01 X1.4316 Y0.4415 
G01 X1.4531 Y0.4504 
G01 X1.4696 Y0.4669 
G01 X1.4785 Y0.4884 
G00 Z0.1000 
G00 X1.8785 Y0.3284 
G01 Z-0.0070 F10.00 
G01 X1.8785 Y0.3516 F20.00 
G01 X1.8696 Y0.3731 
G01 X1.8531 Y0.3896 
G01 X1.8316 Y0.3985 
G01 X1.8084 Y0.3985 
G01 X1.7869 Y0.3896 
G01 X1.7704 Y0.3731 
G01 X1.7615 Y0.3516 
G01 X1.7615 Y0.3284 
G01 X1.7704 Y0.3069 
G01 X1.7869 Y0.2904 
G01 X1.8084 Y0.2815 
G01 X1.8316 Y0.2815 
G01 X1.8531 Y0.2904 
G01 X1.8696 Y0.3069 
G01 X1.8785 Y0.3284 
G00 Z0.1000 
G00 X1.4785 Y0.3284 
G01 Z-0.0070 F10.00 
G01 X1.4785 Y0.3516 F20.00 
G01 X1.4696 Y0.3731 
G01 X1.4531 Y0.3896 
G01 X1.4316 Y0.3985 
G01 X1.4084 Y0.3985 
G01 X1.3869 Y0.3896 
G01 X1.3704 Y0.3731 
G01 X1.3615 Y0.3516 
G01 X1.3615 Y0.3284 
G01 X1.3704 Y0.3069 
G01 X1.3869 Y0.2904 
G01 X1.4084 Y0.2815 
G01 X1.4316 Y0.2815 
G01 X1.4531 Y0.2904 
G01 X1.4696 Y0.3069 
G01 X1.4785 Y0.3284 
G00 Z0.1000 
G00 X2.0685 Y0.2484 
G01 Z-0.0070 F10.00 
G01 X2.0685 Y0.2716 F20.00 
G01 X2.0596 Y0.2931 
G01 X2.0431 Y0.3096 
G01 X2.0216 Y0.3185 
G01 X1.9984 Y0.3185 
G01 X1.9769 Y0.3096 
G01 X1.9604 Y0.2931 
G01 X1.9515 Y0.2716 
G01 X1.9515 Y0.2484 
G01 X1.9604 Y0.2269 
G01 X1.9769 Y0.2104 
G01 X1.9984 Y0.2015 
G01 X2.0216 Y0.2015 
G01 X2.0431 Y0.2104 
G01 X2.0596 Y0.2269 
G01 X2.0685 Y0.2484 
G00 Z0.1000 
G00 X2.0685 Y0.6484 
G01 Z-0.0070 F10.00 
G01 X2.0685 Y0.6716 F20.00 
G01 X2.0596 Y0.6931 
G01 X2.0431 Y0.7096 
G01 X2.0216 Y0.7185 
G01 X1.9984 Y0.7185 
G01 X1.9769 Y0.7096 
G01 X1.9604 Y0.6931 
G01 X1.9515 Y0.6716 
G01 X1.9515 Y0.6484 
G01 X1.9604 Y0.6269 
G01 X1.9769 Y0.6104 
G01 X1.9984 Y0.6015 
G01 X2.0216 Y0.6015 
G01 X2.0431 Y0.6104 
G01 X2.0596 Y0.6269 
G01 X2.0685 Y0.6484 
G00 Z0.1000 
G00 X3.2125 Y1.5883 
G01 Z-0.0070 F10.00 
G01 X3.2125 Y1.6317 F20.00 
G01 X3.1817 Y1.6625 
G01 X3.1383 Y1.6625 
G01 X3.1075 Y1.6317 
G01 X3.1075 Y1.5883 
G01 X3.1383 Y1.5575 
G01 X3.1817 Y1.5575 
G01 X3.2125 Y1.5883 
G00 Z0.1000 
G00 X2.7125 Y1.5883 
G01 Z-0.0070 F10.00 
G01 X2.7125 Y1.6317 F20.00 
G01 X2.6817 Y1.6625 
G01 X2.6383 Y1.6625 
G01 X2.6075 Y1.6317 
G01 X2.6075 Y1.5883 
G01 X2.6383 Y1.5575 
G01 X2.6817 Y1.5575 
G01 X2.7125 Y1.5883 
G00 Z0.1000 
G00 X1.0174 Y1.4625 
G01 Z-0.0070 F10.00 
G01 X0.8826 Y1.4625 F20.00 
G01 X0.8633 Y1.4545 
G01 X0.8485 Y1.4397 
G01 X0.8405 Y1.4204 
G01 X0.8405 Y1.3996 
G01 X0.8485 Y1.3803 
G01 X0.8633 Y1.3655 
G01 X0.8765 Y1.3600 
G01 X0.8633 Y1.3545 
G01 X0.8485 Y1.3397 
G01 X0.8405 Y1.3204 
G01 X0.8405 Y1.2996 
G01 X0.8485 Y1.2803 
G01 X0.8633 Y1.2655 
G01 X0.8765 Y1.2600 
G01 X0.8633 Y1.2545 
G01 X0.8485 Y1.2397 
G01 X0.8405 Y1.2204 
G01 X0.8405 Y1.1996 
G01 X0.8485 Y1.1803 
G01 X0.8633 Y1.1655 
G01 X0.8765 Y1.1600 
G01 X0.8633 Y1.1545 
G01 X0.8485 Y1.1397 
G01 X0.8405 Y1.1204 
G01 X0.8405 Y1.0996 
G01 X0.8485 Y1.0803 
G01 X0.8633 Y1.0655 
G01 X0.8765 Y1.0600 
G01 X0.8633 Y1.0545 
G01 X0.8485 Y1.0397 
G01 X0.8405 Y1.0204 
G01 X0.8405 Y0.9996 
G01 X0.8485 Y0.9803 
G01 X0.8633 Y0.9655 
G01 X0.8765 Y0.9600 
G01 X0.8633 Y0.9545 
G01 X0.8485 Y0.9397 
G01 X0.8405 Y0.9204 
G01 X0.8405 Y0.8996 
G01 X0.8485 Y0.8803 
G01 X0.8633 Y0.8655 
G01 X0.8765 Y0.8600 
G01 X0.8633 Y0.8545 
G01 X0.8485 Y0.8397 
G01 X0.8405 Y0.8204 
G01 X0.8405 Y0.7996 
G01 X0.8485 Y0.7803 
G01 X0.8633 Y0.7655 
G01 X0.8826 Y0.7575 
G01 X1.0174 Y0.7575 
G01 X1.0367 Y0.7655 
G01 X1.0515 Y0.7803 
G01 X1.0595 Y0.7996 
G01 X1.0595 Y0.8204 
G01 X1.0515 Y0.8397 
G01 X1.0367 Y0.8545 
G01 X1.0235 Y0.8600 
G01 X1.0367 Y0.8655 
G01 X1.0515 Y0.8803 
G01 X1.0595 Y0.8996 
G01 X1.0595 Y0.9204 
G01 X1.0515 Y0.9397 
G01 X1.0367 Y0.9545 
G01 X1.0235 Y0.9600 
G01 X1.0367 Y0.9655 
G01 X1.0515 Y0.9803 
G01 X1.0595 Y0.9996 
G01 X1.0595 Y1.0204 
G01 X1.0515 Y1.0397 
G01 X1.0367 Y1.0545 
G01 X1.0235 Y1.0600 
G01 X1.0367 Y1.0655 
G01 X1.0515 Y1.0803 
G01 X1.0595 Y1.0996 
G01 X1.0595 Y1.1204 
G01 X1.0515 Y1.1397 
G01 X1.0367 Y1.1545 
G01 X1.0235 Y1.1600 
G01 X1.0367 Y1.1655 
G01 X1.0515 Y1.1803 
G01 X1.0595 Y1.1996 
G01 X1.0595 Y1.2204 
G01 X1.0515 Y1.2397 
G01 X1.0367 Y1.2545 
G01 X1.0235 Y1.2600 
G01 X1.0367 Y1.2655 
G01 X1.0515 Y1.2803 
G01 X1.0595 Y1.2996 
G01 X1.0595 Y1.3204 
G01 X1.0515 Y1.3397 
G01 X1.0367 Y1.3545 
G01 X1.0235 Y1.3600 
G01 X1.0367 Y1.3655 
G01 X1.0515 Y1.3803 
G01 X1.0595 Y1.3996 
G01 X1.0595 Y1.4204 
G01 X1.0515 Y1.4397 
G01 X1.0367 Y1.4545 
G01 X1.0174 Y1.4625 
G00 Z0.1000 
G00 X3.0025 Y1.1083 
G01 Z-0.0070 F10.00 
G01 X3.0025 Y1.1517 F20.00 
G01 X2.9717 Y1.1825 
G01 X2.9283 Y1.1825 
G01 X2.8975 Y1.1517 
G01 X2.8975 Y1.1083 
G01 X2.9283 Y1.0775 
G01 X2.9717 Y1.0775 
G01 X3.0025 Y1.1083 
G00 Z0.1000 
G00 X3.0025 Y1.3083 
G01 Z-0.0070 F10.00 
G01 X3.0025 Y1.3517 F20.00 
G01 X2.9717 Y1.3825 
G01 X2.9283 Y1.3825 
G01 X2.8975 Y1.3517 
G01 X2.8975 Y1.3083 
G01 X2.9283 Y1.2775 
G01 X2.9717 Y1.2775 
G01 X3.0025 Y1.3083 
G00 Z0.1000 
G00 X1.8225 Y1.1783 
G01 Z-0.0070 F10.00 
G01 X1.8225 Y1.2217 F20.00 
G01 X1.7917 Y1.2525 
G01 X1.7483 Y1.2525 
G01 X1.7175 Y1.2217 
G01 X1.7175 Y1.1783 
G01 X1.7483 Y1.1475 
G01 X1.7917 Y1.1475 
G01 X1.8225 Y1.1783 
G00 Z0.1000 
G00 X1.8225 Y1.6783 
G01 Z-0.0070 F10.00 
G01 X1.8225 Y1.7217 F20.00 
G01 X1.7917 Y1.7525 
G01 X1.7483 Y1.7525 
G01 X1.7175 Y1.7217 
G01 X1.7175 Y1.6783 
G01 X1.7483 Y1.6475 
G01 X1.7917 Y1.6475 
G01 X1.8225 Y1.6783 
G00 Z0.1000 
G00 X2.0525 Y1.8883 
G01 Z-0.0070 F10.00 
G01 X2.0525 Y1.9317 F20.00 
G01 X2.0217 Y1.9625 
G01 X1.9783 Y1.9625 
G01 X1.9475 Y1.9317 
G01 X1.9475 Y1.8883 
G01 X1.9783 Y1.8575 
G01 X2.0217 Y1.8575 
G01 X2.0525 Y1.8883 
G00 Z0.1000 
G00 X1.5525 Y1.8883 
G01 Z-0.0070 F10.00 
G01 X1.5525 Y1.9317 F20.00 
G01 X1.5217 Y1.9625 
G01 X1.4783 Y1.9625 
G01 X1.4475 Y1.9317 
G01 X1.4475 Y1.8883 
G01 X1.4783 Y1.8575 
G01 X1.5217 Y1.8575 
G01 X1.5525 Y1.8883 
G00 Z0.1000 
G00 X2.0263 Y1.4467 
G01 Z-0.0070 F10.00 
G01 X2.0263 Y1.4933 F20.00 
G01 X2.0095 Y1.5101 
G01 X2.0095 Y1.7499 
G01 X2.0263 Y1.7667 
G01 X2.0263 Y1.8133 
G01 X1.9933 Y1.8463 
G01 X1.9467 Y1.8463 
G01 X1.9137 Y1.8133 
G01 X1.9137 Y1.7667 
G01 X1.9305 Y1.7499 
G01 X1.9305 Y1.5101 
G01 X1.9137 Y1.4933 
G01 X1.9137 Y1.4467 
G01 X1.9467 Y1.4137 
G01 X1.9933 Y1.4137 
G01 X2.0263 Y1.4467 
G00 Z0.1000 
G00 X2.5663 Y0.8867 
G01 Z-0.0070 F10.00 
G01 X2.5663 Y0.9333 F20.00 
G01 X2.5333 Y0.9663 
G01 X2.4867 Y0.9663 
G01 X2.4537 Y0.9333 
G01 X2.4537 Y0.8867 
G01 X2.4705 Y0.8699 
G01 X2.4705 Y0.5001 
G01 X2.4537 Y0.4833 
G01 X2.4537 Y0.4367 
G01 X2.4867 Y0.4037 
G01 X2.5333 Y0.4037 
G01 X2.5663 Y0.4367 
G01 X2.5663 Y0.4833 
G01 X2.5495 Y0.5001 
G01 X2.5495 Y0.8699 
G01 X2.5663 Y0.8867 
G00 Z0.1000 
G00 X2.5713 Y0.8846 
G01 Z-0.0070 F10.00 
G01 X2.5713 Y0.9354 F20.00 
G01 X2.5354 Y0.9713 
G01 X2.4846 Y0.9713 
G01 X2.4487 Y0.9354 
G01 X2.4487 Y0.8846 
G01 X2.4655 Y0.8678 
G01 X2.4655 Y0.5022 
G01 X2.4487 Y0.4854 
G01 X2.4487 Y0.4346 
G01 X2.4846 Y0.3987 
G01 X2.5354 Y0.3987 
G01 X2.5713 Y0.4346 
G01 X2.5713 Y0.4854 
G01 X2.5545 Y0.5022 
G01 X2.5545 Y0.8678 
G01 X2.5713 Y0.8846 
G00 Z0.1000 
G00 X2.0313 Y1.4446 
G01 Z-0.0070 F10.00 
G01 X2.0313 Y1.4954 F20.00 
G01 X2.0145 Y1.5122 
G01 X2.0145 Y1.7478 
G01 X2.0313 Y1.7646 
G01 X2.0313 Y1.8154 
G01 X1.9954 Y1.8513 
G01 X1.9446 Y1.8513 
G01 X1.9087 Y1.8154 
G01 X1.9087 Y1.7646 
G01 X1.9255 Y1.7478 
G01 X1.9255 Y1.5122 
G01 X1.9087 Y1.4954 
G01 X1.9087 Y1.4446 
G01 X1.9446 Y1.4087 
G01 X1.9954 Y1.4087 
G01 X2.0313 Y1.4446 
G00 Z0.1000 
G00 X2.3638 Y1.7975 
G01 Z-0.0070 F10.00 
G01 X2.3162 Y1.7975 F20.00 
G01 X2.2825 Y1.7638 
G01 X2.2825 Y1.7162 
G01 X2.3162 Y1.6825 
G01 X2.3325 Y1.6825 
G01 X2.3325 Y1.6412 
G01 X2.3662 Y1.6075 
G01 X2.4138 Y1.6075 
G01 X2.4475 Y1.6412 
G01 X2.4475 Y1.6825 
G01 X2.4638 Y1.6825 
G01 X2.4975 Y1.7162 
G01 X2.4975 Y1.7638 
G01 X2.4638 Y1.7975 
G01 X2.4162 Y1.7975 
G01 X2.3900 Y1.7713 
G01 X2.3638 Y1.7975 
G00 Z0.1000 
G00 X2.1975 Y0.2362 
G01 Z-0.0070 F10.00 
G01 X2.1975 Y0.2838 F20.00 
G01 X2.1638 Y0.3175 
G01 X2.1162 Y0.3175 
G01 X2.0825 Y0.2838 
G01 X2.0825 Y0.2362 
G01 X2.1162 Y0.2025 
G01 X2.1638 Y0.2025 
G01 X2.1975 Y0.2362 
G00 Z0.1000 
G00 X2.6975 Y0.2362 
G01 Z-0.0070 F10.00 
G01 X2.6975 Y0.2838 F20.00 
G01 X2.6638 Y0.3175 
G01 X2.6162 Y0.3175 
G01 X2.5825 Y0.2838 
G01 X2.5825 Y0.2362 
G01 X2.6162 Y0.2025 
G01 X2.6638 Y0.2025 
G01 X2.6975 Y0.2362 
G00 Z0.1000 
G00 X1.3775 Y0.1762 
G01 Z-0.0070 F10.00 
G01 X1.3775 Y0.2238 F20.00 
G01 X1.3438 Y0.2575 
G01 X1.2962 Y0.2575 
G01 X1.2625 Y0.2238 
G01 X1.2625 Y0.1762 
G01 X1.2962 Y0.1425 
G01 X1.3438 Y0.1425 
G01 X1.3775 Y0.1762 
G00 Z0.1000 
G00 X1.8775 Y0.1762 
G01 Z-0.0070 F10.00 
G01 X1.8775 Y0.2238 F20.00 
G01 X1.8438 Y0.2575 
G01 X1.7962 Y0.2575 
G01 X1.7625 Y0.2238 
G01 X1.7625 Y0.1762 
G01 X1.7962 Y0.1425 
G01 X1.8438 Y0.1425 
G01 X1.8775 Y0.1762 
G00 Z0.1000 
G00 X1.4875 Y0.6862 
G01 Z-0.0070 F10.00 
G01 X1.4875 Y0.7338 F20.00 
G01 X1.4538 Y0.7675 
G01 X1.4062 Y0.7675 
G01 X1.3725 Y0.7338 
G01 X1.3725 Y0.6862 
G01 X1.4062 Y0.6525 
G01 X1.4538 Y0.6525 
G01 X1.4875 Y0.6862 
G00 Z0.1000 
G00 X2.7275 Y1.7962 
G01 Z-0.0070 F10.00 
G01 X2.7275 Y1.8438 F20.00 
G01 X2.6938 Y1.8775 
G01 X2.6462 Y1.8775 
G01 X2.6125 Y1.8438 
G01 X2.6125 Y1.7962 
G01 X2.6387 Y1.7700 
G01 X2.6125 Y1.7438 
G01 X2.6125 Y1.6962 
G01 X2.6412 Y1.6675 
G01 X2.6362 Y1.6675 
G01 X2.6025 Y1.6338 
G01 X2.6025 Y1.5862 
G01 X2.6362 Y1.5525 
G01 X2.6838 Y1.5525 
G01 X2.7175 Y1.5862 
G01 X2.7175 Y1.6338 
G01 X2.6888 Y1.6625 
G01 X2.6938 Y1.6625 
G01 X2.7275 Y1.6962 
G01 X2.7275 Y1.7438 
G01 X2.7013 Y1.7700 
G01 X2.7275 Y1.7962 
G00 Z0.1000 
G00 X2.7275 Y1.2262 
G01 Z-0.0070 F10.00 
G01 X2.7275 Y1.2738 F20.00 
G01 X2.6938 Y1.3075 
G01 X2.6462 Y1.3075 
G01 X2.6125 Y1.2738 
G01 X2.6125 Y1.2262 
G01 X2.6462 Y1.1925 
G01 X2.6938 Y1.1925 
G01 X2.7275 Y1.2262 
G00 Z0.1000 
G00 X2.7275 Y0.7262 
G01 Z-0.0070 F10.00 
G01 X2.7275 Y0.7738 F20.00 
G01 X2.6938 Y0.8075 
G01 X2.6462 Y0.8075 
G01 X2.6125 Y0.7738 
G01 X2.6125 Y0.7262 
G01 X2.6462 Y0.6925 
G01 X2.6938 Y0.6925 
G01 X2.7275 Y0.7262 
G00 Z0.1000 
G00 X1.8075 Y0.6362 
G01 Z-0.0070 F10.00 
G01 X1.8075 Y0.6838 F20.00 
G01 X1.7738 Y0.7175 
G01 X1.7262 Y0.7175 
G01 X1.6925 Y0.6838 
G01 X1.6925 Y0.6362 
G01 X1.7262 Y0.6025 
G01 X1.7738 Y0.6025 
G01 X1.8075 Y0.6362 
G00 Z0.1000 
G00 X1.6075 Y0.6362 
G01 Z-0.0070 F10.00 
G01 X1.6075 Y0.6838 F20.00 
G01 X1.5738 Y0.7175 
G01 X1.5262 Y0.7175 
G01 X1.4925 Y0.6838 
G01 X1.4925 Y0.6362 
G01 X1.5262 Y0.6025 
G01 X1.5738 Y0.6025 
G01 X1.6075 Y0.6362 
G00 Z0.1000 
G00 X0.8375 Y0.3162 
G01 Z-0.0070 F10.00 
G01 X0.8375 Y0.3638 F20.00 
G01 X0.8038 Y0.3975 
G01 X0.7562 Y0.3975 
G01 X0.7225 Y0.3638 
G01 X0.7225 Y0.3162 
G01 X0.7562 Y0.2825 
G01 X0.8038 Y0.2825 
G01 X0.8375 Y0.3162 
G00 Z0.1000 
G00 X0.8375 Y0.5162 
G01 Z-0.0070 F10.00 
G01 X0.8375 Y0.5638 F20.00 
G01 X0.8038 Y0.5975 
G01 X0.7562 Y0.5975 
G01 X0.7225 Y0.5638 
G01 X0.7225 Y0.5162 
G01 X0.7562 Y0.4825 
G01 X0.8038 Y0.4825 
G01 X0.8375 Y0.5162 
G00 Z0.1000 
G00 X0.6175 Y0.8862 
G01 Z-0.0070 F10.00 
G01 X0.6175 Y0.9338 F20.00 
G01 X0.5838 Y0.9675 
G01 X0.5362 Y0.9675 
G01 X0.5025 Y0.9338 
G01 X0.5025 Y0.8862 
G01 X0.5362 Y0.8525 
G01 X0.5838 Y0.8525 
G01 X0.6175 Y0.8862 
G00 Z0.1000 
G00 X0.6175 Y1.0862 
G01 Z-0.0070 F10.00 
G01 X0.6175 Y1.1338 F20.00 
G01 X0.5838 Y1.1675 
G01 X0.5362 Y1.1675 
G01 X0.5025 Y1.1338 
G01 X0.5025 Y1.0862 
G01 X0.5362 Y1.0525 
G01 X0.5838 Y1.0525 
G01 X0.6175 Y1.0862 
G00 Z0.1000 
G00 X0.7775 Y1.4862 
G01 Z-0.0070 F10.00 
G01 X0.7775 Y1.5338 F20.00 
G01 X0.7438 Y1.5675 
G01 X0.6962 Y1.5675 
G01 X0.6625 Y1.5338 
G01 X0.6625 Y1.4862 
G01 X0.6962 Y1.4525 
G01 X0.7438 Y1.4525 
G01 X0.7775 Y1.4862 
G00 Z0.1000 
G00 X0.7775 Y1.2862 
G01 Z-0.0070 F10.00 
G01 X0.7775 Y1.3338 F20.00 
G01 X0.7438 Y1.3675 
G01 X0.6962 Y1.3675 
G01 X0.6625 Y1.3338 
G01 X0.6625 Y1.2862 
G01 X0.6962 Y1.2525 
G01 X0.7438 Y1.2525 
G01 X0.7775 Y1.2862 
G00 Z0.1000 
G00 X0.2812 Y1.6566 
G01 Z-0.0070 F10.00 
G01 X0.1188 Y1.6566 F20.00 
G01 X0.0949 Y1.6467 
G01 X0.0766 Y1.6284 
G01 X0.0668 Y1.6045 
G01 X0.0668 Y1.5786 
G01 X0.0766 Y1.5548 
G01 X0.0949 Y1.5365 
G01 X0.1188 Y1.5266 
G01 X0.2812 Y1.5266 
G01 X0.3051 Y1.5365 
G01 X0.3234 Y1.5548 
G01 X0.3332 Y1.5786 
G01 X0.3332 Y1.6045 
G01 X0.3234 Y1.6284 
G01 X0.3051 Y1.6467 
G01 X0.2812 Y1.6566 
G00 Z0.1000 
G00 X0.2812 Y1.8534 
G01 Z-0.0070 F10.00 
G01 X0.1188 Y1.8534 F20.00 
G01 X0.0949 Y1.8435 
G01 X0.0766 Y1.8252 
G01 X0.0668 Y1.8014 
G01 X0.0668 Y1.7755 
G01 X0.0766 Y1.7516 
G01 X0.0949 Y1.7333 
G01 X0.1188 Y1.7234 
G01 X0.2812 Y1.7234 
G01 X0.3051 Y1.7333 
G01 X0.3234 Y1.7516 
G01 X0.3332 Y1.7755 
G01 X0.3332 Y1.8014 
G01 X0.3234 Y1.8252 
G01 X0.3051 Y1.8435 
G01 X0.2812 Y1.8534 
G00 Z0.1000 
G00 X2.8388 Y0.6834 
G01 Z-0.0070 F10.00 
G01 X3.0012 Y0.6834 F20.00 
G01 X3.0251 Y0.6933 
G01 X3.0434 Y0.7116 
G01 X3.0532 Y0.7355 
G01 X3.0532 Y0.7614 
G01 X3.0434 Y0.7852 
G01 X3.0251 Y0.8035 
G01 X3.0012 Y0.8134 
G01 X2.8388 Y0.8134 
G01 X2.8149 Y0.8035 
G01 X2.7966 Y0.7852 
G01 X2.7868 Y0.7614 
G01 X2.7868 Y0.7355 
G01 X2.7966 Y0.7116 
G01 X2.8149 Y0.6933 
G01 X2.8388 Y0.6834 
G00 Z0.1000 
G00 X2.8388 Y0.4866 
G01 Z-0.0070 F10.00 
G01 X3.0012 Y0.4866 F20.00 
G01 X3.0251 Y0.4965 
G01 X3.0434 Y0.5148 
G01 X3.0532 Y0.5386 
G01 X3.0532 Y0.5645 
G01 X3.0434 Y0.5884 
G01 X3.0251 Y0.6067 
G01 X3.0012 Y0.6166 
G01 X2.8388 Y0.6166 
G01 X2.8149 Y0.6067 
G01 X2.7966 Y0.5884 
G01 X2.7868 Y0.5645 
G01 X2.7868 Y0.5386 
G01 X2.7966 Y0.5148 
G01 X2.8149 Y0.4965 
G01 X2.8388 Y0.4866 
G00 Z0.1000 
G00 X0.2812 Y0.7766 
G01 Z-0.0070 F10.00 
G01 X0.1188 Y0.7766 F20.00 
G01 X0.0949 Y0.7667 
G01 X0.0766 Y0.7484 
G01 X0.0668 Y0.7245 
G01 X0.0668 Y0.6986 
G01 X0.0766 Y0.6748 
G01 X0.0949 Y0.6565 
G01 X0.1188 Y0.6466 
G01 X0.2812 Y0.6466 
G01 X0.3051 Y0.6565 
G01 X0.3234 Y0.6748 
G01 X0.3332 Y0.6986 
G01 X0.3332 Y0.7245 
G01 X0.3234 Y0.7484 
G01 X0.3051 Y0.7667 
G01 X0.2812 Y0.7766 
G00 Z0.1000 
G00 X0.2812 Y0.9734 
G01 Z-0.0070 F10.00 
G01 X0.1188 Y0.9734 F20.00 
G01 X0.0949 Y0.9635 
G01 X0.0766 Y0.9452 
G01 X0.0668 Y0.9214 
G01 X0.0668 Y0.8955 
G01 X0.0766 Y0.8716 
G01 X0.0949 Y0.8533 
G01 X0.1188 Y0.8434 
G01 X0.2812 Y0.8434 
G01 X0.3051 Y0.8533 
G01 X0.3234 Y0.8716 
G01 X0.3332 Y0.8955 
G01 X0.3332 Y0.9214 
G01 X0.3234 Y0.9452 
G01 X0.3051 Y0.9635 
G01 X0.2812 Y0.9734 
G00 Z0.1000 
G00 X0.2812 Y1.1766 
G01 Z-0.0070 F10.00 
G01 X0.1188 Y1.1766 F20.00 
G01 X0.0949 Y1.1667 
G01 X0.0766 Y1.1484 
G01 X0.0668 Y1.1245 
G01 X0.0668 Y1.0986 
G01 X0.0766 Y1.0748 
G01 X0.0949 Y1.0565 
G01 X0.1188 Y1.0466 
G01 X0.2812 Y1.0466 
G01 X0.3051 Y1.0565 
G01 X0.3234 Y1.0748 
G01 X0.3332 Y1.0986 
G01 X0.3332 Y1.1245 
G01 X0.3234 Y1.1484 
G01 X0.3051 Y1.1667 
G01 X0.2812 Y1.1766 
G00 Z0.1000 
G00 X0.2812 Y1.3734 
G01 Z-0.0070 F10.00 
G01 X0.1188 Y1.3734 F20.00 
G01 X0.0949 Y1.3635 
G01 X0.0766 Y1.3452 
G01 X0.0668 Y1.3214 
G01 X0.0668 Y1.2955 
G01 X0.0766 Y1.2716 
G01 X0.0949 Y1.2533 
G01 X0.1188 Y1.2434 
G01 X0.2812 Y1.2434 
G01 X0.3051 Y1.2533 
G01 X0.3234 Y1.2716 
G01 X0.3332 Y1.2955 
G01 X0.3332 Y1.3214 
G01 X0.3234 Y1.3452 
G01 X0.3051 Y1.3635 
G01 X0.2812 Y1.3734 
G00 Z0.1000 
G00 X1.1604 Y0.8587 
G01 Z-0.0070 F10.00 
G01 X1.1443 Y0.8426 F20.00 
G01 X1.1355 Y0.8214 
G01 X1.1355 Y0.7986 
G01 X1.1443 Y0.7774 
G01 X1.1604 Y0.7613 
G01 X1.1816 Y0.7525 
G01 X1.3184 Y0.7525 
G01 X1.3396 Y0.7613 
G01 X1.3557 Y0.7774 
G01 X1.3645 Y0.7986 
G01 X1.3645 Y0.8214 
G01 X1.3557 Y0.8426 
G01 X1.3396 Y0.8587 
G01 X1.3365 Y0.8600 
G01 X1.3396 Y0.8613 
G01 X1.3557 Y0.8774 
G01 X1.3645 Y0.8986 
G01 X1.3645 Y0.9214 
G01 X1.3557 Y0.9426 
G01 X1.3396 Y0.9587 
G01 X1.3365 Y0.9600 
G01 X1.3396 Y0.9613 
G01 X1.3557 Y0.9774 
G01 X1.3645 Y0.9986 
G01 X1.3645 Y1.0214 
G01 X1.3557 Y1.0426 
G01 X1.3396 Y1.0587 
G01 X1.3365 Y1.0600 
G01 X1.3396 Y1.0613 
G01 X1.3557 Y1.0774 
G01 X1.3645 Y1.0986 
G01 X1.3645 Y1.1214 
G01 X1.3557 Y1.1426 
G01 X1.3396 Y1.1587 
G01 X1.3365 Y1.1600 
G01 X1.3396 Y1.1613 
G01 X1.3557 Y1.1774 
G01 X1.3645 Y1.1986 
G01 X1.3645 Y1.2214 
G01 X1.3557 Y1.2426 
G01 X1.3396 Y1.2587 
G01 X1.3365 Y1.2600 
G01 X1.3396 Y1.2613 
G01 X1.3557 Y1.2774 
G01 X1.3645 Y1.2986 
G01 X1.3645 Y1.3214 
G01 X1.3557 Y1.3426 
G01 X1.3396 Y1.3587 
G01 X1.3365 Y1.3600 
G01 X1.3396 Y1.3613 
G01 X1.3557 Y1.3774 
G01 X1.3645 Y1.3986 
G01 X1.3645 Y1.4214 
G01 X1.3557 Y1.4426 
G01 X1.3396 Y1.4587 
G01 X1.3184 Y1.4675 
G01 X1.1816 Y1.4675 
G01 X1.1604 Y1.4587 
G01 X1.1443 Y1.4426 
G01 X1.1355 Y1.4214 
G01 X1.1355 Y1.3986 
G01 X1.1443 Y1.3774 
G01 X1.1604 Y1.3613 
G01 X1.1635 Y1.3600 
G01 X1.1604 Y1.3587 
G01 X1.1443 Y1.3426 
G01 X1.1355 Y1.3214 
G01 X1.1355 Y1.2986 
G01 X1.1443 Y1.2774 
G01 X1.1604 Y1.2613 
G01 X1.1635 Y1.2600 
G01 X1.1604 Y1.2587 
G01 X1.1443 Y1.2426 
G01 X1.1355 Y1.2214 
G01 X1.1355 Y1.1986 
G01 X1.1443 Y1.1774 
G01 X1.1604 Y1.1613 
G01 X1.1635 Y1.1600 
G01 X1.1604 Y1.1587 
G01 X1.1443 Y1.1426 
G01 X1.1355 Y1.1214 
G01 X1.1355 Y1.0986 
G01 X1.1443 Y1.0774 
G01 X1.1604 Y1.0613 
G01 X1.1635 Y1.0600 
G01 X1.1604 Y1.0587 
G01 X1.1443 Y1.0426 
G01 X1.1355 Y1.0214 
G01 X1.1355 Y0.9986 
G01 X1.1443 Y0.9774 
G01 X1.1604 Y0.9613 
G01 X1.1635 Y0.9600 
G01 X1.1604 Y0.9587 
G01 X1.1443 Y0.9426 
G01 X1.1355 Y0.9214 
G01 X1.1355 Y0.8986 
G01 X1.1443 Y0.8774 
G01 X1.1604 Y0.8613 
G01 X1.1635 Y0.8600 
G01 X1.1604 Y0.8587 
G00 Z0.1000 
G00 X2.1704 Y1.2587 
G01 Z-0.0070 F10.00 
G01 X2.1543 Y1.2426 F20.00 
G01 X2.1455 Y1.2214 
G01 X2.1455 Y1.1986 
G01 X2.1543 Y1.1774 
G01 X2.1704 Y1.1613 
G01 X2.1735 Y1.1600 
G01 X2.1704 Y1.1587 
G01 X2.1543 Y1.1426 
G01 X2.1455 Y1.1214 
G01 X2.1455 Y1.0986 
G01 X2.1543 Y1.0774 
G01 X2.1704 Y1.0613 
G01 X2.1735 Y1.0600 
G01 X2.1704 Y1.0587 
G01 X2.1543 Y1.0426 
G01 X2.1455 Y1.0214 
G01 X2.1455 Y0.9986 
G01 X2.1543 Y0.9774 
G01 X2.1704 Y0.9613 
G01 X2.1916 Y0.9525 
G01 X2.3284 Y0.9525 
G01 X2.3496 Y0.9613 
G01 X2.3657 Y0.9774 
G01 X2.3745 Y0.9986 
G01 X2.3745 Y1.0214 
G01 X2.3657 Y1.0426 
G01 X2.3496 Y1.0587 
G01 X2.3465 Y1.0600 
G01 X2.3496 Y1.0613 
G01 X2.3657 Y1.0774 
G01 X2.3745 Y1.0986 
G01 X2.3745 Y1.1214 
G01 X2.3657 Y1.1426 
G01 X2.3496 Y1.1587 
G01 X2.3465 Y1.1600 
G01 X2.3496 Y1.1613 
G01 X2.3657 Y1.1774 
G01 X2.3745 Y1.1986 
G01 X2.3745 Y1.2214 
G01 X2.3657 Y1.2426 
G01 X2.3496 Y1.2587 
G01 X2.3465 Y1.2600 
G01 X2.3496 Y1.2613 
G01 X2.3657 Y1.2774 
G01 X2.3745 Y1.2986 
G01 X2.3745 Y1.3214 
G01 X2.3657 Y1.3426 
G01 X2.3496 Y1.3587 
G01 X2.3284 Y1.3675 
G01 X2.1916 Y1.3675 
G01 X2.1704 Y1.3587 
G01 X2.1543 Y1.3426 
G01 X2.1455 Y1.3214 
G01 X2.1455 Y1.2986 
G01 X2.1543 Y1.2774 
G01 X2.1704 Y1.2613 
G01 X2.1735 Y1.2600 
G01 X2.1704 Y1.2587 
G00 Z0.1000 
G00 X2.0284 Y1.3675 
G01 Z-0.0070 F10.00 
G01 X1.8916 Y1.3675 F20.00 
G01 X1.8704 Y1.3587 
G01 X1.8543 Y1.3426 
G01 X1.8455 Y1.3214 
G01 X1.8455 Y1.2986 
G01 X1.8543 Y1.2774 
G01 X1.8704 Y1.2613 
G01 X1.8735 Y1.2600 
G01 X1.8704 Y1.2587 
G01 X1.8543 Y1.2426 
G01 X1.8455 Y1.2214 
G01 X1.8455 Y1.1986 
G01 X1.8543 Y1.1774 
G01 X1.8704 Y1.1613 
G01 X1.8735 Y1.1600 
G01 X1.8704 Y1.1587 
G01 X1.8543 Y1.1426 
G01 X1.8455 Y1.1214 
G01 X1.8455 Y1.0986 
G01 X1.8543 Y1.0774 
G01 X1.8704 Y1.0613 
G01 X1.8735 Y1.0600 
G01 X1.8704 Y1.0587 
G01 X1.8543 Y1.0426 
G01 X1.8455 Y1.0214 
G01 X1.8455 Y0.9986 
G01 X1.8543 Y0.9774 
G01 X1.8704 Y0.9613 
G01 X1.8916 Y0.9525 
G01 X2.0284 Y0.9525 
G01 X2.0496 Y0.9613 
G01 X2.0657 Y0.9774 
G01 X2.0745 Y0.9986 
G01 X2.0745 Y1.0214 
G01 X2.0657 Y1.0426 
G01 X2.0496 Y1.0587 
G01 X2.0465 Y1.0600 
G01 X2.0496 Y1.0613 
G01 X2.0657 Y1.0774 
G01 X2.0745 Y1.0986 
G01 X2.0745 Y1.1214 
G01 X2.0657 Y1.1426 
G01 X2.0496 Y1.1587 
G01 X2.0465 Y1.1600 
G01 X2.0496 Y1.1613 
G01 X2.0657 Y1.1774 
G01 X2.0745 Y1.1986 
G01 X2.0745 Y1.2214 
G01 X2.0657 Y1.2426 
G01 X2.0496 Y1.2587 
G01 X2.0465 Y1.2600 
G01 X2.0496 Y1.2613 
G01 X2.0657 Y1.2774 
G01 X2.0745 Y1.2986 
G01 X2.0745 Y1.3214 
G01 X2.0657 Y1.3426 
G01 X2.0496 Y1.3587 
G01 X2.0284 Y1.3675 
G00 Z0.1000 
G00 X1.5635 Y1.2974 
G01 Z-0.0070 F10.00 
G01 X1.5635 Y1.3226 F20.00 
G01 X1.5538 Y1.3460 
G01 X1.5360 Y1.3638 
G01 X1.5126 Y1.3735 
G01 X1.4874 Y1.3735 
G01 X1.4640 Y1.3638 
G01 X1.4462 Y1.3460 
G01 X1.4365 Y1.3226 
G01 X1.4365 Y1.2974 
G01 X1.4462 Y1.2740 
G01 X1.4527 Y1.2675 
G01 X1.4062 Y1.2675 
G01 X1.3725 Y1.2338 
G01 X1.3725 Y1.1862 
G01 X1.4062 Y1.1525 
G01 X1.4538 Y1.1525 
G01 X1.4875 Y1.1862 
G01 X1.4875 Y1.2338 
G01 X1.4659 Y1.2554 
G01 X1.4874 Y1.2465 
G01 X1.5126 Y1.2465 
G01 X1.5360 Y1.2562 
G01 X1.5538 Y1.2740 
G01 X1.5635 Y1.2974 
G00 Z0.1000 
G00 X1.5635 Y1.6974 
G01 Z-0.0070 F10.00 
G01 X1.5635 Y1.7226 F20.00 
G01 X1.5538 Y1.7460 
G01 X1.5360 Y1.7638 
G01 X1.5126 Y1.7735 
G01 X1.4874 Y1.7735 
G01 X1.4640 Y1.7638 
G01 X1.4462 Y1.7460 
G01 X1.4365 Y1.7226 
G01 X1.4365 Y1.6974 
G01 X1.4462 Y1.6740 
G01 X1.4640 Y1.6562 
G01 X1.4874 Y1.6465 
G01 X1.5126 Y1.6465 
G01 X1.5360 Y1.6562 
G01 X1.5538 Y1.6740 
G01 X1.5635 Y1.6974 
G00 Z0.1000 
G00 X1.8835 Y0.4874 
G01 Z-0.0070 F10.00 
G01 X1.8835 Y0.5087 F20.00 
G01 X1.9254 Y0.5087 
G01 X1.9613 Y0.5446 
G01 X1.9613 Y0.5954 
G01 X1.9445 Y0.6122 
G01 X1.9445 Y0.8311 
G01 X1.9445 Y0.8349 
G01 X1.9445 Y0.8489 
G01 X1.9445 Y0.8550 
G01 X1.9445 Y0.8550 
G01 X1.9352 Y0.8834 
G01 X1.9352 Y0.8834 
G01 X1.9176 Y0.9076 
G01 X1.9176 Y0.9076 
G01 X1.9176 Y0.9076 
G01 X1.8934 Y0.9252 
G01 X1.8934 Y0.9252 
G01 X1.8650 Y0.9345 
G01 X1.8650 Y0.9345 
G01 X1.8589 Y0.9345 
G01 X1.6989 Y0.9345 
G01 X1.6900 Y0.9345 
G01 X1.6891 Y0.9346 
G01 X1.6875 Y0.9351 
G01 X1.6861 Y0.9361 
G01 X1.6851 Y0.9375 
G01 X1.6846 Y0.9391 
G01 X1.6845 Y0.9400 
G01 X1.6845 Y1.2278 
G01 X1.7013 Y1.2446 
G01 X1.7013 Y1.2954 
G01 X1.6654 Y1.3313 
G01 X1.6146 Y1.3313 
G01 X1.5787 Y1.2954 
G01 X1.5787 Y1.2446 
G01 X1.5955 Y1.2278 
G01 X1.5955 Y0.9311 
G01 X1.5955 Y0.9250 
G01 X1.5955 Y0.9250 
G01 X1.6048 Y0.8966 
G01 X1.6048 Y0.8966 
G01 X1.6223 Y0.8724 
G01 X1.6223 Y0.8723 
G01 X1.6224 Y0.8723 
G01 X1.6466 Y0.8548 
G01 X1.6466 Y0.8548 
G01 X1.6750 Y0.8455 
G01 X1.6750 Y0.8455 
G01 X1.6811 Y0.8455 
G01 X1.6897 Y0.8455 
G01 X1.6900 Y0.8455 
G01 X1.6989 Y0.8455 
G01 X1.8500 Y0.8455 
G01 X1.8509 Y0.8454 
G01 X1.8525 Y0.8449 
G01 X1.8539 Y0.8439 
G01 X1.8549 Y0.8425 
G01 X1.8554 Y0.8409 
G01 X1.8555 Y0.8400 
G01 X1.8555 Y0.8349 
G01 X1.8555 Y0.8311 
G01 X1.8555 Y0.6122 
G01 X1.8387 Y0.5954 
G01 X1.8387 Y0.5610 
G01 X1.8326 Y0.5635 
G01 X1.8074 Y0.5635 
G01 X1.7840 Y0.5538 
G01 X1.7662 Y0.5360 
G01 X1.7565 Y0.5126 
G01 X1.7565 Y0.4874 
G01 X1.7662 Y0.4640 
G01 X1.7840 Y0.4462 
G01 X1.8074 Y0.4365 
G01 X1.8326 Y0.4365 
G01 X1.8560 Y0.4462 
G01 X1.8738 Y0.4640 
G01 X1.8835 Y0.4874 
G00 Z0.1000 
G00 X1.4835 Y0.4874 
G01 Z-0.0070 F10.00 
G01 X1.4835 Y0.5126 F20.00 
G01 X1.4738 Y0.5360 
G01 X1.4560 Y0.5538 
G01 X1.4326 Y0.5635 
G01 X1.4074 Y0.5635 
G01 X1.3840 Y0.5538 
G01 X1.3662 Y0.5360 
G01 X1.3565 Y0.5126 
G01 X1.3565 Y0.4874 
G01 X1.3662 Y0.4640 
G01 X1.3840 Y0.4462 
G01 X1.4074 Y0.4365 
G01 X1.4326 Y0.4365 
G01 X1.4560 Y0.4462 
G01 X1.4738 Y0.4640 
G01 X1.4835 Y0.4874 
G00 Z0.1000 
G00 X1.8835 Y0.3274 
G01 Z-0.0070 F10.00 
G01 X1.8835 Y0.3526 F20.00 
G01 X1.8738 Y0.3760 
G01 X1.8560 Y0.3938 
G01 X1.8326 Y0.4035 
G01 X1.8074 Y0.4035 
G01 X1.7840 Y0.3938 
G01 X1.7662 Y0.3760 
G01 X1.7565 Y0.3526 
G01 X1.7565 Y0.3274 
G01 X1.7662 Y0.3040 
G01 X1.7840 Y0.2862 
G01 X1.8074 Y0.2765 
G01 X1.8326 Y0.2765 
G01 X1.8560 Y0.2862 
G01 X1.8738 Y0.3040 
G01 X1.8835 Y0.3274 
G00 Z0.1000 
G00 X1.4835 Y0.3274 
G01 Z-0.0070 F10.00 
G01 X1.4835 Y0.3526 F20.00 
G01 X1.4738 Y0.3760 
G01 X1.4560 Y0.3938 
G01 X1.4326 Y0.4035 
G01 X1.4074 Y0.4035 
G01 X1.3840 Y0.3938 
G01 X1.3662 Y0.3760 
G01 X1.3565 Y0.3526 
G01 X1.3565 Y0.3274 
G01 X1.3662 Y0.3040 
G01 X1.3840 Y0.2862 
G01 X1.4074 Y0.2765 
G01 X1.4326 Y0.2765 
G01 X1.4560 Y0.2862 
G01 X1.4738 Y0.3040 
G01 X1.4835 Y0.3274 
G00 Z0.1000 
G00 X2.0735 Y0.2474 
G01 Z-0.0070 F10.00 
G01 X2.0735 Y0.2726 F20.00 
G01 X2.0638 Y0.2960 
G01 X2.0460 Y0.3138 
G01 X2.0226 Y0.3235 
G01 X1.9974 Y0.3235 
G01 X1.9740 Y0.3138 
G01 X1.9562 Y0.2960 
G01 X1.9465 Y0.2726 
G01 X1.9465 Y0.2474 
G01 X1.9562 Y0.2240 
G01 X1.9740 Y0.2062 
G01 X1.9974 Y0.1965 
G01 X2.0226 Y0.1965 
G01 X2.0460 Y0.2062 
G01 X2.0638 Y0.2240 
G01 X2.0735 Y0.2474 
G00 Z0.1000 
G00 X2.0735 Y0.6474 
G01 Z-0.0070 F10.00 
G01 X2.0735 Y0.6726 F20.00 
G01 X2.0638 Y0.6960 
G01 X2.0460 Y0.7138 
G01 X2.0226 Y0.7235 
G01 X1.9974 Y0.7235 
G01 X1.9740 Y0.7138 
G01 X1.9562 Y0.6960 
G01 X1.9465 Y0.6726 
G01 X1.9465 Y0.6474 
G01 X1.9562 Y0.6240 
G01 X1.9740 Y0.6062 
G01 X1.9974 Y0.5965 
G01 X2.0226 Y0.5965 
G01 X2.0460 Y0.6062 
G01 X2.0638 Y0.6240 
G01 X2.0735 Y0.6474 
G00 Z0.1000 
G00 X3.2175 Y1.5862 
G01 Z-0.0070 F10.00 
G01 X3.2175 Y1.6338 F20.00 
G01 X3.1838 Y1.6675 
G01 X3.1362 Y1.6675 
G01 X3.1025 Y1.6338 
G01 X3.1025 Y1.5862 
G01 X3.1362 Y1.5525 
G01 X3.1838 Y1.5525 
G01 X3.2175 Y1.5862 
G00 Z0.1000 
G00 X1.0184 Y1.4675 
G01 Z-0.0070 F10.00 
G01 X0.8816 Y1.4675 F20.00 
G01 X0.8604 Y1.4587 
G01 X0.8443 Y1.4426 
G01 X0.8355 Y1.4214 
G01 X0.8355 Y1.3986 
G01 X0.8443 Y1.3774 
G01 X0.8604 Y1.3613 
G01 X0.8635 Y1.3600 
G01 X0.8604 Y1.3587 
G01 X0.8443 Y1.3426 
G01 X0.8355 Y1.3214 
G01 X0.8355 Y1.2986 
G01 X0.8443 Y1.2774 
G01 X0.8604 Y1.2613 
G01 X0.8635 Y1.2600 
G01 X0.8604 Y1.2587 
G01 X0.8443 Y1.2426 
G01 X0.8355 Y1.2214 
G01 X0.8355 Y1.1986 
G01 X0.8443 Y1.1774 
G01 X0.8604 Y1.1613 
G01 X0.8635 Y1.1600 
G01 X0.8604 Y1.1587 
G01 X0.8443 Y1.1426 
G01 X0.8355 Y1.1214 
G01 X0.8355 Y1.0986 
G01 X0.8443 Y1.0774 
G01 X0.8604 Y1.0613 
G01 X0.8635 Y1.0600 
G01 X0.8604 Y1.0587 
G01 X0.8443 Y1.0426 
G01 X0.8355 Y1.0214 
G01 X0.8355 Y0.9986 
G01 X0.8443 Y0.9774 
G01 X0.8604 Y0.9613 
G01 X0.8635 Y0.9600 
G01 X0.8604 Y0.9587 
G01 X0.8443 Y0.9426 
G01 X0.8355 Y0.9214 
G01 X0.8355 Y0.8986 
G01 X0.8443 Y0.8774 
G01 X0.8604 Y0.8613 
G01 X0.8635 Y0.8600 
G01 X0.8604 Y0.8587 
G01 X0.8443 Y0.8426 
G01 X0.8355 Y0.8214 
G01 X0.8355 Y0.7986 
G01 X0.8443 Y0.7774 
G01 X0.8604 Y0.7613 
G01 X0.8816 Y0.7525 
G01 X1.0184 Y0.7525 
G01 X1.0396 Y0.7613 
G01 X1.0557 Y0.7774 
G01 X1.0645 Y0.7986 
G01 X1.0645 Y0.8214 
G01 X1.0557 Y0.8426 
G01 X1.0396 Y0.8587 
G01 X1.0365 Y0.8600 
G01 X1.0396 Y0.8613 
G01 X1.0557 Y0.8774 
G01 X1.0645 Y0.8986 
G01 X1.0645 Y0.9214 
G01 X1.0557 Y0.9426 
G01 X1.0396 Y0.9587 
G01 X1.0365 Y0.9600 
G01 X1.0396 Y0.9613 
G01 X1.0557 Y0.9774 
G01 X1.0645 Y0.9986 
G01 X1.0645 Y1.0214 
G01 X1.0557 Y1.0426 
G01 X1.0396 Y1.0587 
G01 X1.0365 Y1.0600 
G01 X1.0396 Y1.0613 
G01 X1.0557 Y1.0774 
G01 X1.0645 Y1.0986 
G01 X1.0645 Y1.1214 
G01 X1.0557 Y1.1426 
G01 X1.0396 Y1.1587 
G01 X1.0365 Y1.1600 
G01 X1.0396 Y1.1613 
G01 X1.0557 Y1.1774 
G01 X1.0645 Y1.1986 
G01 X1.0645 Y1.2214 
G01 X1.0557 Y1.2426 
G01 X1.0396 Y1.2587 
G01 X1.0365 Y1.2600 
G01 X1.0396 Y1.2613 
G01 X1.0557 Y1.2774 
G01 X1.0645 Y1.2986 
G01 X1.0645 Y1.3214 
G01 X1.0557 Y1.3426 
G01 X1.0396 Y1.3587 
G01 X1.0365 Y1.3600 
G01 X1.0396 Y1.3613 
G01 X1.0557 Y1.3774 
G01 X1.0645 Y1.3986 
G01 X1.0645 Y1.4214 
G01 X1.0557 Y1.4426 
G01 X1.0396 Y1.4587 
G01 X1.0184 Y1.4675 
G00 Z0.1000 
G00 X3.0075 Y1.1062 
G01 Z-0.0070 F10.00 
G01 X3.0075 Y1.1538 F20.00 
G01 X2.9738 Y1.1875 
G01 X2.9262 Y1.1875 
G01 X2.8925 Y1.1538 
G01 X2.8925 Y1.1062 
G01 X2.9262 Y1.0725 
G01 X2.9738 Y1.0725 
G01 X3.0075 Y1.1062 
G00 Z0.1000 
G00 X3.0075 Y1.3062 
G01 Z-0.0070 F10.00 
G01 X3.0075 Y1.3538 F20.00 
G01 X2.9738 Y1.3875 
G01 X2.9352 Y1.3875 
G01 X2.9526 Y1.4049 
G01 X2.9620 Y1.4277 
G01 X2.9620 Y1.4523 
G01 X2.9526 Y1.4751 
G01 X2.9351 Y1.4926 
G01 X2.9123 Y1.5020 
G01 X2.8877 Y1.5020 
G01 X2.8649 Y1.4926 
G01 X2.8474 Y1.4751 
G01 X2.8380 Y1.4523 
G01 X2.8380 Y1.4277 
G01 X2.8474 Y1.4049 
G01 X2.8649 Y1.3874 
G01 X2.8877 Y1.3780 
G01 X2.9123 Y1.3780 
G01 X2.9198 Y1.3811 
G01 X2.8925 Y1.3538 
G01 X2.8925 Y1.3062 
G01 X2.9262 Y1.2725 
G01 X2.9738 Y1.2725 
G01 X3.0075 Y1.3062 
G00 Z0.1000 
G00 X1.8275 Y1.1762 
G01 Z-0.0070 F10.00 
G01 X1.8275 Y1.2238 F20.00 
G01 X1.7938 Y1.2575 
G01 X1.7462 Y1.2575 
G01 X1.7125 Y1.2238 
G01 X1.7125 Y1.1762 
G01 X1.7462 Y1.1425 
G01 X1.7938 Y1.1425 
G01 X1.8275 Y1.1762 
G00 Z0.1000 
G00 X1.8275 Y1.6762 
G01 Z-0.0070 F10.00 
G01 X1.8275 Y1.7238 F20.00 
G01 X1.7938 Y1.7575 
G01 X1.7462 Y1.7575 
G01 X1.7125 Y1.7238 
G01 X1.7125 Y1.6762 
G01 X1.7462 Y1.6425 
G01 X1.7938 Y1.6425 
G01 X1.8275 Y1.6762 
G00 Z0.1000 
G00 X2.0575 Y1.8862 
G01 Z-0.0070 F10.00 
G01 X2.0575 Y1.9338 F20.00 
G01 X2.0238 Y1.9675 
G01 X1.9762 Y1.9675 
G01 X1.9425 Y1.9338 
G01 X1.9425 Y1.8862 
G01 X1.9762 Y1.8525 
G01 X2.0238 Y1.8525 
G01 X2.0575 Y1.8862 
G00 Z0.1000 
G00 X1.5575 Y1.8862 
G01 Z-0.0070 F10.00 
G01 X1.5575 Y1.9338 F20.00 
G01 X1.5238 Y1.9675 
G01 X1.4762 Y1.9675 
G01 X1.4425 Y1.9338 
G01 X1.4425 Y1.8862 
G01 X1.4762 Y1.8525 
G01 X1.5238 Y1.8525 
G01 X1.5575 Y1.8862 
G00 Z0.1000 
G00 X2.3620 Y1.4143 
G01 Z-0.0070 F10.00 
G01 X2.3620 Y1.4657 F20.00 
G01 X2.3257 Y1.5020 
G01 X2.2743 Y1.5020 
G01 X2.2695 Y1.4972 
G01 X2.2545 Y1.5122 
G01 X2.2545 Y1.6978 
G01 X2.2713 Y1.7146 
G01 X2.2713 Y1.7654 
G01 X2.2354 Y1.8013 
G01 X2.1846 Y1.8013 
G01 X2.1487 Y1.7654 
G01 X2.1487 Y1.7146 
G01 X2.1655 Y1.6978 
G01 X2.1655 Y1.5122 
G01 X2.1487 Y1.4954 
G01 X2.1487 Y1.4446 
G01 X2.1846 Y1.4087 
G01 X2.2354 Y1.4087 
G01 X2.2395 Y1.4128 
G01 X2.2743 Y1.3780 
G01 X2.3257 Y1.3780 
G01 X2.3620 Y1.4143 
G00 Z0.1000 
G00 X0.8220 Y1.8477 
G01 Z-0.0070 F10.00 
G01 X0.8220 Y1.8723 F20.00 
G01 X0.8126 Y1.8951 
G01 X0.7951 Y1.9126 
G01 X0.7723 Y1.9220 
G01 X0.7477 Y1.9220 
G01 X0.7249 Y1.9126 
G01 X0.7074 Y1.8951 
G01 X0.6980 Y1.8723 
G01 X0.6980 Y1.8477 
G01 X0.7074 Y1.8249 
G01 X0.7249 Y1.8074 
G01 X0.7477 Y1.7980 
G01 X0.7723 Y1.7980 
G01 X0.7951 Y1.8074 
G01 X0.8126 Y1.8249 
G01 X0.8220 Y1.8477 
G00 Z0.1000 
G00 X1.4220 Y1.8343 
G01 Z-0.0070 F10.00 
G01 X1.4220 Y1.8857 F20.00 
G01 X1.3857 Y1.9220 
G01 X1.3343 Y1.9220 
G01 X1.2980 Y1.8857 
G01 X1.2980 Y1.8343 
G01 X1.3343 Y1.7980 
G01 X1.3857 Y1.7980 
G01 X1.4220 Y1.8343 
G00 Z0.1000 
G00 X2.5763 Y0.8825 
G01 Z-0.0070 F10.00 
G01 X2.5763 Y0.9375 F20.00 
G01 X2.5375 Y0.9763 
G01 X2.4825 Y0.9763 
G01 X2.4437 Y0.9375 
G01 X2.4437 Y0.8825 
G01 X2.4605 Y0.8657 
G01 X2.4605 Y0.5043 
G01 X2.4437 Y0.4875 
G01 X2.4437 Y0.4325 
G01 X2.4825 Y0.3937 
G01 X2.5375 Y0.3937 
G01 X2.5763 Y0.4325 
G01 X2.5763 Y0.4875 
G01 X2.5595 Y0.5043 
G01 X2.5595 Y0.8657 
G01 X2.5763 Y0.8825 
G00 Z0.1000 
G00 X2.3659 Y1.8025 
G01 Z-0.0070 F10.00 
G01 X2.3141 Y1.8025 F20.00 
G01 X2.2775 Y1.7659 
G01 X2.2775 Y1.7141 
G01 X2.3141 Y1.6775 
G01 X2.3275 Y1.6775 
G01 X2.3275 Y1.6391 
G01 X2.3641 Y1.6025 
G01 X2.4159 Y1.6025 
G01 X2.4525 Y1.6391 
G01 X2.4525 Y1.6775 
G01 X2.4659 Y1.6775 
G01 X2.5025 Y1.7141 
G01 X2.5025 Y1.7659 
G01 X2.4659 Y1.8025 
G01 X2.4141 Y1.8025 
G01 X2.3900 Y1.7784 
G01 X2.3659 Y1.8025 
G00 Z0.1000 
G00 X2.7325 Y1.7941 
G01 Z-0.0070 F10.00 
G01 X2.7325 Y1.8459 F20.00 
G01 X2.6959 Y1.8825 
G01 X2.6441 Y1.8825 
G01 X2.6075 Y1.8459 
G01 X2.6075 Y1.7941 
G01 X2.6316 Y1.7700 
G01 X2.6075 Y1.7459 
G01 X2.6075 Y1.6941 
G01 X2.6316 Y1.6700 
G01 X2.5975 Y1.6359 
G01 X2.5975 Y1.5841 
G01 X2.6341 Y1.5475 
G01 X2.6859 Y1.5475 
G01 X2.7225 Y1.5841 
G01 X2.7225 Y1.6359 
G01 X2.6984 Y1.6600 
G01 X2.7325 Y1.6941 
G01 X2.7325 Y1.7459 
G01 X2.7084 Y1.7700 
G01 X2.7325 Y1.7941 
G00 Z0.1000 
G00 X2.7325 Y1.2241 
G01 Z-0.0070 F10.00 
G01 X2.7325 Y1.2759 F20.00 
G01 X2.6959 Y1.3125 
G01 X2.6441 Y1.3125 
G01 X2.6075 Y1.2759 
G01 X2.6075 Y1.2241 
G01 X2.6441 Y1.1875 
G01 X2.6959 Y1.1875 
G01 X2.7325 Y1.2241 
G00 Z0.1000 
G00 X2.7325 Y0.7241 
G01 Z-0.0070 F10.00 
G01 X2.7325 Y0.7759 F20.00 
G01 X2.6959 Y0.8125 
G01 X2.6441 Y0.8125 
G01 X2.6075 Y0.7759 
G01 X2.6075 Y0.7241 
G01 X2.6441 Y0.6875 
G01 X2.6959 Y0.6875 
G01 X2.7325 Y0.7241 
G00 Z0.1000 
G00 X1.8125 Y0.6341 
G01 Z-0.0070 F10.00 
G01 X1.8125 Y0.6859 F20.00 
G01 X1.7759 Y0.7225 
G01 X1.7241 Y0.7225 
G01 X1.6875 Y0.6859 
G01 X1.6875 Y0.6341 
G01 X1.7241 Y0.5975 
G01 X1.7759 Y0.5975 
G01 X1.8125 Y0.6341 
G00 Z0.1000 
G00 X1.6125 Y0.6341 
