(.../Documents/src/pcbgcode/pcb-gcode.ulp)
(Copyright 2005 - 2009 by John Johnson)
(See readme.txt for licensing terms.)
(This file generated from the board:)
(.../pcbgcode/docs/examples/enabtmr.brd)
(Current profile is .../pcbgcode/profiles/generic.pp  )
(This file generated 2/8/09 5:08 PM)
G20
(Absolute Coordinates)
G90
G00 X0.0000 Y0.0000 
M03
G04 P3.000000
G00 Z0.1000 
G00 X-0.4305 Y0.2842 
G01 Z-0.0070 F10.00 
G01 X-0.4305 Y0.2842 F20.00 
G01 X-0.4426 Y0.2550 
G01 X-0.4650 Y0.2326 
G01 X-0.4942 Y0.2205 
G01 X-0.5041 Y0.2205 
G01 X-0.5100 Y0.2205 
G01 X-0.5159 Y0.2205 
G01 X-1.0400 Y0.2205 
G01 X-1.0440 Y0.2201 
G01 X-1.0514 Y0.2170 
G01 X-1.0570 Y0.2114 
G01 X-1.0601 Y0.2040 
G01 X-1.0605 Y0.2000 
G01 X-1.0605 Y0.1966 
G01 X-1.0605 Y0.1941 
G01 X-1.0605 Y0.1441 
G01 X-1.0605 Y0.1342 
G01 X-1.0726 Y0.1050 
G01 X-1.0950 Y0.0826 
G01 X-1.1242 Y0.0705 
G01 X-1.1341 Y0.0705 
G01 X-1.1393 Y0.0705 
G01 X-1.1400 Y0.0705 
G01 X-1.1459 Y0.0705 
G01 X-1.5941 Y0.0705 
G01 X-1.6000 Y0.0705 
G01 X-1.6036 Y0.0705 
G01 X-1.6059 Y0.0705 
G01 X-1.6158 Y0.0705 
G01 X-1.6450 Y0.0826 
G01 X-1.6674 Y0.1050 
G01 X-1.6795 Y0.1342 
G01 X-1.6795 Y0.1441 
G01 X-1.6795 Y0.1510 
G01 X-1.6795 Y0.1559 
G01 X-1.6795 Y0.8659 
G01 X-1.6795 Y0.8758 
G01 X-1.6674 Y0.9050 
G01 X-1.6450 Y0.9274 
G01 X-1.6158 Y0.9395 
G01 X-1.6059 Y0.9395 
G01 X-1.6000 Y0.9395 
G01 X-1.5941 Y0.9395 
G01 X-1.3376 Y0.9395 
G01 X-1.3311 Y0.9460 
G01 X-1.3155 Y0.9525 
G01 X-1.1845 Y0.9525 
G01 X-1.1689 Y0.9460 
G01 X-1.1570 Y0.9341 
G01 X-1.1505 Y0.9185 
G01 X-1.1505 Y0.9015 
G01 X-1.1570 Y0.8859 
G01 X-1.1689 Y0.8740 
G01 X-1.1845 Y0.8675 
G01 X-1.3155 Y0.8675 
G01 X-1.3311 Y0.8740 
G01 X-1.3376 Y0.8805 
G01 X-1.5941 Y0.8805 
G01 X-1.6000 Y0.8805 
G01 X-1.6040 Y0.8801 
G01 X-1.6114 Y0.8770 
G01 X-1.6170 Y0.8714 
G01 X-1.6201 Y0.8640 
G01 X-1.6205 Y0.8600 
G01 X-1.6205 Y0.1559 
G01 X-1.6205 Y0.1510 
G01 X-1.6205 Y0.1500 
G01 X-1.6201 Y0.1460 
G01 X-1.6170 Y0.1386 
G01 X-1.6114 Y0.1330 
G01 X-1.6040 Y0.1299 
G01 X-1.6000 Y0.1295 
G01 X-1.5941 Y0.1295 
G01 X-1.1459 Y0.1295 
G01 X-1.1400 Y0.1295 
G01 X-1.1360 Y0.1299 
G01 X-1.1286 Y0.1330 
G01 X-1.1230 Y0.1386 
G01 X-1.1199 Y0.1460 
G01 X-1.1195 Y0.1500 
G01 X-1.1195 Y0.1941 
G01 X-1.1195 Y0.1967 
G01 X-1.1195 Y0.2059 
G01 X-1.1195 Y0.2158 
G01 X-1.1074 Y0.2450 
G01 X-1.0850 Y0.2674 
G01 X-1.0558 Y0.2795 
G01 X-1.0459 Y0.2795 
G01 X-0.5159 Y0.2795 
G01 X-0.5100 Y0.2795 
G01 X-0.5060 Y0.2799 
G01 X-0.4986 Y0.2830 
G01 X-0.4930 Y0.2886 
G01 X-0.4899 Y0.2960 
G01 X-0.4895 Y0.3000 
G01 X-0.4895 Y0.6541 
G01 X-0.4895 Y0.6551 
G01 X-0.4895 Y0.6659 
G01 X-0.4895 Y0.6758 
G01 X-0.4774 Y0.7050 
G01 X-0.4550 Y0.7274 
G01 X-0.4258 Y0.7395 
G01 X-0.4159 Y0.7395 
G01 X-0.4131 Y0.7395 
G01 X-0.4100 Y0.7395 
G01 X-0.4041 Y0.7395 
G01 X-0.3108 Y0.7395 
G01 X-0.3106 Y0.7399 
G01 X-0.2966 Y0.7540 
G01 X-0.2782 Y0.7616 
G01 X-0.1218 Y0.7616 
G01 X-0.1034 Y0.7540 
G01 X-0.0894 Y0.7399 
G01 X-0.0818 Y0.7215 
G01 X-0.0818 Y0.7016 
G01 X-0.0894 Y0.6833 
G01 X-0.1034 Y0.6692 
G01 X-0.1218 Y0.6616 
G01 X-0.2782 Y0.6616 
G01 X-0.2966 Y0.6692 
G01 X-0.3079 Y0.6805 
G01 X-0.4041 Y0.6805 
G01 X-0.4100 Y0.6805 
G01 X-0.4140 Y0.6801 
G01 X-0.4214 Y0.6770 
G01 X-0.4270 Y0.6714 
G01 X-0.4301 Y0.6640 
G01 X-0.4305 Y0.6600 
G01 X-0.4305 Y0.6551 
G01 X-0.4305 Y0.6541 
G01 X-0.4305 Y0.2941 
G01 X-0.4305 Y0.2842 
G00 Z0.1000 
G00 X-2.9205 Y1.7662 
G01 Z-0.0070 F10.00 
G01 X-2.9205 Y1.7662 F20.00 
G01 X-2.9311 Y1.7406 
G01 X-2.9506 Y1.7211 
G01 X-2.9762 Y1.7105 
G01 X-2.9841 Y1.7105 
G01 X-2.9896 Y1.7105 
G01 X-2.9900 Y1.7105 
G01 X-2.9959 Y1.7105 
G01 X-3.1100 Y1.7105 
G01 X-3.1140 Y1.7101 
G01 X-3.1214 Y1.7070 
G01 X-3.1270 Y1.7014 
G01 X-3.1301 Y1.6940 
G01 X-3.1305 Y1.6900 
G01 X-3.1305 Y1.6848 
G01 X-3.1305 Y1.6841 
G01 X-3.1305 Y1.6406 
G01 X-3.1175 Y1.6276 
G01 X-3.1175 Y1.5924 
G01 X-3.1305 Y1.5794 
G01 X-3.1305 Y0.9600 
G01 X-3.1301 Y0.9560 
G01 X-3.1270 Y0.9486 
G01 X-3.1214 Y0.9430 
G01 X-3.1140 Y0.9399 
G01 X-3.1100 Y0.9395 
G01 X-3.1055 Y0.9395 
G01 X-3.1041 Y0.9395 
G01 X-2.5460 Y0.9395 
G01 X-2.5292 Y0.9563 
G01 X-2.4908 Y0.9563 
G01 X-2.4740 Y0.9395 
G01 X-2.1659 Y0.9395 
G01 X-2.1600 Y0.9395 
G01 X-2.1560 Y0.9399 
G01 X-2.1486 Y0.9430 
G01 X-2.1430 Y0.9486 
G01 X-2.1399 Y0.9560 
G01 X-2.1395 Y0.9600 
G01 X-2.1395 Y1.0659 
G01 X-2.1395 Y1.2778 
G01 X-2.1422 Y1.2805 
G01 X-2.1724 Y1.2805 
G01 X-2.1789 Y1.2740 
G01 X-2.1945 Y1.2675 
G01 X-2.3255 Y1.2675 
G01 X-2.3411 Y1.2740 
G01 X-2.3530 Y1.2859 
G01 X-2.3595 Y1.3015 
G01 X-2.3595 Y1.3185 
G01 X-2.3530 Y1.3341 
G01 X-2.3411 Y1.3460 
G01 X-2.3255 Y1.3525 
G01 X-2.1945 Y1.3525 
G01 X-2.1789 Y1.3460 
G01 X-2.1724 Y1.3395 
G01 X-2.1241 Y1.3395 
G01 X-2.1202 Y1.3395 
G01 X-2.1020 Y1.3320 
G01 X-2.0880 Y1.3180 
G01 X-2.0805 Y1.2998 
G01 X-2.0805 Y1.2959 
G01 X-2.0805 Y1.2841 
G01 X-2.0805 Y1.0659 
G01 X-2.0805 Y1.0522 
G01 X-2.0678 Y1.0395 
G01 X-2.0476 Y1.0395 
G01 X-2.0411 Y1.0460 
G01 X-2.0255 Y1.0525 
G01 X-1.8945 Y1.0525 
G01 X-1.8789 Y1.0460 
G01 X-1.8670 Y1.0341 
G01 X-1.8605 Y1.0185 
G01 X-1.8605 Y1.0015 
G01 X-1.8670 Y0.9859 
G01 X-1.8789 Y0.9740 
G01 X-1.8945 Y0.9675 
G01 X-2.0255 Y0.9675 
G01 X-2.0411 Y0.9740 
G01 X-2.0476 Y0.9805 
G01 X-2.0741 Y0.9805 
G01 X-2.0805 Y0.9805 
G01 X-2.0805 Y0.9541 
G01 X-2.0805 Y0.9442 
G01 X-2.0926 Y0.9150 
G01 X-2.1150 Y0.8926 
G01 X-2.1442 Y0.8805 
G01 X-2.1541 Y0.8805 
G01 X-2.1588 Y0.8805 
G01 X-2.1600 Y0.8805 
G01 X-2.1659 Y0.8805 
G01 X-2.4740 Y0.8805 
G01 X-2.4908 Y0.8637 
G01 X-2.5292 Y0.8637 
G01 X-2.5460 Y0.8805 
G01 X-3.1041 Y0.8805 
G01 X-3.1055 Y0.8805 
G01 X-3.1159 Y0.8805 
G01 X-3.1258 Y0.8805 
G01 X-3.1550 Y0.8926 
G01 X-3.1774 Y0.9150 
G01 X-3.1895 Y0.9442 
G01 X-3.1895 Y0.9541 
G01 X-3.1895 Y1.5794 
G01 X-3.2025 Y1.5924 
G01 X-3.2025 Y1.6276 
G01 X-3.1895 Y1.6406 
G01 X-3.1895 Y1.6841 
G01 X-3.1895 Y1.6848 
G01 X-3.1895 Y1.6959 
G01 X-3.1895 Y1.7058 
G01 X-3.1774 Y1.7350 
G01 X-3.1550 Y1.7574 
G01 X-3.1258 Y1.7695 
G01 X-3.1159 Y1.7695 
G01 X-2.9959 Y1.7695 
G01 X-2.9900 Y1.7695 
G01 X-2.9879 Y1.7697 
G01 X-2.9842 Y1.7713 
G01 X-2.9813 Y1.7742 
G01 X-2.9797 Y1.7779 
G01 X-2.9795 Y1.7800 
G01 X-2.9795 Y1.8541 
G01 X-2.9795 Y1.8557 
G01 X-2.9795 Y1.8659 
G01 X-2.9795 Y1.8758 
G01 X-2.9674 Y1.9050 
G01 X-2.9450 Y1.9274 
G01 X-2.9158 Y1.9395 
G01 X-2.9059 Y1.9395 
G01 X-2.0959 Y1.9395 
G01 X-2.0841 Y1.9395 
G01 X-2.0306 Y1.9395 
G01 X-2.0176 Y1.9525 
G01 X-1.9824 Y1.9525 
G01 X-1.9694 Y1.9395 
G01 X-1.7700 Y1.9395 
G01 X-1.7660 Y1.9399 
G01 X-1.7586 Y1.9430 
G01 X-1.7530 Y1.9486 
G01 X-1.7499 Y1.9560 
G01 X-1.7495 Y1.9600 
G01 X-1.7495 Y1.9646 
G01 X-1.7495 Y1.9659 
G01 X-1.7495 Y2.0659 
G01 X-1.7495 Y2.0758 
G01 X-1.7374 Y2.1050 
G01 X-1.7150 Y2.1274 
G01 X-1.6858 Y2.1395 
G01 X-1.6759 Y2.1395 
G01 X-1.6703 Y2.1395 
G01 X-1.6700 Y2.1395 
G01 X-1.6641 Y2.1395 
G01 X-1.2541 Y2.1395 
G01 X-1.2442 Y2.1395 
G01 X-1.2150 Y2.1274 
G01 X-1.1926 Y2.1050 
G01 X-1.1805 Y2.0758 
G01 X-1.1805 Y2.0659 
G01 X-1.1805 Y2.0606 
G01 X-1.1805 Y2.0600 
G01 X-1.1805 Y2.0541 
G01 X-1.1805 Y1.9159 
G01 X-1.1805 Y1.9100 
G01 X-1.1801 Y1.9060 
G01 X-1.1770 Y1.8986 
G01 X-1.1714 Y1.8930 
G01 X-1.1640 Y1.8899 
G01 X-1.1600 Y1.8895 
G01 X-1.1557 Y1.8895 
G01 X-1.1541 Y1.8895 
G01 X-0.7970 Y1.8895 
G01 X-0.7866 Y1.8998 
G01 X-0.7693 Y1.9070 
G01 X-0.7506 Y1.9070 
G01 X-0.7334 Y1.8998 
G01 X-0.7230 Y1.8895 
G01 X-0.2657 Y1.8895 
G01 X-0.2556 Y1.8895 
G01 X-0.2251 Y1.8796 
G01 X-0.1992 Y1.8608 
G01 X-0.1830 Y1.8384 
G01 X-0.1218 Y1.8384 
G01 X-0.1034 Y1.8308 
G01 X-0.0894 Y1.8167 
G01 X-0.0818 Y1.7984 
G01 X-0.0818 Y1.7785 
G01 X-0.0894 Y1.7601 
G01 X-0.1034 Y1.7460 
G01 X-0.1218 Y1.7384 
G01 X-0.2782 Y1.7384 
G01 X-0.2966 Y1.7460 
G01 X-0.3106 Y1.7601 
G01 X-0.3182 Y1.7785 
G01 X-0.3182 Y1.7984 
G01 X-0.3106 Y1.8167 
G01 X-0.2969 Y1.8305 
G01 X-0.7230 Y1.8305 
G01 X-0.7334 Y1.8202 
G01 X-0.7506 Y1.8130 
G01 X-0.7693 Y1.8130 
G01 X-0.7866 Y1.8202 
G01 X-0.7970 Y1.8305 
G01 X-1.1541 Y1.8305 
G01 X-1.1557 Y1.8305 
G01 X-1.1659 Y1.8305 
G01 X-1.1758 Y1.8305 
G01 X-1.2050 Y1.8426 
G01 X-1.2274 Y1.8650 
G01 X-1.2395 Y1.8942 
G01 X-1.2395 Y1.9041 
G01 X-1.2395 Y1.9060 
G01 X-1.2395 Y1.9100 
G01 X-1.2395 Y1.9159 
G01 X-1.2395 Y2.0541 
G01 X-1.2395 Y2.0600 
G01 X-1.2399 Y2.0640 
G01 X-1.2430 Y2.0714 
G01 X-1.2486 Y2.0770 
G01 X-1.2560 Y2.0801 
G01 X-1.2600 Y2.0805 
G01 X-1.6641 Y2.0805 
G01 X-1.6700 Y2.0805 
G01 X-1.6740 Y2.0801 
G01 X-1.6814 Y2.0770 
G01 X-1.6870 Y2.0714 
G01 X-1.6901 Y2.0640 
G01 X-1.6905 Y2.0600 
G01 X-1.6905 Y1.9659 
G01 X-1.6905 Y1.9645 
G01 X-1.6905 Y1.9541 
G01 X-1.6905 Y1.9442 
G01 X-1.7026 Y1.9150 
G01 X-1.7250 Y1.8926 
G01 X-1.7542 Y1.8805 
G01 X-1.7641 Y1.8805 
G01 X-1.9694 Y1.8805 
G01 X-1.9824 Y1.8675 
G01 X-2.0176 Y1.8675 
G01 X-2.0306 Y1.8805 
G01 X-2.0605 Y1.8805 
G01 X-2.0605 Y1.7500 
G01 X-2.0601 Y1.7460 
G01 X-2.0570 Y1.7386 
G01 X-2.0514 Y1.7330 
G01 X-2.0440 Y1.7299 
G01 X-2.0400 Y1.7295 
G01 X-2.0352 Y1.7295 
G01 X-2.0341 Y1.7295 
G01 X-1.8006 Y1.7295 
G01 X-1.7876 Y1.7425 
G01 X-1.7524 Y1.7425 
G01 X-1.7394 Y1.7295 
G01 X-1.7341 Y1.7295 
G01 X-1.7282 Y1.7295 
G01 X-1.7063 Y1.7204 
G01 X-1.6896 Y1.7037 
G01 X-1.6805 Y1.6818 
G01 X-1.6805 Y1.6759 
G01 X-1.6805 Y1.5100 
G01 X-1.6801 Y1.5060 
G01 X-1.6770 Y1.4986 
G01 X-1.6714 Y1.4930 
G01 X-1.6640 Y1.4899 
G01 X-1.6600 Y1.4895 
G01 X-1.6577 Y1.4895 
G01 X-1.6541 Y1.4895 
G01 X-1.4659 Y1.4895 
G01 X-1.4600 Y1.4895 
G01 X-1.4567 Y1.4895 
G01 X-1.4541 Y1.4895 
G01 X-1.4442 Y1.4895 
G01 X-1.4150 Y1.4774 
G01 X-1.3926 Y1.4550 
G01 X-1.3847 Y1.4358 
G01 X-1.3758 Y1.4395 
G01 X-1.3659 Y1.4395 
G01 X-1.3596 Y1.4395 
G01 X-1.3541 Y1.4395 
G01 X-1.3376 Y1.4395 
G01 X-1.3311 Y1.4460 
G01 X-1.3155 Y1.4525 
G01 X-1.1845 Y1.4525 
G01 X-1.1689 Y1.4460 
G01 X-1.1570 Y1.4341 
G01 X-1.1505 Y1.4185 
G01 X-1.1505 Y1.4015 
G01 X-1.1570 Y1.3859 
G01 X-1.1689 Y1.3740 
G01 X-1.1845 Y1.3675 
G01 X-1.3155 Y1.3675 
G01 X-1.3311 Y1.3740 
G01 X-1.3376 Y1.3805 
G01 X-1.3541 Y1.3805 
G01 X-1.3596 Y1.3805 
G01 X-1.3600 Y1.3805 
G01 X-1.3640 Y1.3801 
G01 X-1.3714 Y1.3770 
G01 X-1.3770 Y1.3714 
G01 X-1.3801 Y1.3640 
G01 X-1.3805 Y1.3600 
G01 X-1.3805 Y1.2541 
G01 X-1.3805 Y1.2448 
G01 X-1.3805 Y1.2349 
G01 X-1.3875 Y1.2180 
G01 X-1.3875 Y1.1924 
G01 X-1.4124 Y1.1675 
G01 X-1.4476 Y1.1675 
G01 X-1.4725 Y1.1924 
G01 X-1.4725 Y1.2276 
G01 X-1.4476 Y1.2525 
G01 X-1.4395 Y1.2525 
G01 X-1.4395 Y1.2541 
G01 X-1.4395 Y1.4100 
G01 X-1.4399 Y1.4140 
G01 X-1.4430 Y1.4214 
G01 X-1.4486 Y1.4270 
G01 X-1.4560 Y1.4301 
G01 X-1.4600 Y1.4305 
G01 X-1.4659 Y1.4305 
G01 X-1.6541 Y1.4305 
G01 X-1.6577 Y1.4305 
G01 X-1.6659 Y1.4305 
G01 X-1.6758 Y1.4305 
G01 X-1.7050 Y1.4426 
G01 X-1.7274 Y1.4650 
G01 X-1.7395 Y1.4942 
G01 X-1.7395 Y1.5041 
G01 X-1.7395 Y1.6700 
G01 X-1.7396 Y1.6703 
G01 X-1.7524 Y1.6575 
G01 X-1.7876 Y1.6575 
G01 X-1.8004 Y1.6703 
G01 X-1.8012 Y1.6705 
G01 X-2.0341 Y1.6705 
G01 X-2.0352 Y1.6705 
G01 X-2.0459 Y1.6705 
G01 X-2.0558 Y1.6705 
G01 X-2.0850 Y1.6826 
G01 X-2.1074 Y1.7050 
G01 X-2.1195 Y1.7342 
G01 X-2.1195 Y1.7441 
G01 X-2.1195 Y1.8805 
G01 X-2.9000 Y1.8805 
G01 X-2.9040 Y1.8801 
G01 X-2.9114 Y1.8770 
G01 X-2.9170 Y1.8714 
G01 X-2.9201 Y1.8640 
G01 X-2.9205 Y1.8600 
G01 X-2.9205 Y1.8557 
G01 X-2.9205 Y1.8541 
G01 X-2.9205 Y1.7741 
G01 X-2.9205 Y1.7662 
G00 Z0.1000 
G00 X-0.5858 Y1.5705 
G01 Z-0.0070 F10.00 
G01 X-0.5858 Y1.5705 F20.00 
G01 X-0.6150 Y1.5826 
G01 X-0.6374 Y1.6050 
G01 X-0.6495 Y1.6342 
G01 X-0.6495 Y1.6441 
G01 X-0.6495 Y1.6500 
G01 X-0.6495 Y1.6559 
G01 X-0.6495 Y1.7200 
G01 X-0.6497 Y1.7220 
G01 X-0.6513 Y1.7258 
G01 X-0.6542 Y1.7287 
G01 X-0.6579 Y1.7303 
G01 X-0.6600 Y1.7305 
G01 X-1.3041 Y1.7305 
G01 X-1.3053 Y1.7305 
G01 X-1.3159 Y1.7305 
G01 X-1.3258 Y1.7305 
G01 X-1.3550 Y1.7426 
G01 X-1.3774 Y1.7650 
G01 X-1.3895 Y1.7942 
G01 X-1.3895 Y1.8041 
G01 X-1.3895 Y1.8230 
G01 X-1.4070 Y1.8405 
G01 X-1.4070 Y1.8795 
G01 X-1.3895 Y1.8970 
G01 X-1.3895 Y1.9541 
G01 X-1.3895 Y1.9590 
G01 X-1.3895 Y1.9600 
G01 X-1.3899 Y1.9640 
G01 X-1.3930 Y1.9714 
G01 X-1.3986 Y1.9770 
G01 X-1.4060 Y1.9801 
G01 X-1.4100 Y1.9805 
G01 X-1.4159 Y1.9805 
G01 X-1.5641 Y1.9805 
G01 X-1.5700 Y1.9805 
G01 X-1.5740 Y1.9801 
G01 X-1.5814 Y1.9770 
G01 X-1.5870 Y1.9714 
G01 X-1.5901 Y1.9640 
G01 X-1.5905 Y1.9600 
G01 X-1.5905 Y1.7959 
G01 X-1.5905 Y1.7741 
G01 X-1.5905 Y1.6359 
G01 X-1.5905 Y1.6300 
G01 X-1.5901 Y1.6260 
G01 X-1.5870 Y1.6186 
G01 X-1.5814 Y1.6130 
G01 X-1.5740 Y1.6099 
G01 X-1.5700 Y1.6095 
G01 X-1.5694 Y1.6095 
G01 X-1.5641 Y1.6095 
G01 X-1.1441 Y1.6095 
G01 X-1.1342 Y1.6095 
G01 X-1.1050 Y1.5974 
G01 X-1.0826 Y1.5750 
G01 X-1.0705 Y1.5458 
G01 X-1.0705 Y1.5359 
G01 X-1.0705 Y1.5304 
G01 X-1.0705 Y1.5300 
G01 X-1.0705 Y1.5241 
G01 X-1.0705 Y0.8600 
G01 X-1.0701 Y0.8560 
G01 X-1.0670 Y0.8486 
G01 X-1.0614 Y0.8430 
G01 X-1.0540 Y0.8399 
G01 X-1.0500 Y0.8395 
G01 X-1.0448 Y0.8395 
G01 X-1.0441 Y0.8395 
G01 X-1.0376 Y0.8395 
G01 X-1.0311 Y0.8460 
G01 X-1.0155 Y0.8525 
G01 X-0.8845 Y0.8525 
G01 X-0.8689 Y0.8460 
G01 X-0.8570 Y0.8341 
G01 X-0.8505 Y0.8185 
G01 X-0.8505 Y0.8015 
G01 X-0.8570 Y0.7859 
G01 X-0.8689 Y0.7740 
G01 X-0.8845 Y0.7675 
G01 X-1.0155 Y0.7675 
G01 X-1.0311 Y0.7740 
G01 X-1.0376 Y0.7805 
G01 X-1.0441 Y0.7805 
G01 X-1.0448 Y0.7805 
G01 X-1.0559 Y0.7805 
G01 X-1.0658 Y0.7805 
G01 X-1.0950 Y0.7926 
G01 X-1.1174 Y0.8150 
G01 X-1.1295 Y0.8442 
G01 X-1.1295 Y0.8541 
G01 X-1.1295 Y1.5241 
G01 X-1.1295 Y1.5300 
G01 X-1.1299 Y1.5340 
G01 X-1.1330 Y1.5414 
G01 X-1.1386 Y1.5470 
G01 X-1.1460 Y1.5501 
G01 X-1.1500 Y1.5505 
G01 X-1.5641 Y1.5505 
G01 X-1.5694 Y1.5505 
G01 X-1.5759 Y1.5505 
G01 X-1.5858 Y1.5505 
G01 X-1.6150 Y1.5626 
G01 X-1.6374 Y1.5850 
G01 X-1.6495 Y1.6142 
G01 X-1.6495 Y1.6241 
G01 X-1.6495 Y1.6299 
G01 X-1.6495 Y1.6359 
G01 X-1.6495 Y1.7605 
G01 X-1.9340 Y1.7605 
G01 X-1.9508 Y1.7437 
G01 X-1.9892 Y1.7437 
G01 X-2.0163 Y1.7708 
G01 X-2.0163 Y1.8092 
G01 X-1.9892 Y1.8363 
G01 X-1.9508 Y1.8363 
G01 X-1.9340 Y1.8195 
G01 X-1.6495 Y1.8195 
G01 X-1.6495 Y1.9659 
G01 X-1.6495 Y1.9758 
G01 X-1.6374 Y2.0050 
G01 X-1.6150 Y2.0274 
G01 X-1.5858 Y2.0395 
G01 X-1.5759 Y2.0395 
G01 X-1.5707 Y2.0395 
G01 X-1.5700 Y2.0395 
G01 X-1.5641 Y2.0395 
G01 X-1.4159 Y2.0395 
G01 X-1.4100 Y2.0395 
G01 X-1.4064 Y2.0395 
G01 X-1.4041 Y2.0395 
G01 X-1.3942 Y2.0395 
G01 X-1.3650 Y2.0274 
G01 X-1.3426 Y2.0050 
G01 X-1.3305 Y1.9758 
G01 X-1.3305 Y1.9659 
G01 X-1.3305 Y1.9590 
G01 X-1.3305 Y1.9541 
G01 X-1.3305 Y1.8970 
G01 X-1.3130 Y1.8795 
G01 X-1.3130 Y1.8405 
G01 X-1.3305 Y1.8230 
G01 X-1.3305 Y1.8100 
G01 X-1.3301 Y1.8060 
G01 X-1.3270 Y1.7986 
G01 X-1.3214 Y1.7930 
G01 X-1.3140 Y1.7899 
G01 X-1.3100 Y1.7895 
G01 X-1.3053 Y1.7895 
G01 X-1.3041 Y1.7895 
G01 X-0.6541 Y1.7895 
G01 X-0.6462 Y1.7895 
G01 X-0.6206 Y1.7789 
G01 X-0.6011 Y1.7594 
G01 X-0.5905 Y1.7338 
G01 X-0.5905 Y1.7259 
G01 X-0.5905 Y1.6559 
G01 X-0.5905 Y1.6500 
G01 X-0.5901 Y1.6460 
G01 X-0.5870 Y1.6386 
G01 X-0.5814 Y1.6330 
G01 X-0.5740 Y1.6299 
G01 X-0.5700 Y1.6295 
G01 X-0.3010 Y1.6295 
G01 X-0.2966 Y1.6340 
G01 X-0.2782 Y1.6416 
G01 X-0.1218 Y1.6416 
G01 X-0.1034 Y1.6340 
G01 X-0.0894 Y1.6199 
G01 X-0.0818 Y1.6015 
G01 X-0.0818 Y1.5816 
G01 X-0.0894 Y1.5633 
G01 X-0.1034 Y1.5492 
G01 X-0.1218 Y1.5416 
G01 X-0.2782 Y1.5416 
G01 X-0.2966 Y1.5492 
G01 X-0.3106 Y1.5633 
G01 X-0.3136 Y1.5705 
G01 X-0.5759 Y1.5705 
G01 X-0.5858 Y1.5705 
G00 Z0.1000 
G00 X-2.0255 Y1.2525 
G01 Z-0.0070 F10.00 
G01 X-1.8945 Y1.2525 F20.00 
G01 X-1.8789 Y1.2460 
G01 X-1.8670 Y1.2341 
G01 X-1.8651 Y1.2295 
G01 X-1.8006 Y1.2295 
G01 X-1.7995 Y1.2306 
G01 X-1.7995 Y1.2805 
G01 X-1.8041 Y1.2805 
G01 X-1.8159 Y1.2805 
G01 X-1.8267 Y1.2850 
G01 X-1.8350 Y1.2933 
G01 X-1.8395 Y1.3041 
G01 X-1.8395 Y1.5341 
G01 X-1.8395 Y1.5400 
G01 X-1.8397 Y1.5420 
G01 X-1.8413 Y1.5458 
G01 X-1.8442 Y1.5487 
G01 X-1.8480 Y1.5503 
G01 X-1.8500 Y1.5505 
G01 X-1.8559 Y1.5505 
G01 X-2.3341 Y1.5505 
G01 X-2.3358 Y1.5505 
G01 X-2.3459 Y1.5505 
G01 X-2.3558 Y1.5505 
G01 X-2.3850 Y1.5626 
G01 X-2.4074 Y1.5850 
G01 X-2.4195 Y1.6142 
G01 X-2.4195 Y1.6241 
G01 X-2.4195 Y1.6344 
G01 X-2.4325 Y1.6474 
G01 X-2.4325 Y1.6826 
G01 X-2.4076 Y1.7075 
G01 X-2.3724 Y1.7075 
G01 X-2.3475 Y1.6826 
G01 X-2.3475 Y1.6474 
G01 X-2.3605 Y1.6344 
G01 X-2.3605 Y1.6300 
G01 X-2.3601 Y1.6260 
G01 X-2.3570 Y1.6186 
G01 X-2.3514 Y1.6130 
G01 X-2.3440 Y1.6099 
G01 X-2.3400 Y1.6095 
G01 X-2.3358 Y1.6095 
G01 X-2.3341 Y1.6095 
G01 X-1.8559 Y1.6095 
G01 X-1.8441 Y1.6095 
G01 X-1.8362 Y1.6095 
G01 X-1.8106 Y1.5989 
G01 X-1.7911 Y1.5794 
G01 X-1.7805 Y1.5538 
G01 X-1.7805 Y1.5459 
G01 X-1.7805 Y1.5401 
G01 X-1.7805 Y1.5400 
G01 X-1.7805 Y1.5341 
G01 X-1.7805 Y1.3395 
G01 X-1.7759 Y1.3395 
G01 X-1.7641 Y1.3395 
G01 X-1.6459 Y1.3395 
G01 X-1.6341 Y1.3395 
G01 X-1.5391 Y1.3395 
G01 X-1.5275 Y1.3511 
G01 X-1.5096 Y1.3585 
G01 X-1.4904 Y1.3585 
G01 X-1.4725 Y1.3511 
G01 X-1.4589 Y1.3375 
G01 X-1.4515 Y1.3196 
G01 X-1.4515 Y1.3004 
G01 X-1.4589 Y1.2825 
G01 X-1.4725 Y1.2689 
G01 X-1.4904 Y1.2615 
G01 X-1.5096 Y1.2615 
G01 X-1.5275 Y1.2689 
G01 X-1.5391 Y1.2805 
G01 X-1.5937 Y1.2805 
G01 X-1.5937 Y1.2508 
G01 X-1.6208 Y1.2237 
G01 X-1.6592 Y1.2237 
G01 X-1.6863 Y1.2508 
G01 X-1.6863 Y1.2805 
G01 X-1.7405 Y1.2805 
G01 X-1.7405 Y1.2306 
G01 X-1.7275 Y1.2176 
G01 X-1.7275 Y1.1824 
G01 X-1.7524 Y1.1575 
G01 X-1.7876 Y1.1575 
G01 X-1.8006 Y1.1705 
G01 X-1.8873 Y1.1705 
G01 X-1.8945 Y1.1675 
G01 X-2.0255 Y1.1675 
G01 X-2.0411 Y1.1740 
G01 X-2.0530 Y1.1859 
G01 X-2.0595 Y1.2015 
G01 X-2.0595 Y1.2185 
G01 X-2.0530 Y1.2341 
G01 X-2.0411 Y1.2460 
G01 X-2.0255 Y1.2525 
G00 Z0.1000 
G00 X-2.0255 Y1.1525 
G01 Z-0.0070 F10.00 
G01 X-1.8945 Y1.1525 F20.00 
G01 X-1.8789 Y1.1460 
G01 X-1.8724 Y1.1395 
G01 X-1.8159 Y1.1395 
G01 X-1.8041 Y1.1395 
G01 X-1.3376 Y1.1395 
G01 X-1.3311 Y1.1460 
G01 X-1.3155 Y1.1525 
G01 X-1.1845 Y1.1525 
G01 X-1.1689 Y1.1460 
G01 X-1.1570 Y1.1341 
G01 X-1.1505 Y1.1185 
G01 X-1.1505 Y1.1015 
G01 X-1.1570 Y1.0859 
G01 X-1.1689 Y1.0740 
G01 X-1.1845 Y1.0675 
G01 X-1.3155 Y1.0675 
G01 X-1.3311 Y1.0740 
G01 X-1.3376 Y1.0805 
G01 X-1.7805 Y1.0805 
G01 X-1.7805 Y0.8741 
G01 X-1.7805 Y0.8642 
G01 X-1.7926 Y0.8350 
G01 X-1.8150 Y0.8126 
G01 X-1.8442 Y0.8005 
G01 X-1.8541 Y0.8005 
G01 X-1.8563 Y0.8005 
G01 X-1.8600 Y0.8005 
G01 X-1.8659 Y0.8005 
G01 X-2.2741 Y0.8005 
G01 X-2.2800 Y0.8005 
G01 X-2.2840 Y0.8001 
G01 X-2.2914 Y0.7970 
G01 X-2.2970 Y0.7914 
G01 X-2.3001 Y0.7840 
G01 X-2.3005 Y0.7800 
G01 X-2.3005 Y0.7541 
G01 X-2.3005 Y0.7502 
G01 X-2.3080 Y0.7320 
G01 X-2.3220 Y0.7180 
G01 X-2.3401 Y0.7105 
G01 X-2.3500 Y0.7105 
G01 X-2.3559 Y0.7105 
G01 X-2.6494 Y0.7105 
G01 X-2.6524 Y0.7075 
G01 X-2.6876 Y0.7075 
G01 X-2.7006 Y0.7205 
G01 X-2.8092 Y0.7205 
G01 X-2.8094 Y0.7201 
G01 X-2.8234 Y0.7060 
G01 X-2.8418 Y0.6984 
G01 X-2.9982 Y0.6984 
G01 X-3.0166 Y0.7060 
G01 X-3.0306 Y0.7201 
G01 X-3.0382 Y0.7385 
G01 X-3.0382 Y0.7584 
G01 X-3.0306 Y0.7767 
G01 X-3.0166 Y0.7908 
G01 X-2.9982 Y0.7984 
G01 X-2.8418 Y0.7984 
G01 X-2.8234 Y0.7908 
G01 X-2.8121 Y0.7795 
G01 X-2.7006 Y0.7795 
G01 X-2.6876 Y0.7925 
G01 X-2.6524 Y0.7925 
G01 X-2.6294 Y0.7695 
G01 X-2.3595 Y0.7695 
G01 X-2.3595 Y0.7859 
G01 X-2.3595 Y0.7958 
G01 X-2.3474 Y0.8250 
G01 X-2.3250 Y0.8474 
G01 X-2.2958 Y0.8595 
G01 X-2.2859 Y0.8595 
G01 X-2.2807 Y0.8595 
G01 X-2.2800 Y0.8595 
G01 X-2.2741 Y0.8595 
G01 X-1.8659 Y0.8595 
G01 X-1.8600 Y0.8595 
G01 X-1.8560 Y0.8599 
G01 X-1.8486 Y0.8630 
G01 X-1.8430 Y0.8686 
G01 X-1.8399 Y0.8760 
G01 X-1.8395 Y0.8800 
G01 X-1.8395 Y1.0805 
G01 X-1.8724 Y1.0805 
G01 X-1.8789 Y1.0740 
G01 X-1.8945 Y1.0675 
G01 X-2.0255 Y1.0675 
G01 X-2.0411 Y1.0740 
G01 X-2.0530 Y1.0859 
G01 X-2.0595 Y1.1015 
G01 X-2.0595 Y1.1185 
G01 X-2.0530 Y1.1341 
G01 X-2.0411 Y1.1460 
G01 X-2.0255 Y1.1525 
G00 Z0.1000 
G00 X-1.5485 Y1.7004 
G01 Z-0.0070 F10.00 
G01 X-1.5485 Y1.7196 F20.00 
G01 X-1.5411 Y1.7375 
G01 X-1.5295 Y1.7491 
G01 X-1.5295 Y1.8794 
G01 X-1.5425 Y1.8924 
G01 X-1.5425 Y1.9276 
G01 X-1.5176 Y1.9525 
G01 X-1.4824 Y1.9525 
G01 X-1.4575 Y1.9276 
G01 X-1.4575 Y1.8924 
G01 X-1.4705 Y1.8794 
G01 X-1.4705 Y1.7491 
G01 X-1.4589 Y1.7375 
G01 X-1.4515 Y1.7196 
G01 X-1.4515 Y1.7004 
G01 X-1.4519 Y1.6995 
G01 X-1.4517 Y1.6995 
G01 X-1.4474 Y1.7000 
G01 X-1.4458 Y1.6995 
G01 X-0.7759 Y1.6995 
G01 X-0.7700 Y1.6995 
G01 X-0.7665 Y1.6995 
G01 X-0.7641 Y1.6995 
G01 X-0.7542 Y1.6995 
G01 X-0.7250 Y1.6874 
G01 X-0.7026 Y1.6650 
G01 X-0.6905 Y1.6358 
G01 X-0.6905 Y1.6259 
G01 X-0.6905 Y1.5406 
G01 X-0.6775 Y1.5276 
G01 X-0.6775 Y1.4924 
G01 X-0.7024 Y1.4675 
G01 X-0.7376 Y1.4675 
G01 X-0.7625 Y1.4924 
G01 X-0.7625 Y1.5276 
G01 X-0.7495 Y1.5406 
G01 X-0.7495 Y1.6200 
G01 X-0.7499 Y1.6240 
G01 X-0.7530 Y1.6314 
G01 X-0.7586 Y1.6370 
G01 X-0.7660 Y1.6401 
G01 X-0.7700 Y1.6405 
G01 X-0.7759 Y1.6405 
G01 X-1.4484 Y1.6405 
G01 X-1.4615 Y1.6390 
G01 X-1.4901 Y1.6473 
G01 X-1.5078 Y1.6615 
G01 X-1.5096 Y1.6615 
G01 X-1.5275 Y1.6689 
G01 X-1.5411 Y1.6825 
G01 X-1.5485 Y1.7004 
G00 Z0.1000 
G00 X-2.0585 Y0.2504 
G01 Z-0.0070 F10.00 
G01 X-2.0585 Y0.2696 F20.00 
G01 X-2.0511 Y0.2875 
G01 X-2.0395 Y0.2991 
G01 X-2.0395 Y0.3058 
G01 X-2.0274 Y0.3350 
G01 X-2.0050 Y0.3574 
G01 X-1.9758 Y0.3695 
G01 X-1.9659 Y0.3695 
G01 X-1.8591 Y0.3695 
G01 X-1.8495 Y0.3791 
G01 X-1.8495 Y0.4609 
G01 X-1.8591 Y0.4705 
G01 X-1.8658 Y0.4705 
G01 X-1.8950 Y0.4826 
G01 X-1.9174 Y0.5050 
G01 X-1.9294 Y0.5339 
G01 X-1.9463 Y0.5508 
G01 X-1.9463 Y0.5892 
G01 X-1.9192 Y0.6163 
G01 X-1.8808 Y0.6163 
G01 X-1.8537 Y0.5892 
G01 X-1.8537 Y0.5508 
G01 X-1.8665 Y0.5380 
G01 X-1.8614 Y0.5330 
G01 X-1.8573 Y0.5313 
G01 X-1.8475 Y0.5411 
G01 X-1.8296 Y0.5485 
G01 X-1.8104 Y0.5485 
G01 X-1.7925 Y0.5411 
G01 X-1.7789 Y0.5275 
G01 X-1.7715 Y0.5096 
G01 X-1.7715 Y0.4904 
G01 X-1.7789 Y0.4725 
G01 X-1.7905 Y0.4609 
G01 X-1.7905 Y0.3791 
G01 X-1.7789 Y0.3675 
G01 X-1.7715 Y0.3496 
G01 X-1.7715 Y0.3304 
G01 X-1.7789 Y0.3125 
G01 X-1.7925 Y0.2989 
G01 X-1.8104 Y0.2915 
G01 X-1.8296 Y0.2915 
G01 X-1.8475 Y0.2989 
G01 X-1.8591 Y0.3105 
G01 X-1.9600 Y0.3105 
G01 X-1.9640 Y0.3101 
G01 X-1.9714 Y0.3070 
G01 X-1.9770 Y0.3014 
G01 X-1.9787 Y0.2973 
G01 X-1.9689 Y0.2875 
G01 X-1.9615 Y0.2696 
G01 X-1.9615 Y0.2504 
G01 X-1.9689 Y0.2325 
G01 X-1.9825 Y0.2189 
G01 X-2.0004 Y0.2115 
G01 X-2.0196 Y0.2115 
G01 X-2.0375 Y0.2189 
G01 X-2.0511 Y0.2325 
G01 X-2.0585 Y0.2504 
G00 Z0.1000 
G00 X-1.0155 Y1.3525 
G01 Z-0.0070 F10.00 
G01 X-0.8845 Y1.3525 F20.00 
G01 X-0.8689 Y1.3460 
G01 X-0.8624 Y1.3395 
G01 X-0.7506 Y1.3395 
G01 X-0.7376 Y1.3525 
G01 X-0.7024 Y1.3525 
G01 X-0.6775 Y1.3276 
G01 X-0.6775 Y1.2924 
G01 X-0.7024 Y1.2675 
G01 X-0.7376 Y1.2675 
G01 X-0.7506 Y1.2805 
G01 X-0.8624 Y1.2805 
G01 X-0.8689 Y1.2740 
G01 X-0.8845 Y1.2675 
G01 X-1.0155 Y1.2675 
G01 X-1.0311 Y1.2740 
G01 X-1.0430 Y1.2859 
G01 X-1.0495 Y1.3015 
G01 X-1.0495 Y1.3185 
G01 X-1.0430 Y1.3341 
G01 X-1.0311 Y1.3460 
G01 X-1.0155 Y1.3525 
G00 Z0.1000 
G00 X-1.0155 Y0.9525 
G01 Z-0.0070 F10.00 
G01 X-0.8845 Y0.9525 F20.00 
G01 X-0.8689 Y0.9460 
G01 X-0.8624 Y0.9395 
G01 X-0.8359 Y0.9395 
G01 X-0.8339 Y0.9395 
G01 X-0.8241 Y0.9395 
G01 X-0.8142 Y0.9395 
G01 X-0.7850 Y0.9274 
G01 X-0.7626 Y0.9050 
G01 X-0.7505 Y0.8758 
G01 X-0.7505 Y0.8659 
G01 X-0.7505 Y0.5706 
G01 X-0.7375 Y0.5576 
G01 X-0.7375 Y0.5224 
G01 X-0.7624 Y0.4975 
G01 X-0.7976 Y0.4975 
G01 X-0.8225 Y0.5224 
G01 X-0.8225 Y0.5576 
G01 X-0.8095 Y0.5706 
G01 X-0.8095 Y0.8600 
G01 X-0.8099 Y0.8640 
G01 X-0.8130 Y0.8714 
G01 X-0.8186 Y0.8770 
G01 X-0.8260 Y0.8801 
G01 X-0.8300 Y0.8805 
G01 X-0.8340 Y0.8805 
G01 X-0.8359 Y0.8805 
G01 X-0.8624 Y0.8805 
G01 X-0.8689 Y0.8740 
G01 X-0.8845 Y0.8675 
G01 X-1.0155 Y0.8675 
G01 X-1.0311 Y0.8740 
G01 X-1.0430 Y0.8859 
G01 X-1.0495 Y0.9015 
G01 X-1.0495 Y0.9185 
G01 X-1.0430 Y0.9341 
G01 X-1.0311 Y0.9460 
G01 X-1.0155 Y0.9525 
G00 Z0.1000 
G00 X-1.3155 Y1.2525 
G01 Z-0.0070 F10.00 
G01 X-1.1845 Y1.2525 F20.00 
G01 X-1.1689 Y1.2460 
G01 X-1.1570 Y1.2341 
G01 X-1.1505 Y1.2185 
G01 X-1.1505 Y1.2015 
G01 X-1.1570 Y1.1859 
G01 X-1.1689 Y1.1740 
G01 X-1.1845 Y1.1675 
G01 X-1.3155 Y1.1675 
G01 X-1.3311 Y1.1740 
G01 X-1.3430 Y1.1859 
G01 X-1.3495 Y1.2015 
G01 X-1.3495 Y1.2185 
G01 X-1.3430 Y1.2341 
G01 X-1.3311 Y1.2460 
G01 X-1.3155 Y1.2525 
G00 Z0.1000 
G00 X-1.3155 Y1.3525 
G01 Z-0.0070 F10.00 
G01 X-1.1845 Y1.3525 F20.00 
G01 X-1.1689 Y1.3460 
G01 X-1.1570 Y1.3341 
G01 X-1.1505 Y1.3185 
G01 X-1.1505 Y1.3015 
G01 X-1.1570 Y1.2859 
G01 X-1.1689 Y1.2740 
G01 X-1.1845 Y1.2675 
G01 X-1.3155 Y1.2675 
G01 X-1.3311 Y1.2740 
G01 X-1.3430 Y1.2859 
G01 X-1.3495 Y1.3015 
G01 X-1.3495 Y1.3185 
G01 X-1.3430 Y1.3341 
G01 X-1.3311 Y1.3460 
G01 X-1.3155 Y1.3525 
G00 Z0.1000 
G00 X-0.5776 Y1.1525 
G01 Z-0.0070 F10.00 
G01 X-0.5424 Y1.1525 F20.00 
G01 X-0.5175 Y1.1276 
G01 X-0.5175 Y1.0924 
G01 X-0.5424 Y1.0675 
G01 X-0.5776 Y1.0675 
G01 X-0.5906 Y1.0805 
G01 X-0.8624 Y1.0805 
G01 X-0.8689 Y1.0740 
G01 X-0.8845 Y1.0675 
G01 X-1.0155 Y1.0675 
G01 X-1.0311 Y1.0740 
G01 X-1.0430 Y1.0859 
G01 X-1.0495 Y1.1015 
G01 X-1.0495 Y1.1185 
G01 X-1.0430 Y1.1341 
G01 X-1.0311 Y1.1460 
G01 X-1.0155 Y1.1525 
G01 X-0.8845 Y1.1525 
G01 X-0.8689 Y1.1460 
G01 X-0.8624 Y1.1395 
G01 X-0.5906 Y1.1395 
G01 X-0.5776 Y1.1525 
G00 Z0.1000 
G00 X-0.7976 Y0.3825 
G01 Z-0.0070 F10.00 
G01 X-0.7624 Y0.3825 F20.00 
G01 X-0.7375 Y0.3576 
G01 X-0.7375 Y0.3224 
G01 X-0.7624 Y0.2975 
G01 X-0.7976 Y0.2975 
G01 X-0.8106 Y0.3105 
G01 X-1.2805 Y0.3105 
G01 X-1.2805 Y0.2206 
G01 X-1.2775 Y0.2176 
G01 X-1.2775 Y0.1824 
G01 X-1.3024 Y0.1575 
G01 X-1.3376 Y0.1575 
G01 X-1.3625 Y0.1824 
G01 X-1.3625 Y0.2176 
G01 X-1.3395 Y0.2406 
G01 X-1.3395 Y0.3105 
G01 X-1.3809 Y0.3105 
G01 X-1.3925 Y0.2989 
G01 X-1.4104 Y0.2915 
G01 X-1.4296 Y0.2915 
G01 X-1.4475 Y0.2989 
G01 X-1.4611 Y0.3125 
G01 X-1.4685 Y0.3304 
G01 X-1.4685 Y0.3496 
G01 X-1.4611 Y0.3675 
G01 X-1.4475 Y0.3811 
G01 X-1.4296 Y0.3885 
G01 X-1.4104 Y0.3885 
G01 X-1.3925 Y0.3811 
G01 X-1.3809 Y0.3695 
G01 X-1.3041 Y0.3695 
G01 X-0.8106 Y0.3695 
G01 X-0.7976 Y0.3825 
G00 Z0.1000 
G00 X-1.5925 Y0.6424 
G01 Z-0.0070 F10.00 
G01 X-1.5925 Y0.6776 F20.00 
G01 X-1.5795 Y0.6906 
G01 X-1.5795 Y0.7541 
G01 X-1.5795 Y0.7553 
G01 X-1.5795 Y0.7659 
G01 X-1.5795 Y0.7758 
G01 X-1.5674 Y0.8050 
G01 X-1.5450 Y0.8274 
G01 X-1.5158 Y0.8395 
G01 X-1.5059 Y0.8395 
G01 X-1.3376 Y0.8395 
G01 X-1.3311 Y0.8460 
G01 X-1.3155 Y0.8525 
G01 X-1.1845 Y0.8525 
G01 X-1.1689 Y0.8460 
G01 X-1.1570 Y0.8341 
G01 X-1.1505 Y0.8185 
G01 X-1.1505 Y0.8015 
G01 X-1.1570 Y0.7859 
G01 X-1.1689 Y0.7740 
G01 X-1.1845 Y0.7675 
G01 X-1.3155 Y0.7675 
G01 X-1.3311 Y0.7740 
G01 X-1.3376 Y0.7805 
G01 X-1.5000 Y0.7805 
G01 X-1.5040 Y0.7801 
G01 X-1.5114 Y0.7770 
G01 X-1.5170 Y0.7714 
G01 X-1.5201 Y0.7640 
G01 X-1.5205 Y0.7600 
G01 X-1.5205 Y0.7553 
G01 X-1.5205 Y0.7541 
G01 X-1.5205 Y0.6906 
G01 X-1.5075 Y0.6776 
G01 X-1.5075 Y0.6424 
G01 X-1.5324 Y0.6175 
G01 X-1.5676 Y0.6175 
G01 X-1.5925 Y0.6424 
G00 Z0.1000 
G00 X-2.6876 Y1.7625 
G01 Z-0.0070 F10.00 
G01 X-2.6524 Y1.7625 F20.00 
G01 X-2.6394 Y1.7495 
G01 X-2.6300 Y1.7495 
G01 X-2.6260 Y1.7499 
G01 X-2.6186 Y1.7530 
G01 X-2.6130 Y1.7586 
G01 X-2.6099 Y1.7660 
G01 X-2.6095 Y1.7700 
G01 X-2.6095 Y1.7731 
G01 X-2.6095 Y1.7759 
G01 X-2.6095 Y1.7859 
G01 X-2.6095 Y1.7958 
G01 X-2.5974 Y1.8250 
G01 X-2.5750 Y1.8474 
G01 X-2.5458 Y1.8595 
G01 X-2.5359 Y1.8595 
G01 X-2.3841 Y1.8595 
G01 X-2.3742 Y1.8595 
G01 X-2.3450 Y1.8474 
G01 X-2.3226 Y1.8250 
G01 X-2.3105 Y1.7958 
G01 X-2.3105 Y1.7859 
G01 X-2.3105 Y1.7706 
G01 X-2.3094 Y1.7695 
G01 X-2.2460 Y1.7695 
G01 X-2.2292 Y1.7863 
G01 X-2.1908 Y1.7863 
G01 X-2.1637 Y1.7592 
G01 X-2.1637 Y1.7208 
G01 X-2.1908 Y1.6937 
G01 X-2.2292 Y1.6937 
G01 X-2.2460 Y1.7105 
G01 X-2.3094 Y1.7105 
G01 X-2.3224 Y1.6975 
G01 X-2.3576 Y1.6975 
G01 X-2.3825 Y1.7224 
G01 X-2.3825 Y1.7576 
G01 X-2.3695 Y1.7706 
G01 X-2.3695 Y1.7800 
G01 X-2.3699 Y1.7840 
G01 X-2.3730 Y1.7914 
G01 X-2.3786 Y1.7970 
G01 X-2.3860 Y1.8001 
G01 X-2.3900 Y1.8005 
G01 X-2.5300 Y1.8005 
G01 X-2.5340 Y1.8001 
G01 X-2.5414 Y1.7970 
G01 X-2.5470 Y1.7914 
G01 X-2.5501 Y1.7840 
G01 X-2.5505 Y1.7800 
G01 X-2.5505 Y1.7759 
G01 X-2.5505 Y1.7731 
G01 X-2.5505 Y1.7641 
G01 X-2.5505 Y1.7542 
G01 X-2.5626 Y1.7250 
G01 X-2.5850 Y1.7026 
G01 X-2.6142 Y1.6905 
G01 X-2.6241 Y1.6905 
G01 X-2.6394 Y1.6905 
G01 X-2.6524 Y1.6775 
G01 X-2.6876 Y1.6775 
G01 X-2.7006 Y1.6905 
G01 X-2.7300 Y1.6905 
G01 X-2.7340 Y1.6901 
G01 X-2.7414 Y1.6870 
G01 X-2.7470 Y1.6814 
G01 X-2.7501 Y1.6740 
G01 X-2.7505 Y1.6700 
G01 X-2.7505 Y1.6654 
G01 X-2.7505 Y1.6641 
G01 X-2.7505 Y1.5941 
G01 X-2.7505 Y1.5862 
G01 X-2.7611 Y1.5606 
G01 X-2.7806 Y1.5411 
G01 X-2.8062 Y1.5305 
G01 X-2.8141 Y1.5305 
G01 X-2.8198 Y1.5305 
G01 X-2.8200 Y1.5305 
G01 X-2.8259 Y1.5305 
G01 X-2.9600 Y1.5305 
G01 X-2.9603 Y1.5304 
G01 X-2.9604 Y1.5303 
G01 X-2.9605 Y1.5301 
G01 X-2.9605 Y1.5241 
G01 X-2.9605 Y1.3725 
G01 X-2.9324 Y1.3725 
G01 X-2.9075 Y1.3476 
G01 X-2.9075 Y1.3124 
G01 X-2.9324 Y1.2875 
G01 X-2.9676 Y1.2875 
G01 X-2.9925 Y1.3124 
G01 X-2.9925 Y1.3142 
G01 X-3.0089 Y1.3306 
G01 X-3.0195 Y1.3562 
G01 X-3.0195 Y1.3641 
G01 X-3.0195 Y1.3665 
G01 X-3.0195 Y1.3700 
G01 X-3.0195 Y1.5241 
G01 X-3.0195 Y1.5300 
G01 X-3.0195 Y1.5418 
G01 X-3.0104 Y1.5637 
G01 X-2.9937 Y1.5804 
G01 X-2.9718 Y1.5895 
G01 X-2.9659 Y1.5895 
G01 X-2.8259 Y1.5895 
G01 X-2.8200 Y1.5895 
G01 X-2.8179 Y1.5897 
G01 X-2.8142 Y1.5913 
G01 X-2.8113 Y1.5942 
G01 X-2.8097 Y1.5979 
G01 X-2.8095 Y1.6000 
G01 X-2.8095 Y1.6641 
G01 X-2.8095 Y1.6654 
G01 X-2.8095 Y1.6759 
G01 X-2.8095 Y1.6858 
G01 X-2.7974 Y1.7150 
G01 X-2.7750 Y1.7374 
G01 X-2.7458 Y1.7495 
G01 X-2.7359 Y1.7495 
G01 X-2.7006 Y1.7495 
G01 X-2.6876 Y1.7625 
G00 Z0.1000 
G00 X-2.9925 Y1.1124 
G01 Z-0.0070 F10.00 
G01 X-2.9925 Y1.1476 F20.00 
G01 X-2.9676 Y1.1725 
G01 X-2.9324 Y1.1725 
G01 X-2.9075 Y1.1476 
G01 X-2.9075 Y1.1124 
G01 X-2.9205 Y1.0994 
G01 X-2.9205 Y1.0600 
G01 X-2.9201 Y1.0560 
G01 X-2.9170 Y1.0486 
G01 X-2.9114 Y1.0430 
G01 X-2.9040 Y1.0399 
G01 X-2.9000 Y1.0395 
G01 X-2.8948 Y1.0395 
G01 X-2.8941 Y1.0395 
G01 X-2.3476 Y1.0395 
G01 X-2.3411 Y1.0460 
G01 X-2.3255 Y1.0525 
G01 X-2.1945 Y1.0525 
G01 X-2.1789 Y1.0460 
G01 X-2.1670 Y1.0341 
G01 X-2.1605 Y1.0185 
G01 X-2.1605 Y1.0015 
G01 X-2.1670 Y0.9859 
G01 X-2.1789 Y0.9740 
G01 X-2.1945 Y0.9675 
G01 X-2.3255 Y0.9675 
G01 X-2.3411 Y0.9740 
G01 X-2.3476 Y0.9805 
G01 X-2.8941 Y0.9805 
G01 X-2.8948 Y0.9805 
G01 X-2.9059 Y0.9805 
G01 X-2.9158 Y0.9805 
G01 X-2.9450 Y0.9926 
G01 X-2.9674 Y1.0150 
G01 X-2.9795 Y1.0442 
G01 X-2.9795 Y1.0541 
G01 X-2.9795 Y1.0994 
G01 X-2.9925 Y1.1124 
G00 Z0.1000 
G00 X-2.4576 Y1.7825 
G01 Z-0.0070 F10.00 
G01 X-2.4224 Y1.7825 F20.00 
G01 X-2.3975 Y1.7576 
G01 X-2.3975 Y1.7224 
G01 X-2.4224 Y1.6975 
G01 X-2.4576 Y1.6975 
G01 X-2.4704 Y1.7103 
G01 X-2.4705 Y1.7101 
G01 X-2.4705 Y1.7051 
G01 X-2.4705 Y1.7041 
G01 X-2.4705 Y1.6041 
G01 X-2.4750 Y1.5933 
G01 X-2.4833 Y1.5850 
G01 X-2.4905 Y1.5820 
G01 X-2.4905 Y1.4459 
G01 X-2.4905 Y1.4341 
G01 X-2.4905 Y1.2600 
G01 X-2.4901 Y1.2560 
G01 X-2.4870 Y1.2486 
G01 X-2.4814 Y1.2430 
G01 X-2.4740 Y1.2399 
G01 X-2.4700 Y1.2395 
G01 X-2.4660 Y1.2395 
G01 X-2.4641 Y1.2395 
G01 X-2.3476 Y1.2395 
G01 X-2.3411 Y1.2460 
G01 X-2.3255 Y1.2525 
G01 X-2.1945 Y1.2525 
G01 X-2.1789 Y1.2460 
G01 X-2.1670 Y1.2341 
G01 X-2.1605 Y1.2185 
G01 X-2.1605 Y1.2015 
G01 X-2.1670 Y1.1859 
G01 X-2.1789 Y1.1740 
G01 X-2.1945 Y1.1675 
G01 X-2.2305 Y1.1675 
G01 X-2.2305 Y1.1525 
G01 X-2.1945 Y1.1525 
G01 X-2.1789 Y1.1460 
G01 X-2.1670 Y1.1341 
G01 X-2.1605 Y1.1185 
G01 X-2.1605 Y1.1015 
G01 X-2.1670 Y1.0859 
G01 X-2.1789 Y1.0740 
G01 X-2.1945 Y1.0675 
G01 X-2.3255 Y1.0675 
G01 X-2.3411 Y1.0740 
G01 X-2.3530 Y1.0859 
G01 X-2.3595 Y1.1015 
G01 X-2.3595 Y1.1185 
G01 X-2.3530 Y1.1341 
G01 X-2.3411 Y1.1460 
G01 X-2.3255 Y1.1525 
G01 X-2.2895 Y1.1525 
G01 X-2.2895 Y1.1675 
G01 X-2.3255 Y1.1675 
G01 X-2.3411 Y1.1740 
G01 X-2.3476 Y1.1805 
G01 X-2.4641 Y1.1805 
G01 X-2.4661 Y1.1805 
G01 X-2.4759 Y1.1805 
G01 X-2.4858 Y1.1805 
G01 X-2.5150 Y1.1926 
G01 X-2.5374 Y1.2150 
G01 X-2.5495 Y1.2442 
G01 X-2.5495 Y1.2541 
G01 X-2.5495 Y1.4105 
G01 X-2.8630 Y1.4105 
G01 X-2.8734 Y1.4002 
G01 X-2.8906 Y1.3930 
G01 X-2.9093 Y1.3930 
G01 X-2.9266 Y1.4002 
G01 X-2.9398 Y1.4134 
G01 X-2.9470 Y1.4306 
G01 X-2.9470 Y1.4493 
G01 X-2.9398 Y1.4666 
G01 X-2.9266 Y1.4798 
G01 X-2.9093 Y1.4870 
G01 X-2.8906 Y1.4870 
G01 X-2.8734 Y1.4798 
G01 X-2.8630 Y1.4695 
G01 X-2.5495 Y1.4695 
G01 X-2.5495 Y1.5805 
G01 X-2.6294 Y1.5805 
G01 X-2.6424 Y1.5675 
G01 X-2.6776 Y1.5675 
G01 X-2.7025 Y1.5924 
G01 X-2.7025 Y1.6276 
G01 X-2.6776 Y1.6525 
G01 X-2.6424 Y1.6525 
G01 X-2.6294 Y1.6395 
G01 X-2.5295 Y1.6395 
G01 X-2.5295 Y1.7041 
G01 X-2.5295 Y1.7051 
G01 X-2.5295 Y1.7159 
G01 X-2.5295 Y1.7218 
G01 X-2.5204 Y1.7437 
G01 X-2.5037 Y1.7604 
G01 X-2.4818 Y1.7695 
G01 X-2.4759 Y1.7695 
G01 X-2.4706 Y1.7695 
G01 X-2.4576 Y1.7825 
G00 Z0.1000 
G00 X-1.9305 Y1.4358 
G01 Z-0.0070 F10.00 
G01 X-1.9305 Y1.4358 F20.00 
G01 X-1.9305 Y1.4259 
G01 X-1.9305 Y1.3525 
G01 X-1.8945 Y1.3525 
G01 X-1.8789 Y1.3460 
G01 X-1.8670 Y1.3341 
G01 X-1.8605 Y1.3185 
G01 X-1.8605 Y1.3015 
G01 X-1.8670 Y1.2859 
G01 X-1.8789 Y1.2740 
G01 X-1.8945 Y1.2675 
G01 X-2.0255 Y1.2675 
G01 X-2.0411 Y1.2740 
G01 X-2.0530 Y1.2859 
G01 X-2.0595 Y1.3015 
G01 X-2.0595 Y1.3185 
G01 X-2.0530 Y1.3341 
G01 X-2.0411 Y1.3460 
G01 X-2.0255 Y1.3525 
G01 X-1.9895 Y1.3525 
G01 X-1.9895 Y1.4200 
G01 X-1.9899 Y1.4240 
G01 X-1.9902 Y1.4247 
G01 X-2.0053 Y1.4398 
G01 X-2.0060 Y1.4401 
G01 X-2.0100 Y1.4405 
G01 X-2.1740 Y1.4405 
G01 X-2.1908 Y1.4237 
G01 X-2.2292 Y1.4237 
G01 X-2.2358 Y1.4303 
G01 X-2.2530 Y1.4246 
G01 X-2.2530 Y1.4205 
G01 X-2.2805 Y1.3930 
G01 X-2.3195 Y1.3930 
G01 X-2.3470 Y1.4205 
G01 X-2.3470 Y1.4595 
G01 X-2.3195 Y1.4870 
G01 X-2.2805 Y1.4870 
G01 X-2.2735 Y1.4799 
G01 X-2.2563 Y1.4857 
G01 X-2.2563 Y1.4892 
G01 X-2.2292 Y1.5163 
G01 X-2.1908 Y1.5163 
G01 X-2.1740 Y1.4995 
G01 X-2.0060 Y1.4995 
G01 X-1.9892 Y1.5163 
G01 X-1.9508 Y1.5163 
G01 X-1.9237 Y1.4892 
G01 X-1.9237 Y1.4508 
G01 X-1.9329 Y1.4416 
G01 X-1.9305 Y1.4358 
G00 Z0.1000 
G00 X-2.5563 Y0.4408 
G01 Z-0.0070 F10.00 
G01 X-2.5563 Y0.4792 F20.00 
G01 X-2.5292 Y0.5063 
G01 X-2.4908 Y0.5063 
G01 X-2.4637 Y0.4792 
G01 X-2.4637 Y0.4408 
G01 X-2.4705 Y0.4340 
G01 X-2.4705 Y0.2679 
G01 X-2.4705 Y0.1900 
G01 X-2.4704 Y0.1884 
G01 X-2.4694 Y0.1852 
G01 X-2.4674 Y0.1826 
G01 X-2.4648 Y0.1806 
G01 X-2.4616 Y0.1796 
G01 X-2.4600 Y0.1795 
G01 X-2.4531 Y0.1795 
G01 X-2.4521 Y0.1795 
G01 X-1.8700 Y0.1795 
G01 X-1.8684 Y0.1796 
G01 X-1.8652 Y0.1806 
G01 X-1.8626 Y0.1826 
G01 X-1.8625 Y0.1827 
G01 X-1.8625 Y0.2176 
G01 X-1.8376 Y0.2425 
G01 X-1.8024 Y0.2425 
G01 X-1.7775 Y0.2176 
G01 X-1.7775 Y0.1824 
G01 X-1.7805 Y0.1794 
G01 X-1.7805 Y0.1758 
G01 X-1.7893 Y0.1489 
G01 X-1.8059 Y0.1259 
G01 X-1.8289 Y0.1093 
G01 X-1.8558 Y0.1005 
G01 X-1.8621 Y0.1005 
G01 X-2.4521 Y0.1005 
G01 X-2.4531 Y0.1005 
G01 X-2.4679 Y0.1005 
G01 X-2.4742 Y0.1005 
G01 X-2.5011 Y0.1093 
G01 X-2.5241 Y0.1259 
G01 X-2.5407 Y0.1489 
G01 X-2.5495 Y0.1758 
G01 X-2.5495 Y0.1821 
G01 X-2.5495 Y0.2305 
G01 X-2.6094 Y0.2305 
G01 X-2.6224 Y0.2175 
G01 X-2.6576 Y0.2175 
G01 X-2.6825 Y0.2424 
G01 X-2.6825 Y0.2776 
G01 X-2.6576 Y0.3025 
G01 X-2.6224 Y0.3025 
G01 X-2.6094 Y0.2895 
G01 X-2.5495 Y0.2895 
G01 X-2.5495 Y0.4340 
G01 X-2.5563 Y0.4408 
G00 Z0.1000 
G00 X-3.0995 Y1.6158 
G01 Z-0.0070 F10.00 
G01 X-3.0995 Y1.6158 F20.00 
G01 X-3.0874 Y1.6450 
G01 X-3.0650 Y1.6674 
G01 X-3.0358 Y1.6795 
G01 X-3.0259 Y1.6795 
G01 X-3.0196 Y1.6795 
G01 X-3.0141 Y1.6795 
G01 X-2.9000 Y1.6795 
G01 X-2.8997 Y1.6796 
G01 X-2.8996 Y1.6797 
G01 X-2.8995 Y1.6799 
G01 X-2.8995 Y1.6845 
G01 X-2.8995 Y1.6859 
G01 X-2.8995 Y1.7759 
G01 X-2.8995 Y1.7858 
G01 X-2.8874 Y1.8150 
G01 X-2.8650 Y1.8374 
G01 X-2.8358 Y1.8495 
G01 X-2.8259 Y1.8495 
G01 X-2.8203 Y1.8495 
G01 X-2.8200 Y1.8495 
G01 X-2.8141 Y1.8495 
G01 X-2.7006 Y1.8495 
G01 X-2.6876 Y1.8625 
G01 X-2.6524 Y1.8625 
G01 X-2.6275 Y1.8376 
G01 X-2.6275 Y1.8024 
G01 X-2.6524 Y1.7775 
G01 X-2.6876 Y1.7775 
G01 X-2.7006 Y1.7905 
G01 X-2.8141 Y1.7905 
G01 X-2.8200 Y1.7905 
G01 X-2.8240 Y1.7901 
G01 X-2.8314 Y1.7870 
G01 X-2.8370 Y1.7814 
G01 X-2.8401 Y1.7740 
G01 X-2.8405 Y1.7700 
G01 X-2.8405 Y1.6859 
G01 X-2.8405 Y1.6845 
G01 X-2.8405 Y1.6741 
G01 X-2.8405 Y1.6682 
G01 X-2.8496 Y1.6463 
G01 X-2.8663 Y1.6296 
G01 X-2.8882 Y1.6205 
G01 X-2.8941 Y1.6205 
G01 X-3.0141 Y1.6205 
G01 X-3.0196 Y1.6205 
G01 X-3.0200 Y1.6205 
G01 X-3.0240 Y1.6201 
G01 X-3.0314 Y1.6170 
G01 X-3.0370 Y1.6114 
G01 X-3.0401 Y1.6040 
G01 X-3.0405 Y1.6000 
G01 X-3.0405 Y1.2900 
G01 X-3.0401 Y1.2860 
G01 X-3.0370 Y1.2786 
G01 X-3.0314 Y1.2730 
G01 X-3.0240 Y1.2699 
G01 X-3.0200 Y1.2695 
G01 X-3.0141 Y1.2695 
G01 X-2.7229 Y1.2695 
G01 X-2.7200 Y1.2701 
G01 X-2.7171 Y1.2695 
G01 X-2.7141 Y1.2695 
G01 X-2.7116 Y1.2685 
G01 X-2.6876 Y1.2925 
G01 X-2.6524 Y1.2925 
G01 X-2.6275 Y1.2676 
G01 X-2.6275 Y1.2324 
G01 X-2.6524 Y1.2075 
G01 X-2.6782 Y1.2075 
G01 X-2.6999 Y1.2032 
G01 X-2.7255 Y1.2082 
G01 X-2.7289 Y1.2105 
G01 X-3.0141 Y1.2105 
G01 X-3.0200 Y1.2105 
G01 X-3.0202 Y1.2105 
G01 X-3.0259 Y1.2105 
G01 X-3.0358 Y1.2105 
G01 X-3.0650 Y1.2226 
G01 X-3.0874 Y1.2450 
G01 X-3.0995 Y1.2742 
G01 X-3.0995 Y1.2841 
G01 X-3.0995 Y1.6059 
G01 X-3.0995 Y1.6158 
G00 Z0.1000 
G00 X-2.1695 Y0.6258 
G01 Z-0.0070 F10.00 
G01 X-2.1695 Y0.6258 F20.00 
G01 X-2.1574 Y0.6550 
G01 X-2.1350 Y0.6774 
G01 X-2.1058 Y0.6895 
G01 X-2.0959 Y0.6895 
G01 X-2.0897 Y0.6895 
G01 X-2.0841 Y0.6895 
G01 X-2.0491 Y0.6895 
G01 X-2.0375 Y0.7011 
G01 X-2.0196 Y0.7085 
G01 X-2.0004 Y0.7085 
G01 X-1.9825 Y0.7011 
G01 X-1.9709 Y0.6895 
G01 X-1.7806 Y0.6895 
G01 X-1.7676 Y0.7025 
G01 X-1.7324 Y0.7025 
G01 X-1.7075 Y0.6776 
G01 X-1.7075 Y0.6424 
G01 X-1.7324 Y0.6175 
G01 X-1.7676 Y0.6175 
G01 X-1.7806 Y0.6305 
G01 X-1.9709 Y0.6305 
G01 X-1.9825 Y0.6189 
G01 X-2.0004 Y0.6115 
G01 X-2.0196 Y0.6115 
G01 X-2.0375 Y0.6189 
G01 X-2.0491 Y0.6305 
G01 X-2.0841 Y0.6305 
G01 X-2.0898 Y0.6305 
G01 X-2.0900 Y0.6305 
G01 X-2.0940 Y0.6301 
G01 X-2.1014 Y0.6270 
G01 X-2.1070 Y0.6214 
G01 X-2.1101 Y0.6140 
G01 X-2.1105 Y0.6100 
G01 X-2.1105 Y0.2906 
G01 X-2.0975 Y0.2776 
G01 X-2.0975 Y0.2424 
G01 X-2.1224 Y0.2175 
G01 X-2.1576 Y0.2175 
G01 X-2.1825 Y0.2424 
G01 X-2.1825 Y0.2776 
G01 X-2.1695 Y0.2906 
G01 X-2.1695 Y0.6159 
G01 X-2.1695 Y0.6258 
G00 Z0.1000 
G00 X-0.5305 Y0.4742 
G01 Z-0.0070 F10.00 
G01 X-0.5305 Y0.4742 F20.00 
G01 X-0.5426 Y0.4450 
G01 X-0.5650 Y0.4226 
G01 X-0.5942 Y0.4105 
G01 X-0.6041 Y0.4105 
G01 X-0.6100 Y0.4105 
G01 X-0.6159 Y0.4105 
G01 X-1.3759 Y0.4105 
G01 X-1.3858 Y0.4105 
G01 X-1.4150 Y0.4226 
G01 X-1.4374 Y0.4450 
G01 X-1.4423 Y0.4567 
G01 X-1.4475 Y0.4589 
G01 X-1.4611 Y0.4725 
G01 X-1.4685 Y0.4904 
G01 X-1.4685 Y0.5096 
G01 X-1.4611 Y0.5275 
G01 X-1.4595 Y0.5291 
G01 X-1.4595 Y0.6794 
G01 X-1.4725 Y0.6924 
G01 X-1.4725 Y0.7276 
G01 X-1.4476 Y0.7525 
G01 X-1.4124 Y0.7525 
G01 X-1.3875 Y0.7276 
G01 X-1.3875 Y0.6924 
G01 X-1.4005 Y0.6794 
G01 X-1.4005 Y0.5444 
G01 X-1.3925 Y0.5411 
G01 X-1.3789 Y0.5275 
G01 X-1.3715 Y0.5096 
G01 X-1.3715 Y0.4904 
G01 X-1.3789 Y0.4725 
G01 X-1.3793 Y0.4721 
G01 X-1.3740 Y0.4699 
G01 X-1.3700 Y0.4695 
G01 X-0.6159 Y0.4695 
G01 X-0.6100 Y0.4695 
G01 X-0.6060 Y0.4699 
G01 X-0.5986 Y0.4730 
G01 X-0.5930 Y0.4786 
G01 X-0.5899 Y0.4860 
G01 X-0.5895 Y0.4900 
G01 X-0.5895 Y0.8794 
G01 X-0.6025 Y0.8924 
G01 X-0.6025 Y0.9276 
G01 X-0.5776 Y0.9525 
G01 X-0.5424 Y0.9525 
G01 X-0.5175 Y0.9276 
G01 X-0.5175 Y0.8924 
G01 X-0.5305 Y0.8794 
G01 X-0.5305 Y0.4841 
G01 X-0.5305 Y0.4742 
G00 Z0.1000 
G00 X-1.7005 Y0.7842 
G01 Z-0.0070 F10.00 
G01 X-1.7005 Y0.7842 F20.00 
G01 X-1.7126 Y0.7550 
G01 X-1.7350 Y0.7326 
G01 X-1.7642 Y0.7205 
G01 X-1.7741 Y0.7205 
G01 X-1.7767 Y0.7205 
G01 X-1.7800 Y0.7205 
G01 X-1.7859 Y0.7205 
G01 X-2.1841 Y0.7205 
G01 X-2.1900 Y0.7205 
G01 X-2.1921 Y0.7203 
G01 X-2.1958 Y0.7187 
G01 X-2.1987 Y0.7158 
G01 X-2.2003 Y0.7120 
G01 X-2.2005 Y0.7100 
G01 X-2.2005 Y0.5959 
G01 X-2.2005 Y0.5936 
G01 X-2.2005 Y0.5841 
G01 X-2.2005 Y0.5762 
G01 X-2.2111 Y0.5506 
G01 X-2.2306 Y0.5311 
G01 X-2.2562 Y0.5205 
G01 X-2.2641 Y0.5205 
G01 X-2.2689 Y0.5205 
G01 X-2.2700 Y0.5205 
G01 X-2.2759 Y0.5205 
G01 X-2.8121 Y0.5205 
G01 X-2.8234 Y0.5092 
G01 X-2.8418 Y0.5016 
G01 X-2.9982 Y0.5016 
G01 X-3.0166 Y0.5092 
G01 X-3.0306 Y0.5233 
G01 X-3.0382 Y0.5416 
G01 X-3.0382 Y0.5615 
G01 X-3.0306 Y0.5799 
G01 X-3.0166 Y0.5940 
G01 X-2.9982 Y0.6016 
G01 X-2.8418 Y0.6016 
G01 X-2.8234 Y0.5940 
G01 X-2.8094 Y0.5799 
G01 X-2.8092 Y0.5795 
G01 X-2.2759 Y0.5795 
G01 X-2.2700 Y0.5795 
G01 X-2.2679 Y0.5797 
G01 X-2.2642 Y0.5813 
G01 X-2.2613 Y0.5842 
G01 X-2.2597 Y0.5879 
G01 X-2.2595 Y0.5900 
G01 X-2.2595 Y0.5936 
G01 X-2.2595 Y0.5959 
G01 X-2.2595 Y0.7159 
G01 X-2.2595 Y0.7238 
G01 X-2.2489 Y0.7494 
G01 X-2.2294 Y0.7689 
G01 X-2.2038 Y0.7795 
G01 X-2.1959 Y0.7795 
G01 X-2.1906 Y0.7795 
G01 X-2.1900 Y0.7795 
G01 X-2.1841 Y0.7795 
G01 X-1.7859 Y0.7795 
G01 X-1.7800 Y0.7795 
G01 X-1.7760 Y0.7799 
G01 X-1.7686 Y0.7830 
G01 X-1.7630 Y0.7886 
G01 X-1.7599 Y0.7960 
G01 X-1.7595 Y0.8000 
G01 X-1.7595 Y0.9641 
G01 X-1.7595 Y0.9649 
G01 X-1.7595 Y0.9759 
G01 X-1.7595 Y0.9838 
G01 X-1.7489 Y1.0094 
G01 X-1.7294 Y1.0289 
G01 X-1.7038 Y1.0395 
G01 X-1.6959 Y1.0395 
G01 X-1.6901 Y1.0395 
G01 X-1.6841 Y1.0395 
G01 X-1.3376 Y1.0395 
G01 X-1.3311 Y1.0460 
G01 X-1.3155 Y1.0525 
G01 X-1.1845 Y1.0525 
G01 X-1.1689 Y1.0460 
G01 X-1.1570 Y1.0341 
G01 X-1.1505 Y1.0185 
G01 X-1.1505 Y1.0015 
G01 X-1.1570 Y0.9859 
G01 X-1.1689 Y0.9740 
G01 X-1.1845 Y0.9675 
G01 X-1.3155 Y0.9675 
G01 X-1.3311 Y0.9740 
G01 X-1.3376 Y0.9805 
G01 X-1.6841 Y0.9805 
G01 X-1.6900 Y0.9805 
G01 X-1.6921 Y0.9803 
G01 X-1.6958 Y0.9787 
G01 X-1.6987 Y0.9758 
G01 X-1.7003 Y0.9720 
G01 X-1.7005 Y0.9700 
G01 X-1.7005 Y0.9649 
G01 X-1.7005 Y0.9641 
G01 X-1.7005 Y0.7941 
G01 X-1.7005 Y0.7842 
G00 Z0.1000 
G00 X-0.5742 Y1.4395 
G01 Z-0.0070 F10.00 
G01 X-0.5742 Y1.4395 F20.00 
G01 X-0.5450 Y1.4274 
G01 X-0.5226 Y1.4050 
G01 X-0.5105 Y1.3758 
G01 X-0.5105 Y1.3659 
G01 X-0.5105 Y1.3601 
G01 X-0.5105 Y1.3600 
G01 X-0.5105 Y1.3584 
G01 X-0.5101 Y1.3544 
G01 X-0.5070 Y1.3470 
G01 X-0.5014 Y1.3414 
G01 X-0.4940 Y1.3383 
G01 X-0.4900 Y1.3379 
G01 X-0.4883 Y1.3379 
G01 X-0.4841 Y1.3379 
G01 X-0.3095 Y1.3379 
G01 X-0.2966 Y1.3508 
G01 X-0.2782 Y1.3584 
G01 X-0.1218 Y1.3584 
G01 X-0.1034 Y1.3508 
G01 X-0.0894 Y1.3367 
G01 X-0.0818 Y1.3184 
G01 X-0.0818 Y1.2985 
G01 X-0.0894 Y1.2801 
G01 X-0.1034 Y1.2660 
G01 X-0.1218 Y1.2584 
G01 X-0.2782 Y1.2584 
G01 X-0.2966 Y1.2660 
G01 X-0.3095 Y1.2789 
G01 X-0.4841 Y1.2789 
G01 X-0.4884 Y1.2789 
G01 X-0.4900 Y1.2789 
G01 X-0.4959 Y1.2789 
G01 X-0.5058 Y1.2789 
G01 X-0.5350 Y1.2910 
G01 X-0.5574 Y1.3134 
G01 X-0.5695 Y1.3426 
G01 X-0.5695 Y1.3526 
G01 X-0.5695 Y1.3541 
G01 X-0.5695 Y1.3600 
G01 X-0.5699 Y1.3640 
G01 X-0.5730 Y1.3714 
G01 X-0.5786 Y1.3770 
G01 X-0.5860 Y1.3801 
G01 X-0.5900 Y1.3805 
G01 X-0.8624 Y1.3805 
G01 X-0.8689 Y1.3740 
G01 X-0.8845 Y1.3675 
G01 X-1.0155 Y1.3675 
G01 X-1.0311 Y1.3740 
G01 X-1.0430 Y1.3859 
G01 X-1.0495 Y1.4015 
G01 X-1.0495 Y1.4185 
G01 X-1.0430 Y1.4341 
G01 X-1.0311 Y1.4460 
G01 X-1.0155 Y1.4525 
G01 X-0.8845 Y1.4525 
G01 X-0.8689 Y1.4460 
G01 X-0.8624 Y1.4395 
G01 X-0.5841 Y1.4395 
G01 X-0.5742 Y1.4395 
G00 Z0.1000 
G00 X-0.4459 Y1.2395 
G01 Z-0.0070 F10.00 
G01 X-0.4400 Y1.2395 F20.00 
G01 X-0.4369 Y1.2395 
G01 X-0.4341 Y1.2395 
G01 X-0.4262 Y1.2395 
G01 X-0.4006 Y1.2289 
G01 X-0.3811 Y1.2094 
G01 X-0.3705 Y1.1838 
G01 X-0.3705 Y1.1759 
G01 X-0.3705 Y1.1616 
G01 X-0.3701 Y1.1576 
G01 X-0.3670 Y1.1502 
G01 X-0.3614 Y1.1445 
G01 X-0.3540 Y1.1415 
G01 X-0.3500 Y1.1411 
G01 X-0.3452 Y1.1411 
G01 X-0.3441 Y1.1411 
G01 X-0.3095 Y1.1411 
G01 X-0.2966 Y1.1540 
G01 X-0.2782 Y1.1616 
G01 X-0.1218 Y1.1616 
G01 X-0.1034 Y1.1540 
G01 X-0.0894 Y1.1399 
G01 X-0.0818 Y1.1215 
G01 X-0.0818 Y1.1016 
G01 X-0.0894 Y1.0833 
G01 X-0.1034 Y1.0692 
G01 X-0.1218 Y1.0616 
G01 X-0.2782 Y1.0616 
G01 X-0.2966 Y1.0692 
G01 X-0.3095 Y1.0821 
G01 X-0.3441 Y1.0821 
G01 X-0.3452 Y1.0821 
G01 X-0.3559 Y1.0821 
G01 X-0.3658 Y1.0821 
G01 X-0.3950 Y1.0942 
G01 X-0.4174 Y1.1165 
G01 X-0.4295 Y1.1458 
G01 X-0.4295 Y1.1557 
G01 X-0.4295 Y1.1700 
G01 X-0.4297 Y1.1720 
G01 X-0.4313 Y1.1758 
G01 X-0.4342 Y1.1787 
G01 X-0.4379 Y1.1803 
G01 X-0.4400 Y1.1805 
G01 X-0.4459 Y1.1805 
G01 X-0.8624 Y1.1805 
G01 X-0.8689 Y1.1740 
G01 X-0.8845 Y1.1675 
G01 X-1.0155 Y1.1675 
G01 X-1.0311 Y1.1740 
G01 X-1.0430 Y1.1859 
G01 X-1.0495 Y1.2015 
G01 X-1.0495 Y1.2185 
G01 X-1.0430 Y1.2341 
G01 X-1.0311 Y1.2460 
G01 X-1.0155 Y1.2525 
G01 X-0.8845 Y1.2525 
G01 X-0.8689 Y1.2460 
G01 X-0.8624 Y1.2395 
G01 X-0.4459 Y1.2395 
G00 Z0.1000 
G00 X-0.4038 Y0.8805 
G01 Z-0.0070 F10.00 
G01 X-0.4038 Y0.8805 F20.00 
G01 X-0.4294 Y0.8911 
G01 X-0.4489 Y0.9106 
G01 X-0.4595 Y0.9362 
G01 X-0.4595 Y0.9441 
G01 X-0.4595 Y0.9497 
G01 X-0.4595 Y0.9500 
G01 X-0.4595 Y0.9559 
G01 X-0.4595 Y0.9600 
G01 X-0.4599 Y0.9640 
G01 X-0.4630 Y0.9714 
G01 X-0.4686 Y0.9770 
G01 X-0.4760 Y0.9801 
G01 X-0.4800 Y0.9805 
G01 X-0.4859 Y0.9805 
G01 X-0.8624 Y0.9805 
G01 X-0.8689 Y0.9740 
G01 X-0.8845 Y0.9675 
G01 X-1.0155 Y0.9675 
G01 X-1.0311 Y0.9740 
G01 X-1.0430 Y0.9859 
G01 X-1.0495 Y1.0015 
G01 X-1.0495 Y1.0185 
G01 X-1.0430 Y1.0341 
G01 X-1.0311 Y1.0460 
G01 X-1.0155 Y1.0525 
G01 X-0.8845 Y1.0525 
G01 X-0.8689 Y1.0460 
G01 X-0.8624 Y1.0395 
G01 X-0.4859 Y1.0395 
G01 X-0.4800 Y1.0395 
G01 X-0.4799 Y1.0395 
G01 X-0.4741 Y1.0395 
G01 X-0.4642 Y1.0395 
G01 X-0.4350 Y1.0274 
G01 X-0.4126 Y1.0050 
G01 X-0.4005 Y0.9758 
G01 X-0.4005 Y0.9659 
G01 X-0.4005 Y0.9559 
G01 X-0.4005 Y0.9500 
G01 X-0.4003 Y0.9479 
G01 X-0.3987 Y0.9442 
G01 X-0.3958 Y0.9413 
G01 X-0.3920 Y0.9397 
G01 X-0.3900 Y0.9395 
G01 X-0.3079 Y0.9395 
G01 X-0.2966 Y0.9508 
G01 X-0.2782 Y0.9584 
G01 X-0.1218 Y0.9584 
G01 X-0.1034 Y0.9508 
G01 X-0.0894 Y0.9367 
G01 X-0.0818 Y0.9184 
G01 X-0.0818 Y0.8985 
G01 X-0.0894 Y0.8801 
G01 X-0.1034 Y0.8660 
G01 X-0.1218 Y0.8584 
G01 X-0.2782 Y0.8584 
G01 X-0.2966 Y0.8660 
G01 X-0.3106 Y0.8801 
G01 X-0.3108 Y0.8805 
G01 X-0.3959 Y0.8805 
G01 X-0.4038 Y0.8805 
G00 Z0.1000 
G00 X-0.4255 Y0.2832 
G01 Z-0.0070 F10.00 
G01 X-0.4255 Y0.2832 F20.00 
G01 X-0.4384 Y0.2521 
G01 X-0.4621 Y0.2284 
G01 X-0.4932 Y0.2155 
G01 X-0.5031 Y0.2155 
G01 X-0.5100 Y0.2155 
G01 X-0.5169 Y0.2155 
G01 X-1.0400 Y0.2155 
G01 X-1.0430 Y0.2152 
G01 X-1.0486 Y0.2129 
G01 X-1.0529 Y0.2086 
G01 X-1.0552 Y0.2030 
G01 X-1.0555 Y0.2000 
G01 X-1.0555 Y0.1958 
G01 X-1.0555 Y0.1931 
G01 X-1.0555 Y0.1431 
G01 X-1.0555 Y0.1332 
G01 X-1.0684 Y0.1021 
G01 X-1.0921 Y0.0784 
G01 X-1.1232 Y0.0655 
G01 X-1.1400 Y0.0655 
G01 X-1.1469 Y0.0655 
G01 X-1.5931 Y0.0655 
G01 X-1.6000 Y0.0655 
G01 X-1.6168 Y0.0655 
G01 X-1.6479 Y0.0784 
G01 X-1.6716 Y0.1021 
G01 X-1.6845 Y0.1332 
G01 X-1.6845 Y0.1431 
G01 X-1.6845 Y0.8669 
G01 X-1.6845 Y0.8768 
G01 X-1.6716 Y0.9079 
G01 X-1.6479 Y0.9316 
G01 X-1.6168 Y0.9445 
G01 X-1.6069 Y0.9445 
G01 X-1.6000 Y0.9445 
G01 X-1.5931 Y0.9445 
G01 X-1.3397 Y0.9445 
G01 X-1.3339 Y0.9503 
G01 X-1.3164 Y0.9575 
G01 X-1.1835 Y0.9575 
G01 X-1.1661 Y0.9503 
G01 X-1.1527 Y0.9369 
G01 X-1.1455 Y0.9194 
G01 X-1.1455 Y0.9005 
G01 X-1.1527 Y0.8831 
G01 X-1.1661 Y0.8697 
G01 X-1.1835 Y0.8625 
G01 X-1.3164 Y0.8625 
G01 X-1.3339 Y0.8697 
G01 X-1.3397 Y0.8755 
G01 X-1.5931 Y0.8755 
G01 X-1.6000 Y0.8755 
G01 X-1.6030 Y0.8752 
G01 X-1.6086 Y0.8729 
G01 X-1.6129 Y0.8686 
G01 X-1.6152 Y0.8630 
G01 X-1.6155 Y0.8600 
G01 X-1.6155 Y0.1500 
G01 X-1.6152 Y0.1470 
G01 X-1.6129 Y0.1414 
G01 X-1.6086 Y0.1371 
G01 X-1.6030 Y0.1348 
G01 X-1.6000 Y0.1345 
G01 X-1.5931 Y0.1345 
G01 X-1.1469 Y0.1345 
G01 X-1.1400 Y0.1345 
G01 X-1.1370 Y0.1348 
G01 X-1.1314 Y0.1371 
G01 X-1.1271 Y0.1414 
G01 X-1.1248 Y0.1470 
G01 X-1.1245 Y0.1500 
G01 X-1.1245 Y0.1931 
G01 X-1.1245 Y0.1958 
G01 X-1.1245 Y0.2069 
G01 X-1.1245 Y0.2168 
G01 X-1.1116 Y0.2479 
G01 X-1.0879 Y0.2716 
G01 X-1.0568 Y0.2845 
G01 X-1.0469 Y0.2845 
G01 X-0.5169 Y0.2845 
G01 X-0.5100 Y0.2845 
G01 X-0.5070 Y0.2848 
G01 X-0.5014 Y0.2871 
G01 X-0.4971 Y0.2914 
G01 X-0.4948 Y0.2970 
G01 X-0.4945 Y0.3000 
G01 X-0.4945 Y0.6531 
G01 X-0.4945 Y0.6542 
G01 X-0.4945 Y0.6669 
G01 X-0.4945 Y0.6768 
G01 X-0.4816 Y0.7079 
G01 X-0.4579 Y0.7316 
G01 X-0.4268 Y0.7445 
G01 X-0.4100 Y0.7445 
G01 X-0.4031 Y0.7445 
G01 X-0.3131 Y0.7445 
G01 X-0.2994 Y0.7582 
G01 X-0.2792 Y0.7666 
G01 X-0.1208 Y0.7666 
G01 X-0.1006 Y0.7582 
G01 X-0.0851 Y0.7427 
G01 X-0.0768 Y0.7225 
G01 X-0.0768 Y0.7006 
G01 X-0.0851 Y0.6804 
G01 X-0.1006 Y0.6649 
G01 X-0.1208 Y0.6566 
G01 X-0.2792 Y0.6566 
G01 X-0.2994 Y0.6649 
G01 X-0.3100 Y0.6755 
G01 X-0.4031 Y0.6755 
G01 X-0.4100 Y0.6755 
G01 X-0.4130 Y0.6752 
G01 X-0.4186 Y0.6729 
G01 X-0.4229 Y0.6686 
G01 X-0.4252 Y0.6630 
G01 X-0.4255 Y0.6600 
G01 X-0.4255 Y0.6542 
G01 X-0.4255 Y0.6531 
G01 X-0.4255 Y0.2931 
G01 X-0.4255 Y0.2832 
G00 Z0.1000 
G00 X-0.5732 Y1.4445 
G01 Z-0.0070 F10.00 
G01 X-0.5732 Y1.4445 F20.00 
G01 X-0.5421 Y1.4316 
G01 X-0.5184 Y1.4079 
G01 X-0.5055 Y1.3768 
G01 X-0.5055 Y1.3669 
G01 X-0.5055 Y1.3650 
G01 X-0.5055 Y1.3600 
G01 X-0.5055 Y1.3584 
G01 X-0.5052 Y1.3554 
G01 X-0.5029 Y1.3498 
G01 X-0.4986 Y1.3455 
G01 X-0.4930 Y1.3432 
G01 X-0.4900 Y1.3429 
G01 X-0.4873 Y1.3429 
G01 X-0.4831 Y1.3429 
G01 X-0.3115 Y1.3429 
G01 X-0.2994 Y1.3550 
G01 X-0.2792 Y1.3634 
G01 X-0.1208 Y1.3634 
G01 X-0.1006 Y1.3550 
G01 X-0.0851 Y1.3396 
G01 X-0.0768 Y1.3194 
G01 X-0.0768 Y1.2975 
G01 X-0.0851 Y1.2773 
G01 X-0.1006 Y1.2618 
G01 X-0.1208 Y1.2534 
G01 X-0.2792 Y1.2534 
G01 X-0.2994 Y1.2618 
G01 X-0.3115 Y1.2739 
G01 X-0.4831 Y1.2739 
G01 X-0.4874 Y1.2739 
G01 X-0.4969 Y1.2739 
G01 X-0.5068 Y1.2739 
G01 X-0.5379 Y1.2868 
G01 X-0.5616 Y1.3106 
G01 X-0.5745 Y1.3416 
G01 X-0.5745 Y1.3516 
G01 X-0.5745 Y1.3531 
G01 X-0.5745 Y1.3600 
G01 X-0.5748 Y1.3630 
G01 X-0.5771 Y1.3686 
G01 X-0.5814 Y1.3729 
G01 X-0.5870 Y1.3752 
G01 X-0.5900 Y1.3755 
G01 X-0.8603 Y1.3755 
G01 X-0.8661 Y1.3697 
G01 X-0.8835 Y1.3625 
G01 X-1.0164 Y1.3625 
G01 X-1.0339 Y1.3697 
G01 X-1.0473 Y1.3831 
G01 X-1.0545 Y1.4005 
G01 X-1.0545 Y1.4194 
G01 X-1.0473 Y1.4369 
G01 X-1.0339 Y1.4503 
G01 X-1.0164 Y1.4575 
G01 X-0.8835 Y1.4575 
G01 X-0.8661 Y1.4503 
G01 X-0.8603 Y1.4445 
G01 X-0.5831 Y1.4445 
G01 X-0.5732 Y1.4445 
G00 Z0.1000 
G00 X-1.6955 Y0.7832 
G01 Z-0.0070 F10.00 
G01 X-1.6955 Y0.7832 F20.00 
G01 X-1.7084 Y0.7521 
G01 X-1.7321 Y0.7284 
G01 X-1.7632 Y0.7155 
G01 X-1.7800 Y0.7155 
G01 X-1.7869 Y0.7155 
G01 X-2.1831 Y0.7155 
G01 X-2.1900 Y0.7155 
G01 X-2.1911 Y0.7154 
G01 X-2.1931 Y0.7146 
G01 X-2.1946 Y0.7131 
G01 X-2.1954 Y0.7111 
G01 X-2.1955 Y0.7100 
G01 X-2.1955 Y0.5969 
G01 X-2.1955 Y0.5944 
G01 X-2.1955 Y0.5831 
G01 X-2.1955 Y0.5752 
G01 X-2.2068 Y0.5478 
G01 X-2.2278 Y0.5268 
G01 X-2.2552 Y0.5155 
G01 X-2.2631 Y0.5155 
G01 X-2.2688 Y0.5155 
G01 X-2.2700 Y0.5155 
G01 X-2.2769 Y0.5155 
G01 X-2.8100 Y0.5155 
G01 X-2.8206 Y0.5049 
G01 X-2.8408 Y0.4966 
G01 X-2.9992 Y0.4966 
G01 X-3.0194 Y0.5049 
G01 X-3.0349 Y0.5204 
G01 X-3.0432 Y0.5406 
G01 X-3.0432 Y0.5625 
G01 X-3.0349 Y0.5827 
G01 X-3.0194 Y0.5982 
G01 X-2.9992 Y0.6066 
G01 X-2.8408 Y0.6066 
G01 X-2.8206 Y0.5982 
G01 X-2.8069 Y0.5845 
G01 X-2.2769 Y0.5845 
G01 X-2.2700 Y0.5845 
G01 X-2.2689 Y0.5846 
G01 X-2.2669 Y0.5854 
G01 X-2.2654 Y0.5869 
G01 X-2.2646 Y0.5889 
G01 X-2.2645 Y0.5900 
G01 X-2.2645 Y0.5944 
G01 X-2.2645 Y0.5969 
G01 X-2.2645 Y0.7169 
G01 X-2.2645 Y0.7248 
G01 X-2.2532 Y0.7522 
G01 X-2.2322 Y0.7732 
G01 X-2.2048 Y0.7845 
G01 X-2.1969 Y0.7845 
G01 X-2.1906 Y0.7845 
G01 X-2.1900 Y0.7845 
G01 X-2.1831 Y0.7845 
G01 X-1.7869 Y0.7845 
G01 X-1.7800 Y0.7845 
G01 X-1.7770 Y0.7848 
G01 X-1.7714 Y0.7871 
G01 X-1.7671 Y0.7914 
G01 X-1.7648 Y0.7970 
G01 X-1.7645 Y0.8000 
G01 X-1.7645 Y0.9631 
G01 X-1.7645 Y0.9640 
G01 X-1.7645 Y0.9769 
G01 X-1.7645 Y0.9848 
G01 X-1.7532 Y1.0122 
G01 X-1.7322 Y1.0331 
G01 X-1.7048 Y1.0445 
G01 X-1.6969 Y1.0445 
G01 X-1.6900 Y1.0445 
G01 X-1.6831 Y1.0445 
G01 X-1.3397 Y1.0445 
G01 X-1.3339 Y1.0503 
G01 X-1.3164 Y1.0575 
G01 X-1.1835 Y1.0575 
G01 X-1.1661 Y1.0503 
G01 X-1.1527 Y1.0369 
G01 X-1.1455 Y1.0194 
G01 X-1.1455 Y1.0005 
G01 X-1.1527 Y0.9831 
G01 X-1.1661 Y0.9697 
G01 X-1.1835 Y0.9625 
G01 X-1.3164 Y0.9625 
G01 X-1.3339 Y0.9697 
G01 X-1.3397 Y0.9755 
G01 X-1.6831 Y0.9755 
G01 X-1.6900 Y0.9755 
G01 X-1.6911 Y0.9754 
G01 X-1.6931 Y0.9746 
G01 X-1.6946 Y0.9731 
G01 X-1.6954 Y0.9711 
G01 X-1.6955 Y0.9700 
G01 X-1.6955 Y0.9640 
G01 X-1.6955 Y0.9631 
G01 X-1.6955 Y0.7931 
G01 X-1.6955 Y0.7832 
G00 Z0.1000 
G00 X-2.1745 Y0.6268 
G01 Z-0.0070 F10.00 
G01 X-2.1745 Y0.6268 F20.00 
G01 X-2.1616 Y0.6579 
G01 X-2.1379 Y0.6816 
G01 X-2.1068 Y0.6945 
G01 X-2.0969 Y0.6945 
G01 X-2.0895 Y0.6945 
G01 X-2.0831 Y0.6945 
G01 X-2.0512 Y0.6945 
G01 X-2.0403 Y0.7054 
G01 X-2.0206 Y0.7135 
G01 X-1.9994 Y0.7135 
G01 X-1.9797 Y0.7054 
G01 X-1.9688 Y0.6945 
G01 X-1.7827 Y0.6945 
G01 X-1.7697 Y0.7075 
G01 X-1.7303 Y0.7075 
G01 X-1.7025 Y0.6797 
G01 X-1.7025 Y0.6403 
G01 X-1.7303 Y0.6125 
G01 X-1.7697 Y0.6125 
G01 X-1.7827 Y0.6255 
G01 X-1.9688 Y0.6255 
G01 X-1.9797 Y0.6146 
G01 X-1.9994 Y0.6065 
G01 X-2.0206 Y0.6065 
G01 X-2.0403 Y0.6146 
G01 X-2.0512 Y0.6255 
G01 X-2.0831 Y0.6255 
G01 X-2.0895 Y0.6255 
G01 X-2.0900 Y0.6255 
G01 X-2.0930 Y0.6252 
G01 X-2.0986 Y0.6229 
G01 X-2.1029 Y0.6186 
G01 X-2.1052 Y0.6130 
G01 X-2.1055 Y0.6100 
G01 X-2.1055 Y0.2927 
G01 X-2.0925 Y0.2797 
G01 X-2.0925 Y0.2403 
G01 X-2.1203 Y0.2125 
G01 X-2.1597 Y0.2125 
G01 X-2.1875 Y0.2403 
G01 X-2.1875 Y0.2797 
G01 X-2.1745 Y0.2927 
G01 X-2.1745 Y0.6169 
G01 X-2.1745 Y0.6268 
G00 Z0.1000 
G00 X-3.1045 Y1.6168 
G01 Z-0.0070 F10.00 
G01 X-3.1045 Y1.6168 F20.00 
G01 X-3.0916 Y1.6479 
G01 X-3.0679 Y1.6716 
G01 X-3.0368 Y1.6845 
G01 X-3.0269 Y1.6845 
G01 X-3.0193 Y1.6845 
G01 X-3.0131 Y1.6845 
G01 X-2.9045 Y1.6845 
G01 X-2.9045 Y1.6853 
G01 X-2.9045 Y1.6869 
G01 X-2.9045 Y1.7769 
G01 X-2.9045 Y1.7868 
G01 X-2.8916 Y1.8179 
G01 X-2.8679 Y1.8416 
G01 X-2.8368 Y1.8545 
G01 X-2.8200 Y1.8545 
G01 X-2.8131 Y1.8545 
G01 X-2.7027 Y1.8545 
G01 X-2.6897 Y1.8675 
G01 X-2.6503 Y1.8675 
G01 X-2.6225 Y1.8397 
G01 X-2.6225 Y1.8003 
G01 X-2.6503 Y1.7725 
G01 X-2.6897 Y1.7725 
G01 X-2.7027 Y1.7855 
G01 X-2.8131 Y1.7855 
G01 X-2.8200 Y1.7855 
G01 X-2.8230 Y1.7852 
G01 X-2.8286 Y1.7829 
G01 X-2.8329 Y1.7786 
G01 X-2.8352 Y1.7730 
G01 X-2.8355 Y1.7700 
G01 X-2.8355 Y1.6869 
G01 X-2.8355 Y1.6853 
G01 X-2.8355 Y1.6731 
G01 X-2.8355 Y1.6672 
G01 X-2.8453 Y1.6435 
G01 X-2.8635 Y1.6253 
G01 X-2.8872 Y1.6155 
G01 X-2.8931 Y1.6155 
G01 X-3.0131 Y1.6155 
G01 X-3.0194 Y1.6155 
G01 X-3.0200 Y1.6155 
G01 X-3.0230 Y1.6152 
G01 X-3.0286 Y1.6129 
G01 X-3.0329 Y1.6086 
G01 X-3.0352 Y1.6030 
G01 X-3.0355 Y1.6000 
G01 X-3.0355 Y1.2900 
G01 X-3.0352 Y1.2870 
G01 X-3.0329 Y1.2814 
G01 X-3.0286 Y1.2771 
G01 X-3.0230 Y1.2748 
G01 X-3.0200 Y1.2745 
G01 X-3.0131 Y1.2745 
G01 X-2.7234 Y1.2745 
G01 X-2.7200 Y1.2752 
G01 X-2.7166 Y1.2745 
G01 X-2.7131 Y1.2745 
G01 X-2.7128 Y1.2744 
G01 X-2.6897 Y1.2975 
G01 X-2.6503 Y1.2975 
G01 X-2.6225 Y1.2697 
G01 X-2.6225 Y1.2303 
G01 X-2.6503 Y1.2025 
G01 X-2.6777 Y1.2025 
G01 X-2.6999 Y1.1981 
G01 X-2.7275 Y1.2035 
G01 X-2.7304 Y1.2055 
G01 X-3.0131 Y1.2055 
G01 X-3.0200 Y1.2055 
G01 X-3.0368 Y1.2055 
G01 X-3.0679 Y1.2184 
G01 X-3.0916 Y1.2421 
G01 X-3.1045 Y1.2732 
G01 X-3.1045 Y1.2831 
G01 X-3.1045 Y1.6069 
G01 X-3.1045 Y1.6168 
G00 Z0.1000 
G00 X-1.9255 Y1.4368 
G01 Z-0.0070 F10.00 
G01 X-1.9255 Y1.4368 F20.00 
G01 X-1.9255 Y1.4269 
G01 X-1.9255 Y1.3575 
G01 X-1.8935 Y1.3575 
G01 X-1.8761 Y1.3503 
G01 X-1.8627 Y1.3369 
G01 X-1.8555 Y1.3194 
G01 X-1.8555 Y1.3005 
G01 X-1.8627 Y1.2831 
G01 X-1.8761 Y1.2697 
G01 X-1.8935 Y1.2625 
G01 X-2.0264 Y1.2625 
G01 X-2.0439 Y1.2697 
G01 X-2.0573 Y1.2831 
G01 X-2.0645 Y1.3005 
G01 X-2.0645 Y1.3194 
G01 X-2.0573 Y1.3369 
G01 X-2.0439 Y1.3503 
G01 X-2.0264 Y1.3575 
G01 X-1.9945 Y1.3575 
G01 X-1.9945 Y1.4200 
G01 X-1.9947 Y1.4221 
G01 X-2.0078 Y1.4353 
G01 X-2.0100 Y1.4355 
G01 X-2.1719 Y1.4355 
G01 X-2.1887 Y1.4187 
G01 X-2.2313 Y1.4187 
G01 X-2.2371 Y1.4246 
G01 X-2.2480 Y1.4210 
G01 X-2.2480 Y1.4185 
G01 X-2.2785 Y1.3880 
G01 X-2.3215 Y1.3880 
G01 X-2.3520 Y1.4185 
G01 X-2.3520 Y1.4615 
G01 X-2.3215 Y1.4920 
G01 X-2.2785 Y1.4920 
G01 X-2.2721 Y1.4857 
G01 X-2.2613 Y1.4893 
G01 X-2.2613 Y1.4913 
G01 X-2.2313 Y1.5213 
G01 X-2.1887 Y1.5213 
G01 X-2.1719 Y1.5045 
G01 X-2.0081 Y1.5045 
G01 X-1.9913 Y1.5213 
G01 X-1.9487 Y1.5213 
G01 X-1.9187 Y1.4913 
G01 X-1.9187 Y1.4487 
G01 X-1.9270 Y1.4404 
G01 X-1.9255 Y1.4368 
G00 Z0.1000 
G00 X-2.6875 Y0.2403 
G01 Z-0.0070 F10.00 
G01 X-2.6875 Y0.2797 F20.00 
G01 X-2.6597 Y0.3075 
G01 X-2.6203 Y0.3075 
G01 X-2.6073 Y0.2945 
G01 X-2.5545 Y0.2945 
G01 X-2.5545 Y0.4319 
G01 X-2.5613 Y0.4387 
G01 X-2.5613 Y0.4813 
G01 X-2.5313 Y0.5113 
G01 X-2.4887 Y0.5113 
G01 X-2.4587 Y0.4813 
G01 X-2.4587 Y0.4387 
G01 X-2.4655 Y0.4319 
G01 X-2.4655 Y0.2689 
G01 X-2.4655 Y0.1900 
G01 X-2.4654 Y0.1891 
G01 X-2.4649 Y0.1875 
G01 X-2.4639 Y0.1861 
G01 X-2.4625 Y0.1851 
G01 X-2.4609 Y0.1846 
G01 X-2.4600 Y0.1845 
G01 X-2.4522 Y0.1845 
G01 X-2.4511 Y0.1845 
G01 X-1.8700 Y0.1845 
G01 X-1.8691 Y0.1846 
G01 X-1.8675 Y0.1851 
G01 X-1.8675 Y0.2197 
G01 X-1.8397 Y0.2475 
G01 X-1.8003 Y0.2475 
G01 X-1.7725 Y0.2197 
G01 X-1.7725 Y0.1803 
G01 X-1.7755 Y0.1773 
G01 X-1.7755 Y0.1750 
G01 X-1.7848 Y0.1466 
G01 X-1.8023 Y0.1224 
G01 X-1.8266 Y0.1048 
G01 X-1.8550 Y0.0955 
G01 X-1.8611 Y0.0955 
G01 X-2.4511 Y0.0955 
G01 X-2.4522 Y0.0955 
G01 X-2.4689 Y0.0955 
G01 X-2.4750 Y0.0955 
G01 X-2.5034 Y0.1048 
G01 X-2.5276 Y0.1223 
G01 X-2.5452 Y0.1466 
G01 X-2.5545 Y0.1750 
G01 X-2.5545 Y0.1811 
G01 X-2.5545 Y0.2255 
G01 X-2.6073 Y0.2255 
G01 X-2.6203 Y0.2125 
G01 X-2.6597 Y0.2125 
G01 X-2.6875 Y0.2403 
G00 Z0.1000 
G00 X-2.3264 Y1.0575 
G01 Z-0.0070 F10.00 
G01 X-2.1935 Y1.0575 F20.00 
G01 X-2.1761 Y1.0503 
G01 X-2.1627 Y1.0369 
G01 X-2.1555 Y1.0194 
G01 X-2.1555 Y1.0005 
G01 X-2.1627 Y0.9831 
G01 X-2.1761 Y0.9697 
G01 X-2.1935 Y0.9625 
G01 X-2.3264 Y0.9625 
G01 X-2.3439 Y0.9697 
G01 X-2.3497 Y0.9755 
G01 X-2.8931 Y0.9755 
G01 X-2.8939 Y0.9755 
G01 X-2.9069 Y0.9755 
G01 X-2.9168 Y0.9755 
G01 X-2.9479 Y0.9884 
G01 X-2.9716 Y1.0121 
G01 X-2.9845 Y1.0432 
G01 X-2.9845 Y1.0531 
G01 X-2.9845 Y1.0973 
G01 X-2.9975 Y1.1103 
G01 X-2.9975 Y1.1497 
G01 X-2.9697 Y1.1775 
G01 X-2.9303 Y1.1775 
G01 X-2.9025 Y1.1497 
G01 X-2.9025 Y1.1103 
G01 X-2.9155 Y1.0973 
G01 X-2.9155 Y1.0600 
G01 X-2.9152 Y1.0570 
G01 X-2.9129 Y1.0514 
G01 X-2.9086 Y1.0471 
G01 X-2.9030 Y1.0448 
G01 X-2.9000 Y1.0445 
G01 X-2.8939 Y1.0445 
G01 X-2.8931 Y1.0445 
G01 X-2.3497 Y1.0445 
G01 X-2.3439 Y1.0503 
G01 X-2.3264 Y1.0575 
G00 Z0.1000 
G00 X-1.5303 Y1.3554 
G01 Z-0.0070 F10.00 
G01 X-1.5106 Y1.3635 F20.00 
G01 X-1.4894 Y1.3635 
G01 X-1.4697 Y1.3554 
G01 X-1.4546 Y1.3403 
G01 X-1.4465 Y1.3206 
G01 X-1.4465 Y1.2994 
G01 X-1.4546 Y1.2797 
G01 X-1.4697 Y1.2646 
G01 X-1.4894 Y1.2565 
G01 X-1.5106 Y1.2565 
G01 X-1.5303 Y1.2646 
G01 X-1.5412 Y1.2755 
G01 X-1.5887 Y1.2755 
G01 X-1.5887 Y1.2487 
G01 X-1.6187 Y1.2187 
G01 X-1.6613 Y1.2187 
G01 X-1.6913 Y1.2487 
G01 X-1.6913 Y1.2755 
G01 X-1.7355 Y1.2755 
G01 X-1.7355 Y1.2327 
G01 X-1.7225 Y1.2197 
G01 X-1.7225 Y1.1803 
G01 X-1.7503 Y1.1525 
G01 X-1.7897 Y1.1525 
G01 X-1.8027 Y1.1655 
G01 X-1.8863 Y1.1655 
G01 X-1.8935 Y1.1625 
G01 X-2.0264 Y1.1625 
G01 X-2.0439 Y1.1697 
G01 X-2.0573 Y1.1831 
G01 X-2.0645 Y1.2005 
G01 X-2.0645 Y1.2194 
G01 X-2.0573 Y1.2369 
G01 X-2.0439 Y1.2503 
G01 X-2.0264 Y1.2575 
G01 X-1.8935 Y1.2575 
G01 X-1.8761 Y1.2503 
G01 X-1.8627 Y1.2369 
G01 X-1.8617 Y1.2345 
G01 X-1.8045 Y1.2345 
G01 X-1.8045 Y1.2755 
G01 X-1.8169 Y1.2755 
G01 X-1.8295 Y1.2808 
G01 X-1.8392 Y1.2905 
G01 X-1.8445 Y1.3031 
G01 X-1.8445 Y1.5331 
G01 X-1.8445 Y1.5400 
G01 X-1.8446 Y1.5411 
G01 X-1.8454 Y1.5431 
G01 X-1.8469 Y1.5446 
G01 X-1.8489 Y1.5454 
G01 X-1.8500 Y1.5455 
G01 X-1.8569 Y1.5455 
G01 X-2.3331 Y1.5455 
G01 X-2.3350 Y1.5455 
G01 X-2.3469 Y1.5455 
G01 X-2.3568 Y1.5455 
G01 X-2.3879 Y1.5584 
G01 X-2.4116 Y1.5821 
G01 X-2.4245 Y1.6132 
G01 X-2.4245 Y1.6231 
G01 X-2.4245 Y1.6323 
G01 X-2.4375 Y1.6453 
G01 X-2.4375 Y1.6847 
G01 X-2.4297 Y1.6925 
G01 X-2.4597 Y1.6925 
G01 X-2.4655 Y1.6983 
G01 X-2.4655 Y1.6031 
G01 X-2.4708 Y1.5905 
G01 X-2.4805 Y1.5808 
G01 X-2.4855 Y1.5787 
G01 X-2.4855 Y1.4469 
G01 X-2.4855 Y1.4331 
G01 X-2.4855 Y1.2600 
G01 X-2.4852 Y1.2570 
G01 X-2.4829 Y1.2514 
G01 X-2.4786 Y1.2471 
G01 X-2.4730 Y1.2448 
G01 X-2.4700 Y1.2445 
G01 X-2.4652 Y1.2445 
G01 X-2.4631 Y1.2445 
G01 X-2.3497 Y1.2445 
G01 X-2.3439 Y1.2503 
G01 X-2.3264 Y1.2575 
G01 X-2.1935 Y1.2575 
G01 X-2.1761 Y1.2503 
G01 X-2.1627 Y1.2369 
G01 X-2.1555 Y1.2194 
G01 X-2.1555 Y1.2005 
G01 X-2.1627 Y1.1831 
G01 X-2.1761 Y1.1697 
G01 X-2.1935 Y1.1625 
G01 X-2.2255 Y1.1625 
G01 X-2.2255 Y1.1575 
G01 X-2.1935 Y1.1575 
G01 X-2.1761 Y1.1503 
G01 X-2.1627 Y1.1369 
G01 X-2.1555 Y1.1194 
G01 X-2.1555 Y1.1005 
G01 X-2.1627 Y1.0831 
G01 X-2.1761 Y1.0697 
G01 X-2.1935 Y1.0625 
G01 X-2.3264 Y1.0625 
G01 X-2.3439 Y1.0697 
G01 X-2.3573 Y1.0831 
G01 X-2.3645 Y1.1005 
G01 X-2.3645 Y1.1194 
G01 X-2.3573 Y1.1369 
G01 X-2.3439 Y1.1503 
G01 X-2.3264 Y1.1575 
G01 X-2.2945 Y1.1575 
G01 X-2.2945 Y1.1625 
G01 X-2.3264 Y1.1625 
G01 X-2.3439 Y1.1697 
G01 X-2.3497 Y1.1755 
G01 X-2.4631 Y1.1755 
G01 X-2.4652 Y1.1755 
G01 X-2.4769 Y1.1755 
G01 X-2.4868 Y1.1755 
G01 X-2.5179 Y1.1884 
G01 X-2.5416 Y1.2121 
G01 X-2.5545 Y1.2432 
G01 X-2.5545 Y1.2531 
G01 X-2.5545 Y1.4055 
G01 X-2.8610 Y1.4055 
G01 X-2.8705 Y1.3959 
G01 X-2.8897 Y1.3880 
G01 X-2.9103 Y1.3880 
G01 X-2.9295 Y1.3959 
G01 X-2.9441 Y1.4105 
G01 X-2.9520 Y1.4297 
G01 X-2.9520 Y1.4503 
G01 X-2.9441 Y1.4695 
G01 X-2.9295 Y1.4841 
G01 X-2.9103 Y1.4920 
G01 X-2.8897 Y1.4920 
G01 X-2.8705 Y1.4841 
G01 X-2.8610 Y1.4745 
G01 X-2.5545 Y1.4745 
G01 X-2.5545 Y1.5755 
G01 X-2.6273 Y1.5755 
G01 X-2.6403 Y1.5625 
G01 X-2.6797 Y1.5625 
G01 X-2.7075 Y1.5903 
G01 X-2.7075 Y1.6297 
G01 X-2.6797 Y1.6575 
G01 X-2.6403 Y1.6575 
G01 X-2.6273 Y1.6445 
G01 X-2.5345 Y1.6445 
G01 X-2.5345 Y1.7031 
G01 X-2.5345 Y1.7042 
G01 X-2.5345 Y1.7169 
G01 X-2.5345 Y1.7228 
G01 X-2.5247 Y1.7465 
G01 X-2.5065 Y1.7647 
G01 X-2.4828 Y1.7745 
G01 X-2.4769 Y1.7745 
G01 X-2.4727 Y1.7745 
G01 X-2.4597 Y1.7875 
G01 X-2.4203 Y1.7875 
G01 X-2.3925 Y1.7597 
G01 X-2.3925 Y1.7203 
G01 X-2.4003 Y1.7125 
G01 X-2.3797 Y1.7125 
G01 X-2.3875 Y1.7203 
G01 X-2.3875 Y1.7597 
G01 X-2.3745 Y1.7727 
G01 X-2.3745 Y1.7800 
G01 X-2.3748 Y1.7830 
G01 X-2.3771 Y1.7886 
G01 X-2.3814 Y1.7929 
G01 X-2.3870 Y1.7952 
G01 X-2.3900 Y1.7955 
G01 X-2.5300 Y1.7955 
G01 X-2.5330 Y1.7952 
G01 X-2.5386 Y1.7929 
G01 X-2.5429 Y1.7886 
G01 X-2.5452 Y1.7830 
G01 X-2.5455 Y1.7800 
G01 X-2.5455 Y1.7769 
G01 X-2.5455 Y1.7736 
G01 X-2.5455 Y1.7631 
G01 X-2.5455 Y1.7532 
G01 X-2.5584 Y1.7221 
G01 X-2.5821 Y1.6984 
G01 X-2.6132 Y1.6855 
G01 X-2.6231 Y1.6855 
G01 X-2.6373 Y1.6855 
G01 X-2.6503 Y1.6725 
G01 X-2.6897 Y1.6725 
G01 X-2.7027 Y1.6855 
G01 X-2.7300 Y1.6855 
G01 X-2.7330 Y1.6852 
G01 X-2.7386 Y1.6829 
G01 X-2.7429 Y1.6786 
G01 X-2.7452 Y1.6730 
G01 X-2.7455 Y1.6700 
G01 X-2.7455 Y1.6647 
G01 X-2.7455 Y1.6631 
G01 X-2.7455 Y1.5931 
G01 X-2.7455 Y1.5852 
G01 X-2.7568 Y1.5578 
G01 X-2.7778 Y1.5368 
G01 X-2.8052 Y1.5255 
G01 X-2.8131 Y1.5255 
G01 X-2.8198 Y1.5255 
G01 X-2.8200 Y1.5255 
G01 X-2.8269 Y1.5255 
G01 X-2.9555 Y1.5255 
G01 X-2.9555 Y1.5231 
G01 X-2.9555 Y1.3775 
G01 X-2.9303 Y1.3775 
G01 X-2.9025 Y1.3497 
G01 X-2.9025 Y1.3103 
G01 X-2.9303 Y1.2825 
G01 X-2.9697 Y1.2825 
G01 X-2.9975 Y1.3103 
G01 X-2.9975 Y1.3121 
G01 X-3.0132 Y1.3278 
G01 X-3.0245 Y1.3552 
G01 X-3.0245 Y1.3631 
G01 X-3.0245 Y1.3662 
G01 X-3.0245 Y1.3700 
G01 X-3.0245 Y1.5231 
G01 X-3.0245 Y1.5300 
G01 X-3.0245 Y1.5301 
G01 X-3.0245 Y1.5369 
G01 X-3.0245 Y1.5428 
G01 X-3.0147 Y1.5665 
G01 X-2.9965 Y1.5847 
G01 X-2.9728 Y1.5945 
G01 X-2.9669 Y1.5945 
G01 X-2.8269 Y1.5945 
G01 X-2.8200 Y1.5945 
G01 X-2.8189 Y1.5946 
G01 X-2.8169 Y1.5954 
G01 X-2.8154 Y1.5969 
G01 X-2.8146 Y1.5989 
G01 X-2.8145 Y1.6000 
G01 X-2.8145 Y1.6631 
G01 X-2.8145 Y1.6647 
G01 X-2.8145 Y1.6769 
G01 X-2.8145 Y1.6868 
G01 X-2.8016 Y1.7179 
G01 X-2.7779 Y1.7416 
G01 X-2.7468 Y1.7545 
G01 X-2.7369 Y1.7545 
G01 X-2.7027 Y1.7545 
G01 X-2.6897 Y1.7675 
G01 X-2.6503 Y1.7675 
G01 X-2.6373 Y1.7545 
G01 X-2.6300 Y1.7545 
G01 X-2.6270 Y1.7548 
G01 X-2.6214 Y1.7571 
G01 X-2.6171 Y1.7614 
G01 X-2.6148 Y1.7670 
G01 X-2.6145 Y1.7700 
G01 X-2.6145 Y1.7736 
G01 X-2.6145 Y1.7769 
G01 X-2.6145 Y1.7869 
G01 X-2.6145 Y1.7968 
G01 X-2.6016 Y1.8279 
G01 X-2.5779 Y1.8516 
G01 X-2.5468 Y1.8645 
G01 X-2.5369 Y1.8645 
G01 X-2.3831 Y1.8645 
G01 X-2.3732 Y1.8645 
G01 X-2.3421 Y1.8516 
G01 X-2.3184 Y1.8279 
G01 X-2.3055 Y1.7968 
G01 X-2.3055 Y1.7869 
G01 X-2.3055 Y1.7745 
G01 X-2.2481 Y1.7745 
G01 X-2.2313 Y1.7913 
G01 X-2.1887 Y1.7913 
G01 X-2.1587 Y1.7613 
G01 X-2.1587 Y1.7187 
G01 X-2.1887 Y1.6887 
G01 X-2.2313 Y1.6887 
G01 X-2.2481 Y1.7055 
G01 X-2.3073 Y1.7055 
G01 X-2.3203 Y1.6925 
G01 X-2.3503 Y1.6925 
G01 X-2.3425 Y1.6847 
G01 X-2.3425 Y1.6453 
G01 X-2.3555 Y1.6323 
G01 X-2.3555 Y1.6300 
G01 X-2.3552 Y1.6270 
G01 X-2.3529 Y1.6214 
G01 X-2.3486 Y1.6171 
G01 X-2.3430 Y1.6148 
G01 X-2.3400 Y1.6145 
G01 X-2.3350 Y1.6145 
G01 X-2.3331 Y1.6145 
G01 X-1.8569 Y1.6145 
G01 X-1.8431 Y1.6145 
G01 X-1.8352 Y1.6145 
G01 X-1.8078 Y1.6031 
G01 X-1.7868 Y1.5822 
G01 X-1.7755 Y1.5548 
G01 X-1.7755 Y1.5469 
G01 X-1.7755 Y1.5401 
G01 X-1.7755 Y1.5331 
G01 X-1.7755 Y1.3445 
G01 X-1.7631 Y1.3445 
G01 X-1.6469 Y1.3445 
G01 X-1.6331 Y1.3445 
G01 X-1.5412 Y1.3445 
G01 X-1.5303 Y1.3554 
G00 Z0.1000 
G00 X-1.5535 Y1.6994 
G01 Z-0.0070 F10.00 
G01 X-1.5535 Y1.7206 F20.00 
G01 X-1.5454 Y1.7403 
G01 X-1.5345 Y1.7512 
G01 X-1.5345 Y1.8773 
G01 X-1.5475 Y1.8903 
G01 X-1.5475 Y1.9297 
G01 X-1.5197 Y1.9575 
G01 X-1.4803 Y1.9575 
G01 X-1.4525 Y1.9297 
G01 X-1.4525 Y1.8903 
G01 X-1.4655 Y1.8773 
G01 X-1.4655 Y1.7512 
G01 X-1.4546 Y1.7403 
G01 X-1.4465 Y1.7206 
G01 X-1.4465 Y1.7049 
G01 X-1.4451 Y1.7045 
G01 X-0.7769 Y1.7045 
G01 X-0.7700 Y1.7045 
G01 X-0.7532 Y1.7045 
G01 X-0.7221 Y1.6916 
G01 X-0.6984 Y1.6679 
G01 X-0.6855 Y1.6368 
G01 X-0.6855 Y1.6269 
G01 X-0.6855 Y1.5427 
G01 X-0.6725 Y1.5297 
G01 X-0.6725 Y1.4903 
G01 X-0.7003 Y1.4625 
G01 X-0.7397 Y1.4625 
G01 X-0.7675 Y1.4903 
G01 X-0.7675 Y1.5297 
G01 X-0.7545 Y1.5427 
G01 X-0.7545 Y1.6200 
G01 X-0.7548 Y1.6230 
G01 X-0.7571 Y1.6286 
G01 X-0.7614 Y1.6329 
G01 X-0.7670 Y1.6352 
G01 X-0.7700 Y1.6355 
G01 X-0.7769 Y1.6355 
G01 X-1.4481 Y1.6355 
G01 X-1.4620 Y1.6340 
G01 X-1.4924 Y1.6428 
G01 X-1.5096 Y1.6565 
G01 X-1.5106 Y1.6565 
G01 X-1.5303 Y1.6646 
G01 X-1.5454 Y1.6797 
G01 X-1.5535 Y1.6994 
G00 Z0.1000 
G00 X-1.4735 Y0.3294 
G01 Z-0.0070 F10.00 
G01 X-1.4735 Y0.3506 F20.00 
G01 X-1.4654 Y0.3703 
G01 X-1.4503 Y0.3854 
G01 X-1.4306 Y0.3935 
G01 X-1.4094 Y0.3935 
G01 X-1.3897 Y0.3854 
G01 X-1.3788 Y0.3745 
G01 X-1.3031 Y0.3745 
G01 X-0.8127 Y0.3745 
G01 X-0.7997 Y0.3875 
G01 X-0.7603 Y0.3875 
G01 X-0.7325 Y0.3597 
G01 X-0.7325 Y0.3203 
G01 X-0.7603 Y0.2925 
G01 X-0.7997 Y0.2925 
G01 X-0.8127 Y0.3055 
G01 X-1.2755 Y0.3055 
G01 X-1.2755 Y0.2227 
G01 X-1.2725 Y0.2197 
G01 X-1.2725 Y0.1803 
G01 X-1.3003 Y0.1525 
G01 X-1.3397 Y0.1525 
G01 X-1.3675 Y0.1803 
G01 X-1.3675 Y0.2197 
G01 X-1.3445 Y0.2427 
G01 X-1.3445 Y0.3055 
G01 X-1.3788 Y0.3055 
G01 X-1.3897 Y0.2946 
G01 X-1.4094 Y0.2865 
G01 X-1.4306 Y0.2865 
G01 X-1.4503 Y0.2946 
G01 X-1.4654 Y0.3097 
G01 X-1.4735 Y0.3294 
G00 Z0.1000 
G00 X-2.0635 Y0.2494 
G01 Z-0.0070 F10.00 
G01 X-2.0635 Y0.2706 F20.00 
G01 X-2.0554 Y0.2903 
G01 X-2.0445 Y0.3012 
G01 X-2.0445 Y0.3068 
G01 X-2.0316 Y0.3379 
G01 X-2.0079 Y0.3616 
G01 X-1.9768 Y0.3745 
G01 X-1.9669 Y0.3745 
G01 X-1.8612 Y0.3745 
G01 X-1.8545 Y0.3812 
G01 X-1.8545 Y0.4588 
G01 X-1.8612 Y0.4655 
G01 X-1.8668 Y0.4655 
G01 X-1.8979 Y0.4784 
G01 X-1.9216 Y0.5021 
G01 X-1.9336 Y0.5310 
G01 X-1.9513 Y0.5487 
G01 X-1.9513 Y0.5913 
G01 X-1.9213 Y0.6213 
G01 X-1.8787 Y0.6213 
G01 X-1.8487 Y0.5913 
G01 X-1.8487 Y0.5487 
G01 X-1.8595 Y0.5380 
G01 X-1.8586 Y0.5371 
G01 X-1.8503 Y0.5454 
G01 X-1.8306 Y0.5535 
G01 X-1.8094 Y0.5535 
G01 X-1.7897 Y0.5454 
G01 X-1.7746 Y0.5303 
G01 X-1.7665 Y0.5106 
G01 X-1.7665 Y0.4894 
G01 X-1.7746 Y0.4697 
G01 X-1.7855 Y0.4588 
G01 X-1.7855 Y0.3812 
G01 X-1.7746 Y0.3703 
G01 X-1.7665 Y0.3506 
G01 X-1.7665 Y0.3294 
G01 X-1.7746 Y0.3097 
G01 X-1.7897 Y0.2946 
G01 X-1.8094 Y0.2865 
G01 X-1.8306 Y0.2865 
G01 X-1.8503 Y0.2946 
G01 X-1.8612 Y0.3055 
G01 X-1.9600 Y0.3055 
G01 X-1.9630 Y0.3052 
G01 X-1.9686 Y0.3029 
G01 X-1.9729 Y0.2986 
G01 X-1.9646 Y0.2903 
G01 X-1.9565 Y0.2706 
G01 X-1.9565 Y0.2494 
G01 X-1.9646 Y0.2297 
G01 X-1.9797 Y0.2146 
G01 X-1.9994 Y0.2065 
G01 X-2.0206 Y0.2065 
G01 X-2.0403 Y0.2146 
G01 X-2.0554 Y0.2297 
G01 X-2.0635 Y0.2494 
G00 Z0.1000 
G00 X-3.2075 Y1.5903 
G01 Z-0.0070 F10.00 
G01 X-3.2075 Y1.6297 F20.00 
G01 X-3.1945 Y1.6427 
G01 X-3.1945 Y1.6969 
G01 X-3.1945 Y1.7068 
G01 X-3.1816 Y1.7379 
G01 X-3.1579 Y1.7616 
G01 X-3.1268 Y1.7745 
G01 X-3.1169 Y1.7745 
G01 X-2.9969 Y1.7745 
G01 X-2.9900 Y1.7745 
G01 X-2.9889 Y1.7746 
G01 X-2.9869 Y1.7754 
G01 X-2.9854 Y1.7769 
G01 X-2.9846 Y1.7789 
G01 X-2.9845 Y1.7800 
G01 X-2.9845 Y1.8531 
G01 X-2.9845 Y1.8549 
G01 X-2.9845 Y1.8669 
G01 X-2.9845 Y1.8768 
G01 X-2.9716 Y1.9079 
G01 X-2.9479 Y1.9316 
G01 X-2.9168 Y1.9445 
G01 X-2.9069 Y1.9445 
G01 X-2.0969 Y1.9445 
G01 X-2.0831 Y1.9445 
G01 X-2.0327 Y1.9445 
G01 X-2.0197 Y1.9575 
G01 X-1.9803 Y1.9575 
G01 X-1.9673 Y1.9445 
G01 X-1.7700 Y1.9445 
G01 X-1.7670 Y1.9448 
G01 X-1.7614 Y1.9471 
G01 X-1.7571 Y1.9514 
G01 X-1.7548 Y1.9570 
G01 X-1.7545 Y1.9600 
G01 X-1.7545 Y1.9654 
G01 X-1.7545 Y1.9669 
G01 X-1.7545 Y2.0669 
G01 X-1.7545 Y2.0768 
G01 X-1.7416 Y2.1079 
G01 X-1.7179 Y2.1316 
G01 X-1.6868 Y2.1445 
G01 X-1.6700 Y2.1445 
G01 X-1.6631 Y2.1445 
G01 X-1.2531 Y2.1445 
G01 X-1.2432 Y2.1445 
G01 X-1.2121 Y2.1316 
G01 X-1.1884 Y2.1079 
G01 X-1.1755 Y2.0768 
G01 X-1.1755 Y2.0600 
G01 X-1.1755 Y2.0531 
G01 X-1.1755 Y1.9169 
G01 X-1.1755 Y1.9100 
G01 X-1.1752 Y1.9070 
G01 X-1.1729 Y1.9014 
G01 X-1.1686 Y1.8971 
G01 X-1.1630 Y1.8948 
G01 X-1.1600 Y1.8945 
G01 X-1.1559 Y1.8945 
G01 X-1.1531 Y1.8945 
G01 X-0.7990 Y1.8945 
G01 X-0.7895 Y1.9041 
G01 X-0.7703 Y1.9120 
G01 X-0.7497 Y1.9120 
G01 X-0.7305 Y1.9041 
G01 X-0.7210 Y1.8945 
G01 X-0.2647 Y1.8945 
G01 X-0.2548 Y1.8945 
G01 X-0.2228 Y1.8841 
G01 X-0.1956 Y1.8644 
G01 X-0.1804 Y1.8434 
G01 X-0.1208 Y1.8434 
G01 X-0.1006 Y1.8350 
G01 X-0.0851 Y1.8196 
G01 X-0.0768 Y1.7994 
G01 X-0.0768 Y1.7775 
G01 X-0.0851 Y1.7573 
G01 X-0.1006 Y1.7418 
G01 X-0.1208 Y1.7334 
G01 X-0.2792 Y1.7334 
G01 X-0.2994 Y1.7418 
G01 X-0.3149 Y1.7573 
G01 X-0.3232 Y1.7775 
G01 X-0.3232 Y1.7994 
G01 X-0.3149 Y1.8196 
G01 X-0.3089 Y1.8255 
G01 X-0.7210 Y1.8255 
G01 X-0.7305 Y1.8159 
G01 X-0.7497 Y1.8080 
G01 X-0.7703 Y1.8080 
G01 X-0.7895 Y1.8159 
G01 X-0.7990 Y1.8255 
G01 X-1.1531 Y1.8255 
G01 X-1.1559 Y1.8255 
G01 X-1.1669 Y1.8255 
G01 X-1.1768 Y1.8255 
G01 X-1.2079 Y1.8384 
G01 X-1.2316 Y1.8621 
G01 X-1.2445 Y1.8932 
G01 X-1.2445 Y1.9100 
G01 X-1.2445 Y1.9169 
G01 X-1.2445 Y2.0531 
G01 X-1.2445 Y2.0600 
G01 X-1.2448 Y2.0630 
G01 X-1.2471 Y2.0686 
G01 X-1.2514 Y2.0729 
G01 X-1.2570 Y2.0752 
G01 X-1.2600 Y2.0755 
G01 X-1.6631 Y2.0755 
G01 X-1.6700 Y2.0755 
G01 X-1.6730 Y2.0752 
G01 X-1.6786 Y2.0729 
G01 X-1.6829 Y2.0686 
G01 X-1.6852 Y2.0630 
G01 X-1.6855 Y2.0600 
G01 X-1.6855 Y1.9669 
G01 X-1.6855 Y1.9654 
G01 X-1.6855 Y1.9531 
G01 X-1.6855 Y1.9432 
G01 X-1.6984 Y1.9121 
G01 X-1.7221 Y1.8884 
G01 X-1.7532 Y1.8755 
G01 X-1.7631 Y1.8755 
G01 X-1.9673 Y1.8755 
G01 X-1.9803 Y1.8625 
G01 X-2.0197 Y1.8625 
G01 X-2.0327 Y1.8755 
G01 X-2.0555 Y1.8755 
G01 X-2.0555 Y1.7500 
G01 X-2.0552 Y1.7470 
G01 X-2.0529 Y1.7414 
G01 X-2.0486 Y1.7371 
G01 X-2.0430 Y1.7348 
G01 X-2.0400 Y1.7345 
G01 X-2.0343 Y1.7345 
G01 X-2.0331 Y1.7345 
G01 X-1.8027 Y1.7345 
G01 X-1.7897 Y1.7475 
G01 X-1.7503 Y1.7475 
G01 X-1.7373 Y1.7345 
G01 X-1.7331 Y1.7345 
G01 X-1.7272 Y1.7345 
G01 X-1.7035 Y1.7247 
G01 X-1.6853 Y1.7065 
G01 X-1.6755 Y1.6828 
G01 X-1.6755 Y1.6769 
G01 X-1.6755 Y1.5100 
G01 X-1.6752 Y1.5070 
G01 X-1.6729 Y1.5014 
G01 X-1.6686 Y1.4971 
G01 X-1.6630 Y1.4948 
G01 X-1.6600 Y1.4945 
G01 X-1.6573 Y1.4945 
G01 X-1.6531 Y1.4945 
G01 X-1.4669 Y1.4945 
G01 X-1.4600 Y1.4945 
G01 X-1.4432 Y1.4945 
G01 X-1.4121 Y1.4816 
G01 X-1.3884 Y1.4579 
G01 X-1.3819 Y1.4424 
G01 X-1.3768 Y1.4445 
G01 X-1.3669 Y1.4445 
G01 X-1.3595 Y1.4445 
G01 X-1.3531 Y1.4445 
G01 X-1.3397 Y1.4445 
G01 X-1.3339 Y1.4503 
G01 X-1.3164 Y1.4575 
G01 X-1.1835 Y1.4575 
G01 X-1.1661 Y1.4503 
G01 X-1.1527 Y1.4369 
G01 X-1.1455 Y1.4194 
G01 X-1.1455 Y1.4005 
G01 X-1.1527 Y1.3831 
G01 X-1.1661 Y1.3697 
G01 X-1.1835 Y1.3625 
G01 X-1.3164 Y1.3625 
G01 X-1.3339 Y1.3697 
G01 X-1.3397 Y1.3755 
G01 X-1.3531 Y1.3755 
G01 X-1.3595 Y1.3755 
G01 X-1.3600 Y1.3755 
G01 X-1.3630 Y1.3752 
G01 X-1.3686 Y1.3729 
G01 X-1.3729 Y1.3686 
G01 X-1.3752 Y1.3630 
G01 X-1.3755 Y1.3600 
G01 X-1.3755 Y1.2531 
G01 X-1.3755 Y1.2438 
G01 X-1.3755 Y1.2339 
G01 X-1.3825 Y1.2170 
G01 X-1.3825 Y1.1903 
G01 X-1.4103 Y1.1625 
G01 X-1.4497 Y1.1625 
G01 X-1.4775 Y1.1903 
G01 X-1.4775 Y1.2297 
G01 X-1.4497 Y1.2575 
G01 X-1.4445 Y1.2575 
G01 X-1.4445 Y1.4100 
G01 X-1.4448 Y1.4130 
G01 X-1.4471 Y1.4186 
G01 X-1.4514 Y1.4229 
G01 X-1.4570 Y1.4252 
G01 X-1.4600 Y1.4255 
G01 X-1.4669 Y1.4255 
G01 X-1.6531 Y1.4255 
G01 X-1.6573 Y1.4255 
G01 X-1.6669 Y1.4255 
G01 X-1.6768 Y1.4255 
G01 X-1.7079 Y1.4384 
G01 X-1.7316 Y1.4621 
G01 X-1.7445 Y1.4932 
G01 X-1.7445 Y1.5031 
G01 X-1.7445 Y1.6583 
G01 X-1.7503 Y1.6525 
G01 X-1.7897 Y1.6525 
G01 X-1.8027 Y1.6655 
G01 X-2.0331 Y1.6655 
G01 X-2.0344 Y1.6655 
G01 X-2.0469 Y1.6655 
G01 X-2.0568 Y1.6655 
G01 X-2.0879 Y1.6784 
G01 X-2.1116 Y1.7021 
G01 X-2.1245 Y1.7332 
G01 X-2.1245 Y1.7431 
G01 X-2.1245 Y1.8755 
G01 X-2.9000 Y1.8755 
G01 X-2.9030 Y1.8752 
G01 X-2.9086 Y1.8729 
G01 X-2.9129 Y1.8686 
G01 X-2.9152 Y1.8630 
G01 X-2.9155 Y1.8600 
G01 X-2.9155 Y1.8548 
G01 X-2.9155 Y1.8531 
G01 X-2.9155 Y1.7731 
G01 X-2.9155 Y1.7652 
G01 X-2.9268 Y1.7378 
G01 X-2.9478 Y1.7168 
G01 X-2.9752 Y1.7055 
G01 X-2.9831 Y1.7055 
G01 X-2.9897 Y1.7055 
G01 X-2.9900 Y1.7055 
G01 X-2.9969 Y1.7055 
G01 X-3.1100 Y1.7055 
G01 X-3.1130 Y1.7052 
G01 X-3.1186 Y1.7029 
G01 X-3.1229 Y1.6986 
G01 X-3.1252 Y1.6930 
G01 X-3.1255 Y1.6900 
G01 X-3.1255 Y1.6427 
G01 X-3.1125 Y1.6297 
G01 X-3.1125 Y1.5903 
G01 X-3.1255 Y1.5773 
G01 X-3.1255 Y0.9600 
G01 X-3.1252 Y0.9570 
G01 X-3.1229 Y0.9514 
G01 X-3.1186 Y0.9471 
G01 X-3.1130 Y0.9448 
G01 X-3.1100 Y0.9445 
G01 X-3.1047 Y0.9445 
G01 X-3.1031 Y0.9445 
G01 X-2.5481 Y0.9445 
G01 X-2.5313 Y0.9613 
G01 X-2.4887 Y0.9613 
G01 X-2.4719 Y0.9445 
G01 X-2.1669 Y0.9445 
G01 X-2.1600 Y0.9445 
G01 X-2.1570 Y0.9448 
G01 X-2.1514 Y0.9471 
G01 X-2.1471 Y0.9514 
G01 X-2.1448 Y0.9570 
G01 X-2.1445 Y0.9600 
G01 X-2.1445 Y1.0669 
G01 X-2.1445 Y1.2755 
G01 X-2.1703 Y1.2755 
G01 X-2.1761 Y1.2697 
G01 X-2.1935 Y1.2625 
G01 X-2.3264 Y1.2625 
G01 X-2.3439 Y1.2697 
G01 X-2.3573 Y1.2831 
G01 X-2.3645 Y1.3005 
G01 X-2.3645 Y1.3194 
G01 X-2.3573 Y1.3369 
G01 X-2.3439 Y1.3503 
G01 X-2.3264 Y1.3575 
G01 X-2.1935 Y1.3575 
G01 X-2.1761 Y1.3503 
G01 X-2.1703 Y1.3445 
G01 X-2.1231 Y1.3445 
G01 X-2.1192 Y1.3445 
G01 X-2.0991 Y1.3362 
G01 X-2.0838 Y1.3209 
G01 X-2.0755 Y1.3008 
G01 X-2.0755 Y1.2969 
G01 X-2.0755 Y1.2831 
G01 X-2.0755 Y1.0669 
G01 X-2.0755 Y1.0543 
G01 X-2.0657 Y1.0445 
G01 X-2.0497 Y1.0445 
G01 X-2.0439 Y1.0503 
G01 X-2.0264 Y1.0575 
G01 X-1.8935 Y1.0575 
G01 X-1.8761 Y1.0503 
G01 X-1.8627 Y1.0369 
G01 X-1.8555 Y1.0194 
G01 X-1.8555 Y1.0005 
G01 X-1.8627 Y0.9831 
G01 X-1.8761 Y0.9697 
G01 X-1.8935 Y0.9625 
G01 X-2.0264 Y0.9625 
G01 X-2.0439 Y0.9697 
G01 X-2.0497 Y0.9755 
G01 X-2.0731 Y0.9755 
G01 X-2.0755 Y0.9755 
G01 X-2.0755 Y0.9531 
G01 X-2.0755 Y0.9432 
G01 X-2.0884 Y0.9121 
G01 X-2.1121 Y0.8884 
G01 X-2.1432 Y0.8755 
G01 X-2.1600 Y0.8755 
G01 X-2.1669 Y0.8755 
G01 X-2.4719 Y0.8755 
G01 X-2.4887 Y0.8587 
G01 X-2.5313 Y0.8587 
G01 X-2.5481 Y0.8755 
G01 X-3.1031 Y0.8755 
G01 X-3.1047 Y0.8755 
G01 X-3.1169 Y0.8755 
G01 X-3.1268 Y0.8755 
G01 X-3.1579 Y0.8884 
G01 X-3.1816 Y0.9121 
G01 X-3.1945 Y0.9432 
G01 X-3.1945 Y0.9531 
G01 X-3.1945 Y1.5773 
G01 X-3.2075 Y1.5903 
G00 Z0.1000 
G00 X-1.3164 Y0.8575 
G01 Z-0.0070 F10.00 
G01 X-1.1835 Y0.8575 F20.00 
G01 X-1.1661 Y0.8503 
G01 X-1.1527 Y0.8369 
G01 X-1.1455 Y0.8194 
G01 X-1.1455 Y0.8005 
G01 X-1.1527 Y0.7831 
G01 X-1.1661 Y0.7697 
G01 X-1.1835 Y0.7625 
G01 X-1.3164 Y0.7625 
G01 X-1.3339 Y0.7697 
G01 X-1.3397 Y0.7755 
G01 X-1.5000 Y0.7755 
G01 X-1.5030 Y0.7752 
G01 X-1.5086 Y0.7729 
G01 X-1.5129 Y0.7686 
G01 X-1.5152 Y0.7630 
G01 X-1.5155 Y0.7600 
G01 X-1.5155 Y0.7544 
G01 X-1.5155 Y0.7531 
G01 X-1.5155 Y0.6927 
G01 X-1.5025 Y0.6797 
G01 X-1.5025 Y0.6403 
G01 X-1.5303 Y0.6125 
G01 X-1.5697 Y0.6125 
G01 X-1.5975 Y0.6403 
G01 X-1.5975 Y0.6797 
G01 X-1.5845 Y0.6927 
G01 X-1.5845 Y0.7531 
G01 X-1.5845 Y0.7544 
G01 X-1.5845 Y0.7669 
G01 X-1.5845 Y0.7768 
G01 X-1.5716 Y0.8079 
G01 X-1.5479 Y0.8316 
G01 X-1.5168 Y0.8445 
G01 X-1.5069 Y0.8445 
G01 X-1.3397 Y0.8445 
G01 X-1.3339 Y0.8503 
G01 X-1.3164 Y0.8575 
G00 Z0.1000 
G00 X-1.0164 Y1.2575 
G01 Z-0.0070 F10.00 
G01 X-0.8835 Y1.2575 F20.00 
G01 X-0.8661 Y1.2503 
G01 X-0.8603 Y1.2445 
G01 X-0.4469 Y1.2445 
G01 X-0.4400 Y1.2445 
G01 X-0.4367 Y1.2445 
G01 X-0.4331 Y1.2445 
G01 X-0.4252 Y1.2445 
G01 X-0.3978 Y1.2332 
G01 X-0.3768 Y1.2122 
G01 X-0.3655 Y1.1848 
G01 X-0.3655 Y1.1769 
G01 X-0.3655 Y1.1616 
G01 X-0.3652 Y1.1586 
G01 X-0.3629 Y1.1530 
G01 X-0.3586 Y1.1487 
G01 X-0.3530 Y1.1464 
G01 X-0.3500 Y1.1461 
G01 X-0.3443 Y1.1461 
G01 X-0.3431 Y1.1461 
G01 X-0.3115 Y1.1461 
G01 X-0.2994 Y1.1582 
G01 X-0.2792 Y1.1666 
G01 X-0.1208 Y1.1666 
G01 X-0.1006 Y1.1582 
G01 X-0.0851 Y1.1427 
G01 X-0.0768 Y1.1225 
G01 X-0.0768 Y1.1006 
G01 X-0.0851 Y1.0804 
G01 X-0.1006 Y1.0649 
G01 X-0.1208 Y1.0566 
G01 X-0.2792 Y1.0566 
G01 X-0.2994 Y1.0649 
G01 X-0.3115 Y1.0771 
G01 X-0.3431 Y1.0771 
G01 X-0.3444 Y1.0771 
G01 X-0.3569 Y1.0771 
G01 X-0.3668 Y1.0771 
G01 X-0.3979 Y1.0899 
G01 X-0.4216 Y1.1137 
G01 X-0.4345 Y1.1448 
G01 X-0.4345 Y1.1547 
G01 X-0.4345 Y1.1700 
G01 X-0.4346 Y1.1711 
G01 X-0.4354 Y1.1731 
G01 X-0.4369 Y1.1746 
G01 X-0.4389 Y1.1754 
G01 X-0.4400 Y1.1755 
G01 X-0.4469 Y1.1755 
G01 X-0.8603 Y1.1755 
G01 X-0.8661 Y1.1697 
G01 X-0.8835 Y1.1625 
G01 X-1.0164 Y1.1625 
G01 X-1.0339 Y1.1697 
G01 X-1.0473 Y1.1831 
G01 X-1.0545 Y1.2005 
G01 X-1.0545 Y1.2194 
G01 X-1.0473 Y1.2369 
G01 X-1.0339 Y1.2503 
G01 X-1.0164 Y1.2575 
G00 Z0.1000 
G00 X-1.0164 Y1.1575 
G01 Z-0.0070 F10.00 
G01 X-0.8835 Y1.1575 F20.00 
G01 X-0.8661 Y1.1503 
G01 X-0.8603 Y1.1445 
G01 X-0.5927 Y1.1445 
G01 X-0.5797 Y1.1575 
G01 X-0.5403 Y1.1575 
G01 X-0.5125 Y1.1297 
G01 X-0.5125 Y1.0903 
G01 X-0.5403 Y1.0625 
G01 X-0.5797 Y1.0625 
G01 X-0.5927 Y1.0755 
G01 X-0.8603 Y1.0755 
G01 X-0.8661 Y1.0697 
G01 X-0.8835 Y1.0625 
G01 X-1.0164 Y1.0625 
G01 X-1.0339 Y1.0697 
G01 X-1.0473 Y1.0831 
G01 X-1.0545 Y1.1005 
G01 X-1.0545 Y1.1194 
G01 X-1.0473 Y1.1369 
G01 X-1.0339 Y1.1503 
G01 X-1.0164 Y1.1575 
G00 Z0.1000 
G00 X-1.0164 Y1.0575 
G01 Z-0.0070 F10.00 
G01 X-0.8835 Y1.0575 F20.00 
G01 X-0.8661 Y1.0503 
G01 X-0.8603 Y1.0445 
G01 X-0.4869 Y1.0445 
G01 X-0.4809 Y1.0445 
G01 X-0.4800 Y1.0445 
G01 X-0.4632 Y1.0445 
G01 X-0.4321 Y1.0316 
G01 X-0.4084 Y1.0079 
G01 X-0.3955 Y0.9768 
G01 X-0.3955 Y0.9669 
G01 X-0.3955 Y0.9569 
G01 X-0.3955 Y0.9500 
G01 X-0.3954 Y0.9489 
G01 X-0.3946 Y0.9469 
G01 X-0.3931 Y0.9454 
G01 X-0.3911 Y0.9446 
G01 X-0.3900 Y0.9445 
G01 X-0.3100 Y0.9445 
G01 X-0.2994 Y0.9550 
G01 X-0.2792 Y0.9634 
G01 X-0.1208 Y0.9634 
G01 X-0.1006 Y0.9550 
G01 X-0.0851 Y0.9396 
G01 X-0.0768 Y0.9194 
G01 X-0.0768 Y0.8975 
G01 X-0.0851 Y0.8773 
G01 X-0.1006 Y0.8618 
G01 X-0.1208 Y0.8534 
G01 X-0.2792 Y0.8534 
G01 X-0.2994 Y0.8618 
G01 X-0.3131 Y0.8755 
G01 X-0.3969 Y0.8755 
G01 X-0.4048 Y0.8755 
G01 X-0.4322 Y0.8868 
G01 X-0.4532 Y0.9078 
G01 X-0.4645 Y0.9352 
G01 X-0.4645 Y0.9431 
G01 X-0.4645 Y0.9497 
G01 X-0.4645 Y0.9500 
G01 X-0.4645 Y0.9569 
G01 X-0.4645 Y0.9600 
G01 X-0.4648 Y0.9630 
G01 X-0.4671 Y0.9686 
G01 X-0.4714 Y0.9729 
G01 X-0.4770 Y0.9752 
G01 X-0.4800 Y0.9755 
G01 X-0.4810 Y0.9755 
G01 X-0.4869 Y0.9755 
G01 X-0.8603 Y0.9755 
G01 X-0.8661 Y0.9697 
G01 X-0.8835 Y0.9625 
G01 X-1.0164 Y0.9625 
G01 X-1.0339 Y0.9697 
G01 X-1.0473 Y0.9831 
G01 X-1.0545 Y1.0005 
G01 X-1.0545 Y1.0194 
G01 X-1.0473 Y1.0369 
G01 X-1.0339 Y1.0503 
G01 X-1.0164 Y1.0575 
G00 Z0.1000 
G00 X-1.3164 Y1.2575 
G01 Z-0.0070 F10.00 
G01 X-1.1835 Y1.2575 F20.00 
G01 X-1.1661 Y1.2503 
G01 X-1.1527 Y1.2369 
G01 X-1.1455 Y1.2194 
G01 X-1.1455 Y1.2005 
G01 X-1.1527 Y1.1831 
G01 X-1.1661 Y1.1697 
G01 X-1.1835 Y1.1625 
G01 X-1.3164 Y1.1625 
G01 X-1.3339 Y1.1697 
G01 X-1.3473 Y1.1831 
G01 X-1.3545 Y1.2005 
G01 X-1.3545 Y1.2194 
G01 X-1.3473 Y1.2369 
G01 X-1.3339 Y1.2503 
G01 X-1.3164 Y1.2575 
G00 Z0.1000 
G00 X-1.3164 Y1.3575 
G01 Z-0.0070 F10.00 
G01 X-1.1835 Y1.3575 F20.00 
G01 X-1.1661 Y1.3503 
G01 X-1.1527 Y1.3369 
G01 X-1.1455 Y1.3194 
G01 X-1.1455 Y1.3005 
G01 X-1.1527 Y1.2831 
G01 X-1.1661 Y1.2697 
G01 X-1.1835 Y1.2625 
G01 X-1.3164 Y1.2625 
G01 X-1.3339 Y1.2697 
G01 X-1.3473 Y1.2831 
G01 X-1.3545 Y1.3005 
G01 X-1.3545 Y1.3194 
G01 X-1.3473 Y1.3369 
G01 X-1.3339 Y1.3503 
G01 X-1.3164 Y1.3575 
G00 Z0.1000 
G00 X-0.7397 Y1.3575 
G01 Z-0.0070 F10.00 
G01 X-0.7003 Y1.3575 F20.00 
G01 X-0.6725 Y1.3297 
G01 X-0.6725 Y1.2903 
G01 X-0.7003 Y1.2625 
G01 X-0.7397 Y1.2625 
G01 X-0.7527 Y1.2755 
G01 X-0.8603 Y1.2755 
G01 X-0.8661 Y1.2697 
G01 X-0.8835 Y1.2625 
G01 X-1.0164 Y1.2625 
G01 X-1.0339 Y1.2697 
G01 X-1.0473 Y1.2831 
G01 X-1.0545 Y1.3005 
G01 X-1.0545 Y1.3194 
G01 X-1.0473 Y1.3369 
G01 X-1.0339 Y1.3503 
G01 X-1.0164 Y1.3575 
G01 X-0.8835 Y1.3575 
G01 X-0.8661 Y1.3503 
G01 X-0.8603 Y1.3445 
G01 X-0.7527 Y1.3445 
G01 X-0.7397 Y1.3575 
G00 Z0.1000 
G00 X-0.8275 Y0.5203 
G01 Z-0.0070 F10.00 
G01 X-0.8275 Y0.5597 F20.00 
G01 X-0.8145 Y0.5727 
G01 X-0.8145 Y0.8600 
G01 X-0.8148 Y0.8630 
G01 X-0.8171 Y0.8686 
G01 X-0.8214 Y0.8729 
G01 X-0.8270 Y0.8752 
G01 X-0.8300 Y0.8755 
G01 X-0.8348 Y0.8755 
G01 X-0.8369 Y0.8755 
G01 X-0.8603 Y0.8755 
G01 X-0.8661 Y0.8697 
G01 X-0.8835 Y0.8625 
G01 X-1.0164 Y0.8625 
G01 X-1.0339 Y0.8697 
G01 X-1.0473 Y0.8831 
G01 X-1.0545 Y0.9005 
G01 X-1.0545 Y0.9194 
G01 X-1.0473 Y0.9369 
G01 X-1.0339 Y0.9503 
G01 X-1.0164 Y0.9575 
G01 X-0.8835 Y0.9575 
G01 X-0.8661 Y0.9503 
G01 X-0.8603 Y0.9445 
G01 X-0.8369 Y0.9445 
G01 X-0.8348 Y0.9445 
G01 X-0.8231 Y0.9445 
G01 X-0.8132 Y0.9445 
G01 X-0.7821 Y0.9316 
G01 X-0.7584 Y0.9079 
G01 X-0.7455 Y0.8768 
G01 X-0.7455 Y0.8669 
G01 X-0.7455 Y0.5727 
G01 X-0.7325 Y0.5597 
G01 X-0.7325 Y0.5203 
G01 X-0.7603 Y0.4925 
G01 X-0.7997 Y0.4925 
G01 X-0.8275 Y0.5203 
G00 Z0.1000 
G00 X-0.5868 Y1.5655 
G01 Z-0.0070 F10.00 
G01 X-0.5868 Y1.5655 F20.00 
G01 X-0.6179 Y1.5784 
G01 X-0.6416 Y1.6021 
G01 X-0.6545 Y1.6332 
G01 X-0.6545 Y1.6431 
G01 X-0.6545 Y1.6500 
G01 X-0.6545 Y1.6569 
G01 X-0.6545 Y1.7200 
G01 X-0.6546 Y1.7211 
G01 X-0.6554 Y1.7231 
G01 X-0.6569 Y1.7246 
G01 X-0.6589 Y1.7254 
G01 X-0.6600 Y1.7255 
G01 X-1.3031 Y1.7255 
G01 X-1.3045 Y1.7255 
G01 X-1.3169 Y1.7255 
G01 X-1.3268 Y1.7255 
G01 X-1.3579 Y1.7384 
G01 X-1.3816 Y1.7621 
G01 X-1.3945 Y1.7932 
G01 X-1.3945 Y1.8031 
G01 X-1.3945 Y1.8210 
G01 X-1.4120 Y1.8385 
G01 X-1.4120 Y1.8815 
G01 X-1.3945 Y1.8990 
G01 X-1.3945 Y1.9531 
G01 X-1.3945 Y1.9588 
G01 X-1.3945 Y1.9600 
G01 X-1.3948 Y1.9630 
G01 X-1.3971 Y1.9686 
G01 X-1.4014 Y1.9729 
G01 X-1.4070 Y1.9752 
G01 X-1.4100 Y1.9755 
G01 X-1.4169 Y1.9755 
G01 X-1.5631 Y1.9755 
G01 X-1.5700 Y1.9755 
G01 X-1.5730 Y1.9752 
G01 X-1.5786 Y1.9729 
G01 X-1.5829 Y1.9686 
G01 X-1.5852 Y1.9630 
G01 X-1.5855 Y1.9600 
G01 X-1.5855 Y1.7969 
G01 X-1.5855 Y1.7731 
G01 X-1.5855 Y1.6369 
G01 X-1.5855 Y1.6300 
G01 X-1.5852 Y1.6270 
G01 X-1.5829 Y1.6214 
G01 X-1.5786 Y1.6171 
G01 X-1.5730 Y1.6148 
G01 X-1.5700 Y1.6145 
G01 X-1.5692 Y1.6145 
G01 X-1.5631 Y1.6145 
G01 X-1.1431 Y1.6145 
G01 X-1.1332 Y1.6145 
G01 X-1.1021 Y1.6016 
G01 X-1.0784 Y1.5779 
G01 X-1.0655 Y1.5468 
G01 X-1.0655 Y1.5300 
G01 X-1.0655 Y1.5231 
G01 X-1.0655 Y0.8600 
G01 X-1.0652 Y0.8570 
G01 X-1.0629 Y0.8514 
G01 X-1.0586 Y0.8471 
G01 X-1.0530 Y0.8448 
G01 X-1.0500 Y0.8445 
G01 X-1.0439 Y0.8445 
G01 X-1.0431 Y0.8445 
G01 X-1.0397 Y0.8445 
G01 X-1.0339 Y0.8503 
G01 X-1.0164 Y0.8575 
G01 X-0.8835 Y0.8575 
G01 X-0.8661 Y0.8503 
G01 X-0.8527 Y0.8369 
G01 X-0.8455 Y0.8194 
G01 X-0.8455 Y0.8005 
G01 X-0.8527 Y0.7831 
G01 X-0.8661 Y0.7697 
G01 X-0.8835 Y0.7625 
G01 X-1.0164 Y0.7625 
G01 X-1.0339 Y0.7697 
G01 X-1.0397 Y0.7755 
G01 X-1.0431 Y0.7755 
G01 X-1.0439 Y0.7755 
G01 X-1.0569 Y0.7755 
G01 X-1.0668 Y0.7755 
G01 X-1.0979 Y0.7884 
G01 X-1.1216 Y0.8121 
G01 X-1.1345 Y0.8432 
G01 X-1.1345 Y0.8531 
G01 X-1.1345 Y1.5231 
G01 X-1.1345 Y1.5300 
G01 X-1.1348 Y1.5330 
G01 X-1.1371 Y1.5386 
G01 X-1.1414 Y1.5429 
G01 X-1.1470 Y1.5452 
G01 X-1.1500 Y1.5455 
G01 X-1.5631 Y1.5455 
G01 X-1.5693 Y1.5455 
G01 X-1.5769 Y1.5455 
G01 X-1.5868 Y1.5455 
G01 X-1.6179 Y1.5584 
G01 X-1.6416 Y1.5821 
G01 X-1.6545 Y1.6132 
G01 X-1.6545 Y1.6231 
G01 X-1.6545 Y1.6271 
G01 X-1.6545 Y1.6300 
G01 X-1.6545 Y1.6369 
G01 X-1.6545 Y1.7555 
G01 X-1.9319 Y1.7555 
G01 X-1.9487 Y1.7387 
G01 X-1.9913 Y1.7387 
G01 X-2.0213 Y1.7687 
G01 X-2.0213 Y1.8113 
G01 X-1.9913 Y1.8413 
G01 X-1.9487 Y1.8413 
G01 X-1.9319 Y1.8245 
G01 X-1.6545 Y1.8245 
G01 X-1.6545 Y1.9669 
G01 X-1.6545 Y1.9768 
G01 X-1.6416 Y2.0079 
G01 X-1.6179 Y2.0316 
G01 X-1.5868 Y2.0445 
G01 X-1.5700 Y2.0445 
G01 X-1.5631 Y2.0445 
G01 X-1.4169 Y2.0445 
G01 X-1.4100 Y2.0445 
G01 X-1.3932 Y2.0445 
G01 X-1.3621 Y2.0316 
G01 X-1.3384 Y2.0079 
G01 X-1.3255 Y1.9768 
G01 X-1.3255 Y1.9669 
G01 X-1.3255 Y1.9588 
G01 X-1.3255 Y1.9531 
G01 X-1.3255 Y1.8990 
G01 X-1.3080 Y1.8815 
G01 X-1.3080 Y1.8385 
G01 X-1.3255 Y1.8210 
G01 X-1.3255 Y1.8100 
G01 X-1.3252 Y1.8070 
G01 X-1.3229 Y1.8014 
G01 X-1.3186 Y1.7971 
G01 X-1.3130 Y1.7948 
G01 X-1.3100 Y1.7945 
G01 X-1.3045 Y1.7945 
G01 X-1.3031 Y1.7945 
G01 X-0.6531 Y1.7945 
G01 X-0.6452 Y1.7945 
G01 X-0.6178 Y1.7832 
G01 X-0.5968 Y1.7622 
G01 X-0.5855 Y1.7348 
G01 X-0.5855 Y1.7269 
G01 X-0.5855 Y1.6569 
G01 X-0.5855 Y1.6500 
G01 X-0.5852 Y1.6470 
G01 X-0.5829 Y1.6414 
G01 X-0.5786 Y1.6371 
G01 X-0.5730 Y1.6348 
G01 X-0.5700 Y1.6345 
G01 X-0.3031 Y1.6345 
G01 X-0.2994 Y1.6382 
G01 X-0.2792 Y1.6466 
G01 X-0.1208 Y1.6466 
G01 X-0.1006 Y1.6382 
G01 X-0.0851 Y1.6227 
G01 X-0.0768 Y1.6025 
G01 X-0.0768 Y1.5806 
G01 X-0.0851 Y1.5604 
G01 X-0.1006 Y1.5449 
G01 X-0.1208 Y1.5366 
G01 X-0.2792 Y1.5366 
G01 X-0.2994 Y1.5449 
G01 X-0.3149 Y1.5604 
G01 X-0.3170 Y1.5655 
G01 X-0.5769 Y1.5655 
G01 X-0.5868 Y1.5655 
G00 Z0.1000 
G00 X-0.5255 Y0.4732 
G01 Z-0.0070 F10.00 
G01 X-0.5255 Y0.4732 F20.00 
G01 X-0.5384 Y0.4421 
G01 X-0.5621 Y0.4184 
G01 X-0.5932 Y0.4055 
G01 X-0.6031 Y0.4055 
G01 X-0.6100 Y0.4055 
G01 X-0.6169 Y0.4055 
G01 X-1.3769 Y0.4055 
G01 X-1.3868 Y0.4055 
G01 X-1.4179 Y0.4184 
G01 X-1.4416 Y0.4421 
G01 X-1.4461 Y0.4529 
G01 X-1.4503 Y0.4546 
G01 X-1.4654 Y0.4697 
G01 X-1.4735 Y0.4894 
G01 X-1.4735 Y0.5106 
G01 X-1.4654 Y0.5303 
G01 X-1.4645 Y0.5312 
G01 X-1.4645 Y0.6773 
G01 X-1.4775 Y0.6903 
G01 X-1.4775 Y0.7297 
G01 X-1.4497 Y0.7575 
G01 X-1.4103 Y0.7575 
G01 X-1.3825 Y0.7297 
G01 X-1.3825 Y0.6903 
G01 X-1.3955 Y0.6773 
G01 X-1.3955 Y0.5478 
G01 X-1.3897 Y0.5454 
G01 X-1.3746 Y0.5303 
G01 X-1.3665 Y0.5106 
G01 X-1.3665 Y0.4894 
G01 X-1.3726 Y0.4747 
G01 X-1.3700 Y0.4745 
G01 X-0.6169 Y0.4745 
G01 X-0.6100 Y0.4745 
G01 X-0.6070 Y0.4748 
G01 X-0.6014 Y0.4771 
G01 X-0.5971 Y0.4814 
G01 X-0.5948 Y0.4870 
G01 X-0.5945 Y0.4900 
G01 X-0.5945 Y0.8773 
G01 X-0.6075 Y0.8903 
G01 X-0.6075 Y0.9297 
G01 X-0.5797 Y0.9575 
G01 X-0.5403 Y0.9575 
G01 X-0.5125 Y0.9297 
G01 X-0.5125 Y0.8903 
G01 X-0.5255 Y0.8773 
G01 X-0.5255 Y0.4831 
G01 X-0.5255 Y0.4732 
G00 Z0.1000 
G00 X-2.3645 Y0.7968 
G01 Z-0.0070 F10.00 
G01 X-2.3645 Y0.7968 F20.00 
G01 X-2.3516 Y0.8279 
G01 X-2.3279 Y0.8516 
G01 X-2.2968 Y0.8645 
G01 X-2.2800 Y0.8645 
G01 X-2.2731 Y0.8645 
G01 X-1.8669 Y0.8645 
G01 X-1.8600 Y0.8645 
G01 X-1.8570 Y0.8648 
G01 X-1.8514 Y0.8671 
G01 X-1.8471 Y0.8714 
G01 X-1.8448 Y0.8770 
G01 X-1.8445 Y0.8800 
G01 X-1.8445 Y0.8869 
G01 X-1.8445 Y1.0755 
G01 X-1.8703 Y1.0755 
G01 X-1.8761 Y1.0697 
G01 X-1.8935 Y1.0625 
G01 X-2.0264 Y1.0625 
G01 X-2.0439 Y1.0697 
G01 X-2.0573 Y1.0831 
G01 X-2.0645 Y1.1005 
G01 X-2.0645 Y1.1194 
G01 X-2.0573 Y1.1369 
G01 X-2.0439 Y1.1503 
G01 X-2.0264 Y1.1575 
G01 X-1.8935 Y1.1575 
G01 X-1.8761 Y1.1503 
G01 X-1.8703 Y1.1445 
G01 X-1.8031 Y1.1445 
G01 X-1.3397 Y1.1445 
G01 X-1.3339 Y1.1503 
G01 X-1.3164 Y1.1575 
G01 X-1.1835 Y1.1575 
G01 X-1.1661 Y1.1503 
G01 X-1.1527 Y1.1369 
G01 X-1.1455 Y1.1194 
G01 X-1.1455 Y1.1005 
G01 X-1.1527 Y1.0831 
G01 X-1.1661 Y1.0697 
G01 X-1.1835 Y1.0625 
G01 X-1.3164 Y1.0625 
G01 X-1.3339 Y1.0697 
G01 X-1.3397 Y1.0755 
G01 X-1.7755 Y1.0755 
G01 X-1.7755 Y0.8869 
G01 X-1.7755 Y0.8800 
G01 X-1.7755 Y0.8632 
G01 X-1.7884 Y0.8321 
G01 X-1.8121 Y0.8084 
G01 X-1.8432 Y0.7955 
G01 X-1.8600 Y0.7955 
G01 X-1.8669 Y0.7955 
G01 X-2.2731 Y0.7955 
G01 X-2.2800 Y0.7955 
G01 X-2.2830 Y0.7952 
G01 X-2.2886 Y0.7929 
G01 X-2.2929 Y0.7886 
G01 X-2.2952 Y0.7830 
G01 X-2.2955 Y0.7800 
G01 X-2.2955 Y0.7531 
G01 X-2.2955 Y0.7492 
G01 X-2.3038 Y0.7291 
G01 X-2.3191 Y0.7138 
G01 X-2.3392 Y0.7055 
G01 X-2.3500 Y0.7055 
G01 X-2.3569 Y0.7055 
G01 X-2.6473 Y0.7055 
G01 X-2.6503 Y0.7025 
G01 X-2.6897 Y0.7025 
G01 X-2.7027 Y0.7155 
G01 X-2.8069 Y0.7155 
G01 X-2.8206 Y0.7018 
G01 X-2.8408 Y0.6934 
G01 X-2.9992 Y0.6934 
G01 X-3.0194 Y0.7018 
G01 X-3.0349 Y0.7173 
G01 X-3.0432 Y0.7375 
G01 X-3.0432 Y0.7594 
G01 X-3.0349 Y0.7796 
G01 X-3.0194 Y0.7950 
G01 X-2.9992 Y0.8034 
G01 X-2.8408 Y0.8034 
G01 X-2.8206 Y0.7950 
G01 X-2.8100 Y0.7845 
G01 X-2.7027 Y0.7845 
G01 X-2.6897 Y0.7975 
G01 X-2.6503 Y0.7975 
G01 X-2.6273 Y0.7745 
G01 X-2.3645 Y0.7745 
G01 X-2.3645 Y0.7869 
G01 X-2.3645 Y0.7968 
G00 Z0.1000 
G00 X-1.9769 Y0.7096 
G01 Z-0.0070 F10.00 
G01 X-1.9668 Y0.6995 F20.00 
G01 X-1.7847 Y0.6995 
G01 X-1.7737 Y0.7105 
G01 X-1.9791 Y0.7105 
G01 X-1.9769 Y0.7096 
G00 Z0.1000 
G00 X-3.0304 Y1.6016 
G01 Z-0.0070 F10.00 
G01 X-3.0305 Y1.6000 F20.00 
G01 X-3.0305 Y1.2900 
G01 X-3.0304 Y1.2884 
G01 X-3.0294 Y1.2852 
G01 X-3.0274 Y1.2826 
G01 X-3.0248 Y1.2806 
G01 X-3.0216 Y1.2796 
G01 X-3.0200 Y1.2795 
G01 X-3.0131 Y1.2795 
G01 X-3.0121 Y1.2795 
G01 X-2.9737 Y1.2795 
G01 X-3.0025 Y1.3083 
G01 X-3.0025 Y1.3101 
G01 X-3.0174 Y1.3250 
G01 X-3.0295 Y1.3542 
G01 X-3.0295 Y1.3621 
G01 X-3.0295 Y1.5221 
G01 X-3.0295 Y1.5249 
G01 X-3.0295 Y1.5379 
G01 X-3.0295 Y1.5438 
G01 X-3.0189 Y1.5694 
G01 X-2.9994 Y1.5889 
G01 X-2.9738 Y1.5995 
G01 X-2.9679 Y1.5995 
G01 X-2.8279 Y1.5995 
G01 X-2.8200 Y1.5995 
G01 X-2.8197 Y1.5996 
G01 X-2.8196 Y1.5997 
G01 X-2.8195 Y1.5999 
G01 X-2.8195 Y1.6621 
G01 X-2.8195 Y1.6633 
G01 X-2.8195 Y1.6779 
G01 X-2.8195 Y1.6842 
G01 X-2.8107 Y1.7111 
G01 X-2.7941 Y1.7341 
G01 X-2.7711 Y1.7507 
G01 X-2.7442 Y1.7595 
G01 X-2.7379 Y1.7595 
G01 X-2.7047 Y1.7595 
G01 X-2.6942 Y1.7700 
G01 X-2.7047 Y1.7805 
G01 X-2.8121 Y1.7805 
G01 X-2.8200 Y1.7805 
G01 X-2.8216 Y1.7804 
G01 X-2.8248 Y1.7794 
G01 X-2.8274 Y1.7774 
G01 X-2.8294 Y1.7748 
G01 X-2.8304 Y1.7716 
G01 X-2.8305 Y1.7700 
G01 X-2.8305 Y1.6879 
G01 X-2.8305 Y1.6859 
G01 X-2.8305 Y1.6721 
G01 X-2.8305 Y1.6662 
G01 X-2.8411 Y1.6406 
G01 X-2.8606 Y1.6211 
G01 X-2.8862 Y1.6105 
G01 X-2.8921 Y1.6105 
G01 X-3.0121 Y1.6105 
G01 X-3.0200 Y1.6105 
G01 X-3.0216 Y1.6104 
G01 X-3.0248 Y1.6094 
G01 X-3.0274 Y1.6074 
G01 X-3.0294 Y1.6048 
G01 X-3.0304 Y1.6016 
G00 Z0.1000 
G00 X-2.9095 Y1.7842 
G01 Z-0.0070 F10.00 
G01 X-2.9095 Y1.7842 F20.00 
G01 X-2.9007 Y1.8111 
G01 X-2.8841 Y1.8341 
G01 X-2.8611 Y1.8507 
G01 X-2.8342 Y1.8595 
G01 X-2.8200 Y1.8595 
G01 X-2.8121 Y1.8595 
G01 X-2.7047 Y1.8595 
G01 X-2.6937 Y1.8705 
G01 X-2.9000 Y1.8705 
G01 X-2.9016 Y1.8704 
G01 X-2.9048 Y1.8694 
G01 X-2.9074 Y1.8674 
G01 X-2.9094 Y1.8648 
G01 X-2.9104 Y1.8616 
G01 X-2.9105 Y1.8600 
G01 X-2.9105 Y1.8555 
G01 X-2.9105 Y1.8521 
G01 X-2.9105 Y1.7721 
G01 X-2.9105 Y1.7642 
G01 X-2.9226 Y1.7350 
G01 X-2.9450 Y1.7126 
G01 X-2.9742 Y1.7005 
G01 X-2.9821 Y1.7005 
G01 X-2.9893 Y1.7005 
G01 X-2.9900 Y1.7005 
G01 X-2.9979 Y1.7005 
G01 X-3.1021 Y1.7005 
G01 X-3.1100 Y1.7005 
G01 X-3.1116 Y1.7004 
G01 X-3.1148 Y1.6994 
G01 X-3.1174 Y1.6974 
G01 X-3.1194 Y1.6948 
G01 X-3.1204 Y1.6916 
G01 X-3.1205 Y1.6900 
G01 X-3.1205 Y1.6833 
G01 X-3.1205 Y1.6821 
G01 X-3.1205 Y1.6447 
G01 X-3.1075 Y1.6317 
G01 X-3.1075 Y1.6203 
G01 X-3.1007 Y1.6411 
G01 X-3.0841 Y1.6641 
G01 X-3.0611 Y1.6807 
G01 X-3.0342 Y1.6895 
G01 X-3.0279 Y1.6895 
G01 X-3.0200 Y1.6895 
G01 X-3.0121 Y1.6895 
G01 X-2.9095 Y1.6895 
G01 X-2.9095 Y1.7779 
G01 X-2.9095 Y1.7842 
G00 Z0.1000 
G00 X-1.7937 Y1.7505 
G01 Z-0.0070 F10.00 
G01 X-1.9299 Y1.7505 F20.00 
G01 X-1.9409 Y1.7395 
G01 X-1.8047 Y1.7395 
G01 X-1.7937 Y1.7505 
G00 Z0.1000 
G00 X-2.6226 Y1.7626 
G01 Z-0.0070 F10.00 
G01 X-2.6206 Y1.7652 F20.00 
G01 X-2.6196 Y1.7684 
G01 X-2.6195 Y1.7700 
G01 X-2.6195 Y1.7763 
G01 X-2.6195 Y1.7779 
G01 X-2.6195 Y1.7879 
G01 X-2.6195 Y1.7942 
G01 X-2.6185 Y1.7973 
G01 X-2.6458 Y1.7700 
G01 X-2.6353 Y1.7595 
G01 X-2.6300 Y1.7595 
G01 X-2.6284 Y1.7596 
G01 X-2.6252 Y1.7606 
G01 X-2.6226 Y1.7626 
G00 Z0.1000 
G00 X-1.8047 Y1.1605 
G01 Z-0.0070 F10.00 
G01 X-1.8853 Y1.1605 F20.00 
G01 X-1.8865 Y1.1600 
G01 X-1.8733 Y1.1545 
G01 X-1.8683 Y1.1495 
G01 X-1.8179 Y1.1495 
G01 X-1.8021 Y1.1495 
G01 X-1.7937 Y1.1495 
G01 X-1.8047 Y1.1605 
G00 Z0.1000 
G00 X-1.7175 Y1.2217 
G01 Z-0.0070 F10.00 
G01 X-1.7175 Y1.1783 F20.00 
G01 X-1.7463 Y1.1495 
G01 X-1.3417 Y1.1495 
G01 X-1.3367 Y1.1545 
G01 X-1.3235 Y1.1600 
G01 X-1.3367 Y1.1655 
G01 X-1.3515 Y1.1803 
G01 X-1.3595 Y1.1996 
G01 X-1.3595 Y1.2204 
G01 X-1.3515 Y1.2397 
G01 X-1.3367 Y1.2545 
G01 X-1.3235 Y1.2600 
G01 X-1.3367 Y1.2655 
G01 X-1.3515 Y1.2803 
G01 X-1.3595 Y1.2996 
G01 X-1.3595 Y1.3204 
G01 X-1.3515 Y1.3397 
G01 X-1.3367 Y1.3545 
G01 X-1.3235 Y1.3600 
G01 X-1.3367 Y1.3655 
G01 X-1.3417 Y1.3705 
G01 X-1.3521 Y1.3705 
G01 X-1.3600 Y1.3705 
G01 X-1.3616 Y1.3704 
G01 X-1.3648 Y1.3694 
G01 X-1.3674 Y1.3674 
G01 X-1.3694 Y1.3648 
G01 X-1.3704 Y1.3616 
G01 X-1.3705 Y1.3600 
G01 X-1.3705 Y1.2679 
G01 X-1.3705 Y1.2586 
G01 X-1.3705 Y1.2575 
G01 X-1.3705 Y1.2429 
G01 X-1.3705 Y1.2389 
G01 X-1.3766 Y1.2162 
G01 X-1.3775 Y1.2146 
G01 X-1.3775 Y1.1883 
G01 X-1.4083 Y1.1575 
G01 X-1.4517 Y1.1575 
G01 X-1.4825 Y1.1883 
G01 X-1.4825 Y1.2317 
G01 X-1.4517 Y1.2625 
G01 X-1.4495 Y1.2625 
G01 X-1.4495 Y1.2679 
G01 X-1.4495 Y1.2791 
G01 X-1.4504 Y1.2769 
G01 X-1.4669 Y1.2604 
G01 X-1.4884 Y1.2515 
G01 X-1.5116 Y1.2515 
G01 X-1.5331 Y1.2604 
G01 X-1.5432 Y1.2705 
G01 X-1.5837 Y1.2705 
G01 X-1.5837 Y1.2467 
G01 X-1.6167 Y1.2137 
G01 X-1.6633 Y1.2137 
G01 X-1.6963 Y1.2467 
G01 X-1.6963 Y1.2705 
G01 X-1.7305 Y1.2705 
G01 X-1.7305 Y1.2347 
G01 X-1.7175 Y1.2217 
G00 Z0.1000 
G00 X-2.3448 Y1.6206 
G01 Z-0.0070 F10.00 
G01 X-2.3416 Y1.6196 F20.00 
G01 X-2.3400 Y1.6195 
G01 X-2.3339 Y1.6195 
G01 X-2.3321 Y1.6195 
G01 X-1.8421 Y1.6195 
G01 X-1.8342 Y1.6195 
G01 X-1.8050 Y1.6074 
G01 X-1.7826 Y1.5850 
G01 X-1.7705 Y1.5558 
G01 X-1.7705 Y1.5479 
G01 X-1.7705 Y1.5401 
G01 X-1.7705 Y1.5321 
G01 X-1.7705 Y1.3495 
G01 X-1.7621 Y1.3495 
G01 X-1.6479 Y1.3495 
G01 X-1.6321 Y1.3495 
G01 X-1.5432 Y1.3495 
G01 X-1.5331 Y1.3596 
G01 X-1.5116 Y1.3685 
G01 X-1.4884 Y1.3685 
G01 X-1.4669 Y1.3596 
G01 X-1.4504 Y1.3431 
G01 X-1.4495 Y1.3409 
G01 X-1.4495 Y1.4021 
G01 X-1.4495 Y1.4100 
G01 X-1.4496 Y1.4116 
G01 X-1.4506 Y1.4148 
G01 X-1.4526 Y1.4174 
G01 X-1.4552 Y1.4194 
G01 X-1.4584 Y1.4204 
G01 X-1.4600 Y1.4205 
G01 X-1.6521 Y1.4205 
G01 X-1.6537 Y1.4205 
G01 X-1.6679 Y1.4205 
G01 X-1.6742 Y1.4205 
G01 X-1.7011 Y1.4293 
G01 X-1.7241 Y1.4459 
G01 X-1.7407 Y1.4689 
G01 X-1.7495 Y1.4958 
G01 X-1.7495 Y1.5021 
G01 X-1.7495 Y1.6475 
G01 X-1.7917 Y1.6475 
G01 X-1.8047 Y1.6605 
G01 X-2.0321 Y1.6605 
G01 X-2.0400 Y1.6605 
G01 X-2.0542 Y1.6605 
G01 X-2.0811 Y1.6693 
G01 X-2.1041 Y1.6859 
G01 X-2.1207 Y1.7089 
G01 X-2.1295 Y1.7358 
G01 X-2.1295 Y1.7500 
G01 X-2.1295 Y1.7579 
G01 X-2.1295 Y1.8705 
G01 X-2.6463 Y1.8705 
G01 X-2.6175 Y1.8417 
G01 X-2.6175 Y1.8003 
G01 X-2.6107 Y1.8211 
G01 X-2.5941 Y1.8441 
G01 X-2.5711 Y1.8607 
G01 X-2.5442 Y1.8695 
G01 X-2.5300 Y1.8695 
G01 X-2.5221 Y1.8695 
G01 X-2.3821 Y1.8695 
G01 X-2.3758 Y1.8695 
G01 X-2.3489 Y1.8607 
G01 X-2.3259 Y1.8441 
G01 X-2.3093 Y1.8211 
G01 X-2.3005 Y1.7942 
G01 X-2.3005 Y1.7879 
G01 X-2.3005 Y1.7795 
G01 X-2.2501 Y1.7795 
G01 X-2.2333 Y1.7963 
G01 X-2.1867 Y1.7963 
G01 X-2.1537 Y1.7633 
G01 X-2.1537 Y1.7167 
G01 X-2.1867 Y1.6837 
G01 X-2.2333 Y1.6837 
G01 X-2.2501 Y1.7005 
G01 X-2.3053 Y1.7005 
G01 X-2.3183 Y1.6875 
G01 X-2.3383 Y1.6875 
G01 X-2.3375 Y1.6867 
G01 X-2.3375 Y1.6433 
G01 X-2.3505 Y1.6303 
G01 X-2.3505 Y1.6300 
G01 X-2.3504 Y1.6284 
G01 X-2.3494 Y1.6252 
G01 X-2.3474 Y1.6226 
G01 X-2.3448 Y1.6206 
G00 Z0.1000 
G00 X-3.0025 Y1.1083 
G01 Z-0.0070 F10.00 
G01 X-3.0025 Y1.1517 F20.00 
G01 X-2.9717 Y1.1825 
G01 X-2.9283 Y1.1825 
G01 X-2.8975 Y1.1517 
G01 X-2.8975 Y1.1083 
G01 X-2.9105 Y1.0953 
G01 X-2.9105 Y1.0600 
G01 X-2.9104 Y1.0584 
G01 X-2.9094 Y1.0552 
G01 X-2.9074 Y1.0526 
G01 X-2.9048 Y1.0506 
G01 X-2.9016 Y1.0496 
G01 X-2.9000 Y1.0495 
G01 X-2.8931 Y1.0495 
G01 X-2.8921 Y1.0495 
G01 X-2.3517 Y1.0495 
G01 X-2.3467 Y1.0545 
G01 X-2.3335 Y1.0600 
G01 X-2.3467 Y1.0655 
G01 X-2.3615 Y1.0803 
G01 X-2.3695 Y1.0996 
G01 X-2.3695 Y1.1204 
G01 X-2.3615 Y1.1397 
G01 X-2.3467 Y1.1545 
G01 X-2.3335 Y1.1600 
G01 X-2.3467 Y1.1655 
G01 X-2.3517 Y1.1705 
G01 X-2.4621 Y1.1705 
G01 X-2.4635 Y1.1705 
G01 X-2.4779 Y1.1705 
G01 X-2.4842 Y1.1705 
G01 X-2.5111 Y1.1793 
G01 X-2.5341 Y1.1959 
G01 X-2.5507 Y1.2189 
G01 X-2.5595 Y1.2458 
G01 X-2.5595 Y1.2521 
G01 X-2.5595 Y1.4005 
G01 X-2.8589 Y1.4005 
G01 X-2.8677 Y1.3917 
G01 X-2.8887 Y1.3830 
G01 X-2.9113 Y1.3830 
G01 X-2.9323 Y1.3917 
G01 X-2.9483 Y1.4077 
G01 X-2.9505 Y1.4130 
G01 X-2.9505 Y1.3825 
G01 X-2.9283 Y1.3825 
G01 X-2.8975 Y1.3517 
G01 X-2.8975 Y1.3083 
G01 X-2.9263 Y1.2795 
G01 X-2.7239 Y1.2795 
G01 X-2.7200 Y1.2803 
G01 X-2.7161 Y1.2795 
G01 X-2.7147 Y1.2795 
G01 X-2.6917 Y1.3025 
G01 X-2.6483 Y1.3025 
G01 X-2.6175 Y1.2717 
G01 X-2.6175 Y1.2283 
G01 X-2.6483 Y1.1975 
G01 X-2.6773 Y1.1975 
G01 X-2.6999 Y1.1930 
G01 X-2.7294 Y1.1988 
G01 X-2.7320 Y1.2005 
G01 X-3.0121 Y1.2005 
G01 X-3.0131 Y1.2005 
G01 X-3.0279 Y1.2005 
G01 X-3.0342 Y1.2005 
G01 X-3.0611 Y1.2093 
G01 X-3.0841 Y1.2259 
G01 X-3.1007 Y1.2489 
G01 X-3.1095 Y1.2758 
G01 X-3.1095 Y1.2821 
G01 X-3.1095 Y1.5863 
G01 X-3.1205 Y1.5753 
G01 X-3.1205 Y0.9600 
G01 X-3.1204 Y0.9584 
G01 X-3.1194 Y0.9552 
G01 X-3.1174 Y0.9526 
G01 X-3.1148 Y0.9506 
G01 X-3.1116 Y0.9496 
G01 X-3.1100 Y0.9495 
G01 X-3.1055 Y0.9495 
G01 X-3.1021 Y0.9495 
G01 X-2.5501 Y0.9495 
G01 X-2.5333 Y0.9663 
G01 X-2.4867 Y0.9663 
G01 X-2.4699 Y0.9495 
G01 X-2.1679 Y0.9495 
G01 X-2.1600 Y0.9495 
G01 X-2.1584 Y0.9496 
G01 X-2.1552 Y0.9506 
G01 X-2.1526 Y0.9526 
G01 X-2.1506 Y0.9552 
G01 X-2.1496 Y0.9584 
G01 X-2.1495 Y0.9600 
G01 X-2.1495 Y0.9669 
G01 X-2.1495 Y0.9679 
G01 X-2.1495 Y1.2705 
G01 X-2.1683 Y1.2705 
G01 X-2.1733 Y1.2655 
G01 X-2.1865 Y1.2600 
G01 X-2.1733 Y1.2545 
G01 X-2.1585 Y1.2397 
G01 X-2.1505 Y1.2204 
G01 X-2.1505 Y1.1996 
G01 X-2.1585 Y1.1803 
G01 X-2.1733 Y1.1655 
G01 X-2.1865 Y1.1600 
G01 X-2.1733 Y1.1545 
G01 X-2.1585 Y1.1397 
G01 X-2.1505 Y1.1204 
G01 X-2.1505 Y1.0996 
G01 X-2.1585 Y1.0803 
G01 X-2.1733 Y1.0655 
G01 X-2.1865 Y1.0600 
G01 X-2.1733 Y1.0545 
G01 X-2.1585 Y1.0397 
G01 X-2.1505 Y1.0204 
G01 X-2.1505 Y0.9996 
G01 X-2.1585 Y0.9803 
G01 X-2.1733 Y0.9655 
G01 X-2.1926 Y0.9575 
G01 X-2.3274 Y0.9575 
G01 X-2.3467 Y0.9655 
G01 X-2.3517 Y0.9705 
G01 X-2.8921 Y0.9705 
G01 X-2.8931 Y0.9705 
G01 X-2.9079 Y0.9705 
G01 X-2.9142 Y0.9705 
G01 X-2.9411 Y0.9793 
G01 X-2.9641 Y0.9959 
G01 X-2.9807 Y1.0189 
G01 X-2.9895 Y1.0458 
G01 X-2.9895 Y1.0521 
G01 X-2.9895 Y1.0953 
G01 X-3.0025 Y1.1083 
G00 Z0.1000 
G00 X-2.4805 Y1.4479 
G01 Z-0.0070 F10.00 
G01 X-2.4805 Y1.4321 F20.00 
G01 X-2.4805 Y1.2600 
G01 X-2.4804 Y1.2584 
G01 X-2.4794 Y1.2552 
G01 X-2.4774 Y1.2526 
G01 X-2.4748 Y1.2506 
G01 X-2.4716 Y1.2496 
G01 X-2.4700 Y1.2495 
G01 X-2.4635 Y1.2495 
G01 X-2.4621 Y1.2495 
G01 X-2.3517 Y1.2495 
G01 X-2.3467 Y1.2545 
G01 X-2.3335 Y1.2600 
G01 X-2.3467 Y1.2655 
G01 X-2.3615 Y1.2803 
G01 X-2.3695 Y1.2996 
G01 X-2.3695 Y1.3204 
G01 X-2.3615 Y1.3397 
G01 X-2.3467 Y1.3545 
G01 X-2.3274 Y1.3625 
G01 X-2.1926 Y1.3625 
G01 X-2.1733 Y1.3545 
G01 X-2.1683 Y1.3495 
G01 X-2.1379 Y1.3495 
G01 X-2.1221 Y1.3495 
G01 X-2.1182 Y1.3495 
G01 X-2.0963 Y1.3404 
G01 X-2.0796 Y1.3237 
G01 X-2.0705 Y1.3018 
G01 X-2.0705 Y1.2979 
G01 X-2.0705 Y1.2821 
G01 X-2.0705 Y1.0564 
G01 X-2.0636 Y1.0495 
G01 X-2.0517 Y1.0495 
G01 X-2.0467 Y1.0545 
G01 X-2.0335 Y1.0600 
G01 X-2.0467 Y1.0655 
